(G-CODE GENERATED BY FLATCAM v8.994 - www.flatcam.org - Version Date: 2020/11/7)

(Name: new_geo_cnc)
(Type: G-code from Geometry)
(Units: MM)

(Created on Thursday, 05 August 2021 at 12:18)

(This preprocessor is the default preprocessor used by FlatCAM.)
(It is made to work with MACH3 compatible motion controllers.)

(TOOL DIAMETER: 3.0 mm)
(Feedrate_XY: 200.0 mm/min)
(Feedrate_Z: 60.0 mm/min)
(Feedrate rapids 1500.0 mm/min)

(Z_Cut: -1.6 mm)
(Z_Move: 2.0 mm)
(Z Start: None mm)
(Z End: 15.0 mm)
(X,Y End: None mm)
(Steps per circle: 64)
(Preprocessor Geometry: default)

(X range:    2.0000 ...   57.0000  mm)
(Y range:    1.0000 ...   27.0000  mm)

(Spindle Speed: 0.0 RPM)
G21
G90
G94

G01 F200.00

M5
G00 Z15.0000
G00 X0.0000 Y0.0000
T1
M6    
(MSG, Change to Tool Dia = 3.0000)
M0
G00 Z15.0000

M03
G01 F200.00
G00 X2.0000 Y27.0000
G01 F60.00
G01 Z-1.6000
G01 F200.00
G01 X2.0000 Y1.0000
G01 X57.0000 Y1.0000
G01 X57.0000 Y27.0000
G01 X2.0000 Y27.0000
G00 Z2.0000
M05
G00 Z2.0000
G00 Z15.00


