(G-CODE GENERATED BY FLATCAM v8.994 - www.flatcam.org - Version Date: 2020/11/7)

(Name: AD2CheckWSw3018x1_copperBottom.gbl_iso_combined_cnc)
(Type: G-code from Geometry)
(Units: MM)

(Created on Thursday, 05 August 2021 at 12:24)

(This preprocessor is the default preprocessor used by FlatCAM.)
(It is made to work with MACH3 compatible motion controllers.)

(TOOL DIAMETER: 0.5 mm)
(Feedrate_XY: 200.0 mm/min)
(Feedrate_Z: 60.0 mm/min)
(Feedrate rapids 1500.0 mm/min)

(Z_Cut: -0.3732 mm)
(Z_Move: 2.0 mm)
(Z Start: None mm)
(Z End: 15.0 mm)
(X,Y End: None mm)
(Steps per circle: 64)
(Preprocessor Geometry: default)

(X range:    7.9416 ...   50.6495  mm)
(Y range:    4.4647 ...   23.9899  mm)

(Spindle Speed: 0.0 RPM)
G21
G90
G94

G01 F200.00

M5
G00 Z15.0000
G00 X0.0000 Y0.0000
T1
M6    
(MSG, Change to Tool Dia = 0.5000)
M0
G00 Z15.0000

M03
G01 F200.00
G00 X10.4933 Y8.7940
G01 F60.00
G01 Z-0.3732
G01 F200.00
G01 X10.4687 Y8.7715
G01 X10.4600 Y8.7628
G01 X10.3865 Y8.6817
G01 X10.3750 Y8.6674
G01 X10.3135 Y8.5843
G01 X10.3034 Y8.5689
G01 X10.2534 Y8.4855
G01 X10.2474 Y8.4748
G01 X10.2419 Y8.4639
G01 X10.1978 Y8.3704
G01 X10.1909 Y8.3533
G01 X10.1582 Y8.2618
G01 X10.1543 Y8.2501
G01 X10.1511 Y8.2383
G01 X10.1274 Y8.1440
G01 X10.1247 Y8.1320
G01 X10.1226 Y8.1199
G01 X10.1084 Y8.0238
G01 X10.1069 Y8.0116
G01 X10.1060 Y7.9994
G01 X10.1010 Y7.8961
G01 X10.1012 Y7.8777
G01 X10.1060 Y7.7806
G01 X10.1069 Y7.7684
G01 X10.1084 Y7.7562
G01 X10.1226 Y7.6601
G01 X10.1247 Y7.6480
G01 X10.1274 Y7.6360
G01 X10.1511 Y7.5417
G01 X10.1543 Y7.5299
G01 X10.1582 Y7.5182
G01 X10.1909 Y7.4267
G01 X10.1953 Y7.4152
G01 X10.2003 Y7.4040
G01 X10.2419 Y7.3161
G01 X10.2474 Y7.3052
G01 X10.2534 Y7.2945
G01 X10.3034 Y7.2111
G01 X10.3100 Y7.2008
G01 X10.3171 Y7.1907
G01 X10.3750 Y7.1126
G01 X10.3825 Y7.1030
G01 X10.3905 Y7.0937
G01 X10.4600 Y7.0172
G01 X10.4732 Y7.0043
G01 X10.5452 Y6.9390
G01 X10.5545 Y6.9310
G01 X10.5642 Y6.9235
G01 X10.6422 Y6.8655
G01 X10.6523 Y6.8585
G01 X10.6626 Y6.8519
G01 X10.7460 Y6.8019
G01 X10.7567 Y6.7959
G01 X10.7677 Y6.7904
G01 X10.8555 Y6.7488
G01 X10.8667 Y6.7438
G01 X10.8782 Y6.7394
G01 X10.9697 Y6.7067
G01 X10.9814 Y6.7028
G01 X10.9932 Y6.6995
G01 X11.0875 Y6.6759
G01 X11.0995 Y6.6732
G01 X11.1116 Y6.6711
G01 X11.2077 Y6.6569
G01 X11.2199 Y6.6554
G01 X11.2321 Y6.6545
G01 X11.3292 Y6.6497
G01 X11.3415 Y6.6494
G01 X11.3538 Y6.6497
G01 X11.4509 Y6.6545
G01 X11.4631 Y6.6554
G01 X11.4753 Y6.6569
G01 X11.5714 Y6.6711
G01 X11.5835 Y6.6732
G01 X11.5955 Y6.6759
G01 X11.6898 Y6.6995
G01 X11.7016 Y6.7028
G01 X11.7133 Y6.7067
G01 X11.8048 Y6.7394
G01 X11.8163 Y6.7438
G01 X11.8275 Y6.7488
G01 X11.9154 Y6.7904
G01 X11.9263 Y6.7959
G01 X11.9370 Y6.8019
G01 X12.0204 Y6.8519
G01 X12.0307 Y6.8585
G01 X12.0408 Y6.8655
G01 X12.1189 Y6.9235
G01 X12.1285 Y6.9310
G01 X12.1378 Y6.9390
G01 X12.2143 Y7.0085
G01 X12.2272 Y7.0217
G01 X12.2925 Y7.0937
G01 X12.3005 Y7.1030
G01 X12.3080 Y7.1126
G01 X12.3660 Y7.1907
G01 X12.3730 Y7.2008
G01 X12.3796 Y7.2111
G01 X12.4296 Y7.2945
G01 X12.4356 Y7.3052
G01 X12.4411 Y7.3161
G01 X12.4827 Y7.4040
G01 X12.4877 Y7.4152
G01 X12.4921 Y7.4267
G01 X12.5248 Y7.5182
G01 X12.5287 Y7.5299
G01 X12.5320 Y7.5417
G01 X12.5556 Y7.6360
G01 X12.5583 Y7.6480
G01 X12.5604 Y7.6601
G01 X12.5746 Y7.7562
G01 X12.5761 Y7.7684
G01 X12.5770 Y7.7806
G01 X12.5818 Y7.8777
G01 X12.5821 Y7.8900
G01 X12.5818 Y7.9023
G01 X12.5770 Y7.9994
G01 X12.5761 Y8.0116
G01 X12.5746 Y8.0238
G01 X12.5604 Y8.1199
G01 X12.5583 Y8.1320
G01 X12.5556 Y8.1440
G01 X12.5320 Y8.2383
G01 X12.5287 Y8.2501
G01 X12.5248 Y8.2618
G01 X12.4921 Y8.3533
G01 X12.4853 Y8.3704
G01 X12.4411 Y8.4639
G01 X12.4356 Y8.4748
G01 X12.4296 Y8.4855
G01 X12.3796 Y8.5689
G01 X12.3696 Y8.5843
G01 X12.3080 Y8.6674
G01 X12.2966 Y8.6817
G01 X12.2230 Y8.7628
G01 X12.2143 Y8.7715
G01 X12.1897 Y8.7940
G01 X12.1973 Y8.8471
G01 X12.1982 Y8.8594
G01 X12.2013 Y8.9253
G01 X12.2014 Y9.3632
G01 X12.2011 Y9.3755
G01 X12.1973 Y9.4475
G01 X12.1958 Y9.4597
G01 X12.1863 Y9.5230
G01 X12.2143 Y9.5485
G01 X12.2230 Y9.5572
G01 X12.2966 Y9.6383
G01 X12.3080 Y9.6526
G01 X12.3696 Y9.7357
G01 X12.3796 Y9.7511
G01 X12.4296 Y9.8345
G01 X12.4356 Y9.8452
G01 X12.4411 Y9.8561
G01 X12.4827 Y9.9440
G01 X12.4899 Y9.9609
G01 X12.5248 Y10.0582
G01 X12.5287 Y10.0699
G01 X12.5320 Y10.0817
G01 X12.5556 Y10.1760
G01 X12.5583 Y10.1880
G01 X12.5604 Y10.2001
G01 X12.5746 Y10.2962
G01 X12.5761 Y10.3084
G01 X12.5770 Y10.3206
G01 X12.5818 Y10.4177
G01 X12.5821 Y10.4300
G01 X12.5818 Y10.4423
G01 X12.5767 Y10.5455
G01 X12.5746 Y10.5638
G01 X12.5604 Y10.6599
G01 X12.5583 Y10.6720
G01 X12.5556 Y10.6840
G01 X12.5320 Y10.7783
G01 X12.5287 Y10.7901
G01 X12.5248 Y10.8018
G01 X12.4921 Y10.8933
G01 X12.4877 Y10.9048
G01 X12.4827 Y10.9160
G01 X12.4411 Y11.0039
G01 X12.4356 Y11.0148
G01 X12.4296 Y11.0255
G01 X12.3796 Y11.1089
G01 X12.3730 Y11.1192
G01 X12.3660 Y11.1293
G01 X12.3080 Y11.2074
G01 X12.3005 Y11.2170
G01 X12.2925 Y11.2263
G01 X12.2272 Y11.2983
G01 X12.2187 Y11.3072
G01 X12.2099 Y11.3157
G01 X12.1378 Y11.3810
G01 X12.1285 Y11.3890
G01 X12.1189 Y11.3965
G01 X12.0408 Y11.4545
G01 X12.0307 Y11.4615
G01 X12.0204 Y11.4681
G01 X11.9370 Y11.5181
G01 X11.9263 Y11.5241
G01 X11.9154 Y11.5296
G01 X11.8275 Y11.5712
G01 X11.8163 Y11.5762
G01 X11.8048 Y11.5806
G01 X11.7133 Y11.6133
G01 X11.7016 Y11.6172
G01 X11.6898 Y11.6205
G01 X11.5955 Y11.6441
G01 X11.5835 Y11.6468
G01 X11.5714 Y11.6489
G01 X11.4753 Y11.6631
G01 X11.4631 Y11.6646
G01 X11.4509 Y11.6655
G01 X11.3538 Y11.6703
G01 X11.3415 Y11.6706
G01 X11.3292 Y11.6703
G01 X11.2321 Y11.6655
G01 X11.2199 Y11.6646
G01 X11.2077 Y11.6631
G01 X11.1116 Y11.6489
G01 X11.0995 Y11.6468
G01 X11.0875 Y11.6441
G01 X10.9932 Y11.6205
G01 X10.9814 Y11.6172
G01 X10.9697 Y11.6133
G01 X10.8782 Y11.5806
G01 X10.8667 Y11.5762
G01 X10.8555 Y11.5712
G01 X10.7677 Y11.5296
G01 X10.7567 Y11.5241
G01 X10.7460 Y11.5181
G01 X10.6626 Y11.4681
G01 X10.6523 Y11.4615
G01 X10.6422 Y11.4545
G01 X10.5642 Y11.3965
G01 X10.5545 Y11.3890
G01 X10.5452 Y11.3810
G01 X10.4732 Y11.3157
G01 X10.4643 Y11.3072
G01 X10.4558 Y11.2983
G01 X10.3905 Y11.2263
G01 X10.3825 Y11.2170
G01 X10.3750 Y11.2074
G01 X10.3171 Y11.1293
G01 X10.3100 Y11.1192
G01 X10.3034 Y11.1089
G01 X10.2534 Y11.0255
G01 X10.2474 Y11.0148
G01 X10.2419 Y11.0039
G01 X10.2003 Y10.9160
G01 X10.1953 Y10.9048
G01 X10.1909 Y10.8933
G01 X10.1582 Y10.8018
G01 X10.1543 Y10.7901
G01 X10.1511 Y10.7783
G01 X10.1274 Y10.6840
G01 X10.1247 Y10.6720
G01 X10.1226 Y10.6599
G01 X10.1084 Y10.5638
G01 X10.1069 Y10.5516
G01 X10.1060 Y10.5394
G01 X10.1012 Y10.4423
G01 X10.1009 Y10.4300
G01 X10.1012 Y10.4177
G01 X10.1060 Y10.3206
G01 X10.1069 Y10.3084
G01 X10.1084 Y10.2962
G01 X10.1226 Y10.2001
G01 X10.1247 Y10.1880
G01 X10.1274 Y10.1760
G01 X10.1511 Y10.0817
G01 X10.1543 Y10.0699
G01 X10.1582 Y10.0582
G01 X10.1909 Y9.9667
G01 X10.1953 Y9.9552
G01 X10.2003 Y9.9440
G01 X10.2446 Y9.8506
G01 X10.2534 Y9.8345
G01 X10.3034 Y9.7511
G01 X10.3100 Y9.7408
G01 X10.3171 Y9.7307
G01 X10.3787 Y9.6478
G01 X10.3905 Y9.6337
G01 X10.4600 Y9.5572
G01 X10.4687 Y9.5485
G01 X10.4967 Y9.5230
G01 X10.4872 Y9.4597
G01 X10.4857 Y9.4475
G01 X10.4819 Y9.3755
G01 X10.4816 Y9.3632
G01 X10.4817 Y8.9253
G01 X10.4848 Y8.8594
G01 X10.4857 Y8.8471
G01 X10.4933 Y8.7940
G00 Z2.0000
G00 X13.0333 Y8.7940
G01 F60.00
G01 Z-0.3732
G01 F200.00
G01 X13.0087 Y8.7715
G01 X13.0000 Y8.7628
G01 X12.9265 Y8.6817
G01 X12.9150 Y8.6674
G01 X12.8535 Y8.5843
G01 X12.8434 Y8.5689
G01 X12.7934 Y8.4855
G01 X12.7874 Y8.4748
G01 X12.7819 Y8.4639
G01 X12.7378 Y8.3704
G01 X12.7309 Y8.3533
G01 X12.6982 Y8.2618
G01 X12.6943 Y8.2501
G01 X12.6911 Y8.2383
G01 X12.6674 Y8.1440
G01 X12.6647 Y8.1320
G01 X12.6626 Y8.1199
G01 X12.6484 Y8.0238
G01 X12.6469 Y8.0116
G01 X12.6460 Y7.9994
G01 X12.6410 Y7.8961
G01 X12.6412 Y7.8777
G01 X12.6460 Y7.7806
G01 X12.6469 Y7.7684
G01 X12.6484 Y7.7562
G01 X12.6626 Y7.6601
G01 X12.6647 Y7.6480
G01 X12.6674 Y7.6360
G01 X12.6911 Y7.5417
G01 X12.6943 Y7.5299
G01 X12.6982 Y7.5182
G01 X12.7309 Y7.4267
G01 X12.7353 Y7.4152
G01 X12.7403 Y7.4040
G01 X12.7819 Y7.3161
G01 X12.7874 Y7.3052
G01 X12.7934 Y7.2945
G01 X12.8434 Y7.2111
G01 X12.8500 Y7.2008
G01 X12.8571 Y7.1907
G01 X12.9150 Y7.1126
G01 X12.9225 Y7.1030
G01 X12.9305 Y7.0937
G01 X13.0000 Y7.0172
G01 X13.0132 Y7.0043
G01 X13.0852 Y6.9390
G01 X13.0945 Y6.9310
G01 X13.1042 Y6.9235
G01 X13.1822 Y6.8655
G01 X13.1923 Y6.8585
G01 X13.2026 Y6.8519
G01 X13.2860 Y6.8019
G01 X13.2967 Y6.7959
G01 X13.3077 Y6.7904
G01 X13.3955 Y6.7488
G01 X13.4067 Y6.7438
G01 X13.4182 Y6.7394
G01 X13.5097 Y6.7067
G01 X13.5214 Y6.7028
G01 X13.5332 Y6.6995
G01 X13.6275 Y6.6759
G01 X13.6395 Y6.6732
G01 X13.6516 Y6.6711
G01 X13.7477 Y6.6569
G01 X13.7599 Y6.6554
G01 X13.7721 Y6.6545
G01 X13.8692 Y6.6497
G01 X13.8815 Y6.6494
G01 X13.8938 Y6.6497
G01 X13.9909 Y6.6545
G01 X14.0031 Y6.6554
G01 X14.0153 Y6.6569
G01 X14.1114 Y6.6711
G01 X14.1235 Y6.6732
G01 X14.1355 Y6.6759
G01 X14.2298 Y6.6995
G01 X14.2416 Y6.7028
G01 X14.2533 Y6.7067
G01 X14.3448 Y6.7394
G01 X14.3563 Y6.7438
G01 X14.3675 Y6.7488
G01 X14.4554 Y6.7904
G01 X14.4663 Y6.7959
G01 X14.4770 Y6.8019
G01 X14.5604 Y6.8519
G01 X14.5707 Y6.8585
G01 X14.5808 Y6.8655
G01 X14.6589 Y6.9235
G01 X14.6685 Y6.9310
G01 X14.6778 Y6.9390
G01 X14.7543 Y7.0085
G01 X14.7672 Y7.0217
G01 X14.8325 Y7.0937
G01 X14.8405 Y7.1030
G01 X14.8480 Y7.1126
G01 X14.9060 Y7.1907
G01 X14.9130 Y7.2008
G01 X14.9196 Y7.2111
G01 X14.9696 Y7.2945
G01 X14.9756 Y7.3052
G01 X14.9811 Y7.3161
G01 X15.0227 Y7.4040
G01 X15.0277 Y7.4152
G01 X15.0321 Y7.4267
G01 X15.0648 Y7.5182
G01 X15.0687 Y7.5299
G01 X15.0720 Y7.5417
G01 X15.0956 Y7.6360
G01 X15.0983 Y7.6480
G01 X15.1004 Y7.6601
G01 X15.1146 Y7.7562
G01 X15.1161 Y7.7684
G01 X15.1170 Y7.7806
G01 X15.1218 Y7.8777
G01 X15.1221 Y7.8900
G01 X15.1218 Y7.9023
G01 X15.1170 Y7.9994
G01 X15.1161 Y8.0116
G01 X15.1146 Y8.0238
G01 X15.1004 Y8.1199
G01 X15.0983 Y8.1320
G01 X15.0956 Y8.1440
G01 X15.0720 Y8.2383
G01 X15.0687 Y8.2501
G01 X15.0648 Y8.2618
G01 X15.0321 Y8.3533
G01 X15.0253 Y8.3704
G01 X14.9811 Y8.4639
G01 X14.9756 Y8.4748
G01 X14.9696 Y8.4855
G01 X14.9196 Y8.5689
G01 X14.9096 Y8.5843
G01 X14.8480 Y8.6674
G01 X14.8366 Y8.6817
G01 X14.7630 Y8.7628
G01 X14.7543 Y8.7715
G01 X14.7297 Y8.7940
G01 X14.7373 Y8.8471
G01 X14.7382 Y8.8594
G01 X14.7413 Y8.9253
G01 X14.7414 Y9.3632
G01 X14.7411 Y9.3755
G01 X14.7373 Y9.4475
G01 X14.7358 Y9.4597
G01 X14.7263 Y9.5230
G01 X14.7543 Y9.5485
G01 X14.7630 Y9.5572
G01 X14.8366 Y9.6383
G01 X14.8480 Y9.6526
G01 X14.9096 Y9.7357
G01 X14.9196 Y9.7511
G01 X14.9696 Y9.8345
G01 X14.9756 Y9.8452
G01 X14.9811 Y9.8561
G01 X15.0227 Y9.9440
G01 X15.0299 Y9.9609
G01 X15.0648 Y10.0582
G01 X15.0687 Y10.0699
G01 X15.0720 Y10.0817
G01 X15.0956 Y10.1760
G01 X15.0983 Y10.1880
G01 X15.1004 Y10.2001
G01 X15.1146 Y10.2962
G01 X15.1161 Y10.3084
G01 X15.1170 Y10.3206
G01 X15.1218 Y10.4177
G01 X15.1221 Y10.4300
G01 X15.1218 Y10.4423
G01 X15.1167 Y10.5455
G01 X15.1146 Y10.5638
G01 X15.1004 Y10.6599
G01 X15.0983 Y10.6720
G01 X15.0956 Y10.6840
G01 X15.0720 Y10.7783
G01 X15.0687 Y10.7901
G01 X15.0648 Y10.8018
G01 X15.0321 Y10.8933
G01 X15.0277 Y10.9048
G01 X15.0227 Y10.9160
G01 X14.9811 Y11.0039
G01 X14.9756 Y11.0148
G01 X14.9696 Y11.0255
G01 X14.9196 Y11.1089
G01 X14.9130 Y11.1192
G01 X14.9060 Y11.1293
G01 X14.8480 Y11.2074
G01 X14.8405 Y11.2170
G01 X14.8325 Y11.2263
G01 X14.7672 Y11.2983
G01 X14.7587 Y11.3072
G01 X14.7499 Y11.3157
G01 X14.6778 Y11.3810
G01 X14.6685 Y11.3890
G01 X14.6589 Y11.3965
G01 X14.5808 Y11.4545
G01 X14.5707 Y11.4615
G01 X14.5604 Y11.4681
G01 X14.4770 Y11.5181
G01 X14.4663 Y11.5241
G01 X14.4554 Y11.5296
G01 X14.3675 Y11.5712
G01 X14.3563 Y11.5762
G01 X14.3448 Y11.5806
G01 X14.2533 Y11.6133
G01 X14.2416 Y11.6172
G01 X14.2298 Y11.6205
G01 X14.1355 Y11.6441
G01 X14.1235 Y11.6468
G01 X14.1114 Y11.6489
G01 X14.0153 Y11.6631
G01 X14.0031 Y11.6646
G01 X13.9909 Y11.6655
G01 X13.8938 Y11.6703
G01 X13.8815 Y11.6706
G01 X13.8692 Y11.6703
G01 X13.7721 Y11.6655
G01 X13.7599 Y11.6646
G01 X13.7477 Y11.6631
G01 X13.6516 Y11.6489
G01 X13.6395 Y11.6468
G01 X13.6275 Y11.6441
G01 X13.5332 Y11.6205
G01 X13.5214 Y11.6172
G01 X13.5097 Y11.6133
G01 X13.4182 Y11.5806
G01 X13.4067 Y11.5762
G01 X13.3955 Y11.5712
G01 X13.3077 Y11.5296
G01 X13.2967 Y11.5241
G01 X13.2860 Y11.5181
G01 X13.2026 Y11.4681
G01 X13.1923 Y11.4615
G01 X13.1822 Y11.4545
G01 X13.1042 Y11.3965
G01 X13.0945 Y11.3890
G01 X13.0852 Y11.3810
G01 X13.0132 Y11.3157
G01 X13.0043 Y11.3072
G01 X12.9958 Y11.2983
G01 X12.9305 Y11.2263
G01 X12.9225 Y11.2170
G01 X12.9150 Y11.2074
G01 X12.8571 Y11.1293
G01 X12.8500 Y11.1192
G01 X12.8434 Y11.1089
G01 X12.7934 Y11.0255
G01 X12.7874 Y11.0148
G01 X12.7819 Y11.0039
G01 X12.7403 Y10.9160
G01 X12.7353 Y10.9048
G01 X12.7309 Y10.8933
G01 X12.6982 Y10.8018
G01 X12.6943 Y10.7901
G01 X12.6911 Y10.7783
G01 X12.6674 Y10.6840
G01 X12.6647 Y10.6720
G01 X12.6626 Y10.6599
G01 X12.6484 Y10.5638
G01 X12.6469 Y10.5516
G01 X12.6460 Y10.5394
G01 X12.6412 Y10.4423
G01 X12.6409 Y10.4300
G01 X12.6412 Y10.4177
G01 X12.6460 Y10.3206
G01 X12.6469 Y10.3084
G01 X12.6484 Y10.2962
G01 X12.6626 Y10.2001
G01 X12.6647 Y10.1880
G01 X12.6674 Y10.1760
G01 X12.6911 Y10.0817
G01 X12.6943 Y10.0699
G01 X12.6982 Y10.0582
G01 X12.7309 Y9.9667
G01 X12.7353 Y9.9552
G01 X12.7403 Y9.9440
G01 X12.7846 Y9.8506
G01 X12.7934 Y9.8345
G01 X12.8434 Y9.7511
G01 X12.8500 Y9.7408
G01 X12.8571 Y9.7307
G01 X12.9187 Y9.6478
G01 X12.9305 Y9.6337
G01 X13.0000 Y9.5572
G01 X13.0087 Y9.5485
G01 X13.0367 Y9.5230
G01 X13.0272 Y9.4597
G01 X13.0257 Y9.4475
G01 X13.0219 Y9.3755
G01 X13.0216 Y9.3632
G01 X13.0217 Y8.9253
G01 X13.0248 Y8.8594
G01 X13.0257 Y8.8471
G01 X13.0333 Y8.7940
G00 Z2.0000
G00 X15.5733 Y8.7940
G01 F60.00
G01 Z-0.3732
G01 F200.00
G01 X15.5487 Y8.7715
G01 X15.5400 Y8.7628
G01 X15.4665 Y8.6817
G01 X15.4550 Y8.6674
G01 X15.3935 Y8.5843
G01 X15.3834 Y8.5689
G01 X15.3334 Y8.4855
G01 X15.3274 Y8.4748
G01 X15.3219 Y8.4639
G01 X15.2778 Y8.3704
G01 X15.2709 Y8.3533
G01 X15.2382 Y8.2618
G01 X15.2343 Y8.2501
G01 X15.2311 Y8.2383
G01 X15.2074 Y8.1440
G01 X15.2047 Y8.1320
G01 X15.2026 Y8.1199
G01 X15.1884 Y8.0238
G01 X15.1869 Y8.0116
G01 X15.1860 Y7.9994
G01 X15.1810 Y7.8961
G01 X15.1812 Y7.8777
G01 X15.1860 Y7.7806
G01 X15.1869 Y7.7684
G01 X15.1884 Y7.7562
G01 X15.2026 Y7.6601
G01 X15.2047 Y7.6480
G01 X15.2074 Y7.6360
G01 X15.2311 Y7.5417
G01 X15.2343 Y7.5299
G01 X15.2382 Y7.5182
G01 X15.2709 Y7.4267
G01 X15.2753 Y7.4152
G01 X15.2803 Y7.4040
G01 X15.3219 Y7.3161
G01 X15.3274 Y7.3052
G01 X15.3334 Y7.2945
G01 X15.3834 Y7.2111
G01 X15.3900 Y7.2008
G01 X15.3971 Y7.1907
G01 X15.4550 Y7.1126
G01 X15.4625 Y7.1030
G01 X15.4705 Y7.0937
G01 X15.5400 Y7.0172
G01 X15.5532 Y7.0043
G01 X15.6252 Y6.9390
G01 X15.6345 Y6.9310
G01 X15.6442 Y6.9235
G01 X15.7222 Y6.8655
G01 X15.7323 Y6.8585
G01 X15.7426 Y6.8519
G01 X15.8260 Y6.8019
G01 X15.8367 Y6.7959
G01 X15.8477 Y6.7904
G01 X15.9355 Y6.7488
G01 X15.9467 Y6.7438
G01 X15.9582 Y6.7394
G01 X16.0497 Y6.7067
G01 X16.0614 Y6.7028
G01 X16.0732 Y6.6995
G01 X16.1675 Y6.6759
G01 X16.1795 Y6.6732
G01 X16.1916 Y6.6711
G01 X16.2877 Y6.6569
G01 X16.2999 Y6.6554
G01 X16.3121 Y6.6545
G01 X16.4092 Y6.6497
G01 X16.4215 Y6.6494
G01 X16.4338 Y6.6497
G01 X16.5309 Y6.6545
G01 X16.5431 Y6.6554
G01 X16.5553 Y6.6569
G01 X16.6514 Y6.6711
G01 X16.6635 Y6.6732
G01 X16.6755 Y6.6759
G01 X16.7698 Y6.6995
G01 X16.7816 Y6.7028
G01 X16.7933 Y6.7067
G01 X16.8848 Y6.7394
G01 X16.8963 Y6.7438
G01 X16.9075 Y6.7488
G01 X16.9954 Y6.7904
G01 X17.0063 Y6.7959
G01 X17.0170 Y6.8019
G01 X17.1004 Y6.8519
G01 X17.1107 Y6.8585
G01 X17.1208 Y6.8655
G01 X17.1989 Y6.9235
G01 X17.2085 Y6.9310
G01 X17.2178 Y6.9390
G01 X17.2943 Y7.0085
G01 X17.3072 Y7.0217
G01 X17.3725 Y7.0937
G01 X17.3805 Y7.1030
G01 X17.3880 Y7.1126
G01 X17.4460 Y7.1907
G01 X17.4530 Y7.2008
G01 X17.4596 Y7.2111
G01 X17.5096 Y7.2945
G01 X17.5156 Y7.3052
G01 X17.5211 Y7.3161
G01 X17.5627 Y7.4040
G01 X17.5677 Y7.4152
G01 X17.5721 Y7.4267
G01 X17.6048 Y7.5182
G01 X17.6087 Y7.5299
G01 X17.6120 Y7.5417
G01 X17.6356 Y7.6360
G01 X17.6383 Y7.6480
G01 X17.6404 Y7.6601
G01 X17.6546 Y7.7562
G01 X17.6561 Y7.7684
G01 X17.6570 Y7.7806
G01 X17.6618 Y7.8777
G01 X17.6621 Y7.8900
G01 X17.6618 Y7.9023
G01 X17.6570 Y7.9994
G01 X17.6561 Y8.0116
G01 X17.6546 Y8.0238
G01 X17.6404 Y8.1199
G01 X17.6383 Y8.1320
G01 X17.6356 Y8.1440
G01 X17.6120 Y8.2383
G01 X17.6087 Y8.2501
G01 X17.6048 Y8.2618
G01 X17.5721 Y8.3533
G01 X17.5653 Y8.3704
G01 X17.5211 Y8.4639
G01 X17.5156 Y8.4748
G01 X17.5096 Y8.4855
G01 X17.4596 Y8.5689
G01 X17.4496 Y8.5843
G01 X17.3880 Y8.6674
G01 X17.3766 Y8.6817
G01 X17.3030 Y8.7628
G01 X17.2943 Y8.7715
G01 X17.2697 Y8.7940
G01 X17.2773 Y8.8471
G01 X17.2782 Y8.8594
G01 X17.2813 Y8.9253
G01 X17.2814 Y9.3632
G01 X17.2811 Y9.3755
G01 X17.2773 Y9.4475
G01 X17.2758 Y9.4597
G01 X17.2663 Y9.5230
G01 X17.2943 Y9.5485
G01 X17.3030 Y9.5572
G01 X17.3766 Y9.6383
G01 X17.3880 Y9.6526
G01 X17.4496 Y9.7357
G01 X17.4596 Y9.7511
G01 X17.5096 Y9.8345
G01 X17.5156 Y9.8452
G01 X17.5211 Y9.8561
G01 X17.5627 Y9.9440
G01 X17.5699 Y9.9609
G01 X17.6048 Y10.0582
G01 X17.6087 Y10.0699
G01 X17.6120 Y10.0817
G01 X17.6356 Y10.1760
G01 X17.6383 Y10.1880
G01 X17.6404 Y10.2001
G01 X17.6546 Y10.2962
G01 X17.6561 Y10.3084
G01 X17.6570 Y10.3206
G01 X17.6618 Y10.4177
G01 X17.6621 Y10.4300
G01 X17.6618 Y10.4423
G01 X17.6567 Y10.5455
G01 X17.6546 Y10.5638
G01 X17.6404 Y10.6599
G01 X17.6383 Y10.6720
G01 X17.6356 Y10.6840
G01 X17.6120 Y10.7783
G01 X17.6087 Y10.7901
G01 X17.6048 Y10.8018
G01 X17.5721 Y10.8933
G01 X17.5677 Y10.9048
G01 X17.5627 Y10.9160
G01 X17.5211 Y11.0039
G01 X17.5156 Y11.0148
G01 X17.5096 Y11.0255
G01 X17.4596 Y11.1089
G01 X17.4530 Y11.1192
G01 X17.4460 Y11.1293
G01 X17.3880 Y11.2074
G01 X17.3805 Y11.2170
G01 X17.3725 Y11.2263
G01 X17.3072 Y11.2983
G01 X17.2987 Y11.3072
G01 X17.2899 Y11.3157
G01 X17.2178 Y11.3810
G01 X17.2085 Y11.3890
G01 X17.1989 Y11.3965
G01 X17.1208 Y11.4545
G01 X17.1107 Y11.4615
G01 X17.1004 Y11.4681
G01 X17.0170 Y11.5181
G01 X17.0063 Y11.5241
G01 X16.9954 Y11.5296
G01 X16.9075 Y11.5712
G01 X16.8963 Y11.5762
G01 X16.8848 Y11.5806
G01 X16.7933 Y11.6133
G01 X16.7816 Y11.6172
G01 X16.7698 Y11.6205
G01 X16.6755 Y11.6441
G01 X16.6635 Y11.6468
G01 X16.6514 Y11.6489
G01 X16.5553 Y11.6631
G01 X16.5431 Y11.6646
G01 X16.5309 Y11.6655
G01 X16.4338 Y11.6703
G01 X16.4215 Y11.6706
G01 X16.4092 Y11.6703
G01 X16.3121 Y11.6655
G01 X16.2999 Y11.6646
G01 X16.2877 Y11.6631
G01 X16.1916 Y11.6489
G01 X16.1795 Y11.6468
G01 X16.1675 Y11.6441
G01 X16.0732 Y11.6205
G01 X16.0614 Y11.6172
G01 X16.0497 Y11.6133
G01 X15.9582 Y11.5806
G01 X15.9467 Y11.5762
G01 X15.9355 Y11.5712
G01 X15.8477 Y11.5296
G01 X15.8367 Y11.5241
G01 X15.8260 Y11.5181
G01 X15.7426 Y11.4681
G01 X15.7323 Y11.4615
G01 X15.7222 Y11.4545
G01 X15.6442 Y11.3965
G01 X15.6345 Y11.3890
G01 X15.6252 Y11.3810
G01 X15.5532 Y11.3157
G01 X15.5443 Y11.3072
G01 X15.5358 Y11.2983
G01 X15.4705 Y11.2263
G01 X15.4625 Y11.2170
G01 X15.4550 Y11.2074
G01 X15.3971 Y11.1293
G01 X15.3900 Y11.1192
G01 X15.3834 Y11.1089
G01 X15.3334 Y11.0255
G01 X15.3274 Y11.0148
G01 X15.3219 Y11.0039
G01 X15.2803 Y10.9160
G01 X15.2753 Y10.9048
G01 X15.2709 Y10.8933
G01 X15.2382 Y10.8018
G01 X15.2343 Y10.7901
G01 X15.2311 Y10.7783
G01 X15.2074 Y10.6840
G01 X15.2047 Y10.6720
G01 X15.2026 Y10.6599
G01 X15.1884 Y10.5638
G01 X15.1869 Y10.5516
G01 X15.1860 Y10.5394
G01 X15.1812 Y10.4423
G01 X15.1809 Y10.4300
G01 X15.1812 Y10.4177
G01 X15.1860 Y10.3206
G01 X15.1869 Y10.3084
G01 X15.1884 Y10.2962
G01 X15.2026 Y10.2001
G01 X15.2047 Y10.1880
G01 X15.2074 Y10.1760
G01 X15.2311 Y10.0817
G01 X15.2343 Y10.0699
G01 X15.2382 Y10.0582
G01 X15.2709 Y9.9667
G01 X15.2753 Y9.9552
G01 X15.2803 Y9.9440
G01 X15.3246 Y9.8506
G01 X15.3334 Y9.8345
G01 X15.3834 Y9.7511
G01 X15.3900 Y9.7408
G01 X15.3971 Y9.7307
G01 X15.4587 Y9.6478
G01 X15.4705 Y9.6337
G01 X15.5400 Y9.5572
G01 X15.5487 Y9.5485
G01 X15.5767 Y9.5230
G01 X15.5672 Y9.4597
G01 X15.5657 Y9.4475
G01 X15.5619 Y9.3755
G01 X15.5616 Y9.3632
G01 X15.5617 Y8.9253
G01 X15.5648 Y8.8594
G01 X15.5657 Y8.8471
G01 X15.5733 Y8.7940
G00 Z2.0000
G00 X18.1133 Y8.7940
G01 F60.00
G01 Z-0.3732
G01 F200.00
G01 X18.0887 Y8.7715
G01 X18.0800 Y8.7628
G01 X18.0065 Y8.6817
G01 X17.9950 Y8.6674
G01 X17.9335 Y8.5843
G01 X17.9234 Y8.5689
G01 X17.8734 Y8.4855
G01 X17.8674 Y8.4748
G01 X17.8619 Y8.4639
G01 X17.8178 Y8.3704
G01 X17.8109 Y8.3533
G01 X17.7782 Y8.2618
G01 X17.7743 Y8.2501
G01 X17.7711 Y8.2383
G01 X17.7474 Y8.1440
G01 X17.7447 Y8.1320
G01 X17.7426 Y8.1199
G01 X17.7284 Y8.0238
G01 X17.7269 Y8.0116
G01 X17.7260 Y7.9994
G01 X17.7210 Y7.8961
G01 X17.7212 Y7.8777
G01 X17.7260 Y7.7806
G01 X17.7269 Y7.7684
G01 X17.7284 Y7.7562
G01 X17.7426 Y7.6601
G01 X17.7447 Y7.6480
G01 X17.7474 Y7.6360
G01 X17.7711 Y7.5417
G01 X17.7743 Y7.5299
G01 X17.7782 Y7.5182
G01 X17.8109 Y7.4267
G01 X17.8153 Y7.4152
G01 X17.8203 Y7.4040
G01 X17.8619 Y7.3161
G01 X17.8674 Y7.3052
G01 X17.8734 Y7.2945
G01 X17.9234 Y7.2111
G01 X17.9300 Y7.2008
G01 X17.9371 Y7.1907
G01 X17.9950 Y7.1126
G01 X18.0025 Y7.1030
G01 X18.0105 Y7.0937
G01 X18.0800 Y7.0172
G01 X18.0932 Y7.0043
G01 X18.1652 Y6.9390
G01 X18.1745 Y6.9310
G01 X18.1842 Y6.9235
G01 X18.2622 Y6.8655
G01 X18.2723 Y6.8585
G01 X18.2826 Y6.8519
G01 X18.3660 Y6.8019
G01 X18.3767 Y6.7959
G01 X18.3877 Y6.7904
G01 X18.4755 Y6.7488
G01 X18.4867 Y6.7438
G01 X18.4982 Y6.7394
G01 X18.5897 Y6.7067
G01 X18.6014 Y6.7028
G01 X18.6132 Y6.6995
G01 X18.7075 Y6.6759
G01 X18.7195 Y6.6732
G01 X18.7316 Y6.6711
G01 X18.8277 Y6.6569
G01 X18.8399 Y6.6554
G01 X18.8521 Y6.6545
G01 X18.9492 Y6.6497
G01 X18.9615 Y6.6494
G01 X18.9738 Y6.6497
G01 X19.0709 Y6.6545
G01 X19.0831 Y6.6554
G01 X19.0953 Y6.6569
G01 X19.1914 Y6.6711
G01 X19.2035 Y6.6732
G01 X19.2155 Y6.6759
G01 X19.3098 Y6.6995
G01 X19.3216 Y6.7028
G01 X19.3333 Y6.7067
G01 X19.4248 Y6.7394
G01 X19.4363 Y6.7438
G01 X19.4475 Y6.7488
G01 X19.5354 Y6.7904
G01 X19.5463 Y6.7959
G01 X19.5570 Y6.8019
G01 X19.6404 Y6.8519
G01 X19.6507 Y6.8585
G01 X19.6608 Y6.8655
G01 X19.7389 Y6.9235
G01 X19.7485 Y6.9310
G01 X19.7578 Y6.9390
G01 X19.8343 Y7.0085
G01 X19.8472 Y7.0217
G01 X19.9125 Y7.0937
G01 X19.9205 Y7.1030
G01 X19.9280 Y7.1126
G01 X19.9860 Y7.1907
G01 X19.9930 Y7.2008
G01 X19.9996 Y7.2111
G01 X20.0496 Y7.2945
G01 X20.0556 Y7.3052
G01 X20.0611 Y7.3161
G01 X20.1027 Y7.4040
G01 X20.1077 Y7.4152
G01 X20.1121 Y7.4267
G01 X20.1448 Y7.5182
G01 X20.1487 Y7.5299
G01 X20.1520 Y7.5417
G01 X20.1756 Y7.6360
G01 X20.1783 Y7.6480
G01 X20.1804 Y7.6601
G01 X20.1946 Y7.7562
G01 X20.1961 Y7.7684
G01 X20.1970 Y7.7806
G01 X20.2018 Y7.8777
G01 X20.2021 Y7.8900
G01 X20.2018 Y7.9023
G01 X20.1970 Y7.9994
G01 X20.1961 Y8.0116
G01 X20.1946 Y8.0238
G01 X20.1804 Y8.1199
G01 X20.1783 Y8.1320
G01 X20.1756 Y8.1440
G01 X20.1520 Y8.2383
G01 X20.1487 Y8.2501
G01 X20.1448 Y8.2618
G01 X20.1121 Y8.3533
G01 X20.1053 Y8.3704
G01 X20.0611 Y8.4639
G01 X20.0556 Y8.4748
G01 X20.0496 Y8.4855
G01 X19.9996 Y8.5689
G01 X19.9896 Y8.5843
G01 X19.9280 Y8.6674
G01 X19.9166 Y8.6817
G01 X19.8430 Y8.7628
G01 X19.8343 Y8.7715
G01 X19.8097 Y8.7940
G01 X19.8173 Y8.8471
G01 X19.8182 Y8.8594
G01 X19.8213 Y8.9253
G01 X19.8214 Y9.3632
G01 X19.8211 Y9.3755
G01 X19.8173 Y9.4475
G01 X19.8158 Y9.4597
G01 X19.8063 Y9.5230
G01 X19.8343 Y9.5485
G01 X19.8430 Y9.5572
G01 X19.9166 Y9.6383
G01 X19.9280 Y9.6526
G01 X19.9896 Y9.7357
G01 X19.9996 Y9.7511
G01 X20.0496 Y9.8345
G01 X20.0556 Y9.8452
G01 X20.0611 Y9.8561
G01 X20.1027 Y9.9440
G01 X20.1099 Y9.9609
G01 X20.1448 Y10.0582
G01 X20.1487 Y10.0699
G01 X20.1520 Y10.0817
G01 X20.1756 Y10.1760
G01 X20.1783 Y10.1880
G01 X20.1804 Y10.2001
G01 X20.1946 Y10.2962
G01 X20.1961 Y10.3084
G01 X20.1970 Y10.3206
G01 X20.2018 Y10.4177
G01 X20.2021 Y10.4300
G01 X20.2018 Y10.4423
G01 X20.1967 Y10.5455
G01 X20.1946 Y10.5638
G01 X20.1804 Y10.6599
G01 X20.1783 Y10.6720
G01 X20.1756 Y10.6840
G01 X20.1520 Y10.7783
G01 X20.1487 Y10.7901
G01 X20.1448 Y10.8018
G01 X20.1121 Y10.8933
G01 X20.1077 Y10.9048
G01 X20.1027 Y10.9160
G01 X20.0611 Y11.0039
G01 X20.0556 Y11.0148
G01 X20.0496 Y11.0255
G01 X19.9996 Y11.1089
G01 X19.9930 Y11.1192
G01 X19.9860 Y11.1293
G01 X19.9280 Y11.2074
G01 X19.9205 Y11.2170
G01 X19.9125 Y11.2263
G01 X19.8472 Y11.2983
G01 X19.8387 Y11.3072
G01 X19.8299 Y11.3157
G01 X19.7578 Y11.3810
G01 X19.7485 Y11.3890
G01 X19.7389 Y11.3965
G01 X19.6608 Y11.4545
G01 X19.6507 Y11.4615
G01 X19.6404 Y11.4681
G01 X19.5570 Y11.5181
G01 X19.5463 Y11.5241
G01 X19.5354 Y11.5296
G01 X19.4475 Y11.5712
G01 X19.4363 Y11.5762
G01 X19.4248 Y11.5806
G01 X19.3333 Y11.6133
G01 X19.3216 Y11.6172
G01 X19.3098 Y11.6205
G01 X19.2155 Y11.6441
G01 X19.2035 Y11.6468
G01 X19.1914 Y11.6489
G01 X19.0953 Y11.6631
G01 X19.0831 Y11.6646
G01 X19.0709 Y11.6655
G01 X18.9738 Y11.6703
G01 X18.9615 Y11.6706
G01 X18.9492 Y11.6703
G01 X18.8521 Y11.6655
G01 X18.8399 Y11.6646
G01 X18.8277 Y11.6631
G01 X18.7316 Y11.6489
G01 X18.7195 Y11.6468
G01 X18.7075 Y11.6441
G01 X18.6132 Y11.6205
G01 X18.6014 Y11.6172
G01 X18.5897 Y11.6133
G01 X18.4982 Y11.5806
G01 X18.4867 Y11.5762
G01 X18.4755 Y11.5712
G01 X18.3877 Y11.5296
G01 X18.3767 Y11.5241
G01 X18.3660 Y11.5181
G01 X18.2826 Y11.4681
G01 X18.2723 Y11.4615
G01 X18.2622 Y11.4545
G01 X18.1842 Y11.3965
G01 X18.1745 Y11.3890
G01 X18.1652 Y11.3810
G01 X18.0932 Y11.3157
G01 X18.0843 Y11.3072
G01 X18.0758 Y11.2983
G01 X18.0105 Y11.2263
G01 X18.0025 Y11.2170
G01 X17.9950 Y11.2074
G01 X17.9371 Y11.1293
G01 X17.9300 Y11.1192
G01 X17.9234 Y11.1089
G01 X17.8734 Y11.0255
G01 X17.8674 Y11.0148
G01 X17.8619 Y11.0039
G01 X17.8203 Y10.9160
G01 X17.8153 Y10.9048
G01 X17.8109 Y10.8933
G01 X17.7782 Y10.8018
G01 X17.7743 Y10.7901
G01 X17.7711 Y10.7783
G01 X17.7474 Y10.6840
G01 X17.7447 Y10.6720
G01 X17.7426 Y10.6599
G01 X17.7284 Y10.5638
G01 X17.7269 Y10.5516
G01 X17.7260 Y10.5394
G01 X17.7212 Y10.4423
G01 X17.7209 Y10.4300
G01 X17.7212 Y10.4177
G01 X17.7260 Y10.3206
G01 X17.7269 Y10.3084
G01 X17.7284 Y10.2962
G01 X17.7426 Y10.2001
G01 X17.7447 Y10.1880
G01 X17.7474 Y10.1760
G01 X17.7711 Y10.0817
G01 X17.7743 Y10.0699
G01 X17.7782 Y10.0582
G01 X17.8109 Y9.9667
G01 X17.8153 Y9.9552
G01 X17.8203 Y9.9440
G01 X17.8646 Y9.8506
G01 X17.8734 Y9.8345
G01 X17.9234 Y9.7511
G01 X17.9300 Y9.7408
G01 X17.9371 Y9.7307
G01 X17.9987 Y9.6478
G01 X18.0105 Y9.6337
G01 X18.0800 Y9.5572
G01 X18.0887 Y9.5485
G01 X18.1167 Y9.5230
G01 X18.1072 Y9.4597
G01 X18.1057 Y9.4475
G01 X18.1019 Y9.3755
G01 X18.1016 Y9.3632
G01 X18.1017 Y8.9253
G01 X18.1048 Y8.8594
G01 X18.1057 Y8.8471
G01 X18.1133 Y8.7940
G00 Z2.0000
G00 X20.6533 Y8.7940
G01 F60.00
G01 Z-0.3732
G01 F200.00
G01 X20.6287 Y8.7715
G01 X20.6200 Y8.7628
G01 X20.5465 Y8.6817
G01 X20.5350 Y8.6674
G01 X20.4735 Y8.5843
G01 X20.4634 Y8.5689
G01 X20.4134 Y8.4855
G01 X20.4074 Y8.4748
G01 X20.4019 Y8.4639
G01 X20.3578 Y8.3704
G01 X20.3509 Y8.3533
G01 X20.3182 Y8.2618
G01 X20.3143 Y8.2501
G01 X20.3111 Y8.2383
G01 X20.2874 Y8.1440
G01 X20.2847 Y8.1320
G01 X20.2826 Y8.1199
G01 X20.2684 Y8.0238
G01 X20.2669 Y8.0116
G01 X20.2660 Y7.9994
G01 X20.2610 Y7.8961
G01 X20.2612 Y7.8777
G01 X20.2660 Y7.7806
G01 X20.2669 Y7.7684
G01 X20.2684 Y7.7562
G01 X20.2826 Y7.6601
G01 X20.2847 Y7.6480
G01 X20.2874 Y7.6360
G01 X20.3111 Y7.5417
G01 X20.3143 Y7.5299
G01 X20.3182 Y7.5182
G01 X20.3509 Y7.4267
G01 X20.3553 Y7.4152
G01 X20.3603 Y7.4040
G01 X20.4019 Y7.3161
G01 X20.4074 Y7.3052
G01 X20.4134 Y7.2945
G01 X20.4634 Y7.2111
G01 X20.4700 Y7.2008
G01 X20.4771 Y7.1907
G01 X20.5350 Y7.1126
G01 X20.5425 Y7.1030
G01 X20.5505 Y7.0937
G01 X20.6200 Y7.0172
G01 X20.6332 Y7.0043
G01 X20.7052 Y6.9390
G01 X20.7145 Y6.9310
G01 X20.7242 Y6.9235
G01 X20.8022 Y6.8655
G01 X20.8123 Y6.8585
G01 X20.8226 Y6.8519
G01 X20.9060 Y6.8019
G01 X20.9167 Y6.7959
G01 X20.9277 Y6.7904
G01 X21.0155 Y6.7488
G01 X21.0267 Y6.7438
G01 X21.0382 Y6.7394
G01 X21.1297 Y6.7067
G01 X21.1414 Y6.7028
G01 X21.1532 Y6.6995
G01 X21.2475 Y6.6759
G01 X21.2595 Y6.6732
G01 X21.2716 Y6.6711
G01 X21.3677 Y6.6569
G01 X21.3799 Y6.6554
G01 X21.3921 Y6.6545
G01 X21.4892 Y6.6497
G01 X21.5015 Y6.6494
G01 X21.5138 Y6.6497
G01 X21.6109 Y6.6545
G01 X21.6231 Y6.6554
G01 X21.6353 Y6.6569
G01 X21.7314 Y6.6711
G01 X21.7435 Y6.6732
G01 X21.7555 Y6.6759
G01 X21.8498 Y6.6995
G01 X21.8616 Y6.7028
G01 X21.8733 Y6.7067
G01 X21.9648 Y6.7394
G01 X21.9763 Y6.7438
G01 X21.9875 Y6.7488
G01 X22.0754 Y6.7904
G01 X22.0863 Y6.7959
G01 X22.0970 Y6.8019
G01 X22.1804 Y6.8519
G01 X22.1907 Y6.8585
G01 X22.2008 Y6.8655
G01 X22.2789 Y6.9235
G01 X22.2885 Y6.9310
G01 X22.2978 Y6.9390
G01 X22.3743 Y7.0085
G01 X22.3872 Y7.0217
G01 X22.4525 Y7.0937
G01 X22.4605 Y7.1030
G01 X22.4680 Y7.1126
G01 X22.5260 Y7.1907
G01 X22.5330 Y7.2008
G01 X22.5396 Y7.2111
G01 X22.5896 Y7.2945
G01 X22.5956 Y7.3052
G01 X22.6011 Y7.3161
G01 X22.6427 Y7.4040
G01 X22.6477 Y7.4152
G01 X22.6521 Y7.4267
G01 X22.6848 Y7.5182
G01 X22.6887 Y7.5299
G01 X22.6920 Y7.5417
G01 X22.7156 Y7.6360
G01 X22.7183 Y7.6480
G01 X22.7204 Y7.6601
G01 X22.7346 Y7.7562
G01 X22.7361 Y7.7684
G01 X22.7370 Y7.7806
G01 X22.7418 Y7.8777
G01 X22.7421 Y7.8900
G01 X22.7418 Y7.9023
G01 X22.7370 Y7.9994
G01 X22.7361 Y8.0116
G01 X22.7346 Y8.0238
G01 X22.7204 Y8.1199
G01 X22.7183 Y8.1320
G01 X22.7156 Y8.1440
G01 X22.6920 Y8.2383
G01 X22.6887 Y8.2501
G01 X22.6848 Y8.2618
G01 X22.6521 Y8.3533
G01 X22.6453 Y8.3704
G01 X22.6011 Y8.4639
G01 X22.5956 Y8.4748
G01 X22.5896 Y8.4855
G01 X22.5396 Y8.5689
G01 X22.5296 Y8.5843
G01 X22.4680 Y8.6674
G01 X22.4566 Y8.6817
G01 X22.3830 Y8.7628
G01 X22.3743 Y8.7715
G01 X22.3497 Y8.7940
G01 X22.3573 Y8.8471
G01 X22.3582 Y8.8594
G01 X22.3613 Y8.9253
G01 X22.3614 Y9.3632
G01 X22.3611 Y9.3755
G01 X22.3573 Y9.4475
G01 X22.3558 Y9.4597
G01 X22.3463 Y9.5230
G01 X22.3743 Y9.5485
G01 X22.3830 Y9.5572
G01 X22.4566 Y9.6383
G01 X22.4680 Y9.6526
G01 X22.5296 Y9.7357
G01 X22.5396 Y9.7511
G01 X22.5896 Y9.8345
G01 X22.5956 Y9.8452
G01 X22.6011 Y9.8561
G01 X22.6427 Y9.9440
G01 X22.6499 Y9.9609
G01 X22.6848 Y10.0582
G01 X22.6887 Y10.0699
G01 X22.6920 Y10.0817
G01 X22.7156 Y10.1760
G01 X22.7183 Y10.1880
G01 X22.7204 Y10.2001
G01 X22.7346 Y10.2962
G01 X22.7361 Y10.3084
G01 X22.7370 Y10.3206
G01 X22.7418 Y10.4177
G01 X22.7421 Y10.4300
G01 X22.7418 Y10.4423
G01 X22.7367 Y10.5455
G01 X22.7346 Y10.5638
G01 X22.7204 Y10.6599
G01 X22.7183 Y10.6720
G01 X22.7156 Y10.6840
G01 X22.6920 Y10.7783
G01 X22.6887 Y10.7901
G01 X22.6848 Y10.8018
G01 X22.6521 Y10.8933
G01 X22.6477 Y10.9048
G01 X22.6427 Y10.9160
G01 X22.6011 Y11.0039
G01 X22.5956 Y11.0148
G01 X22.5896 Y11.0255
G01 X22.5396 Y11.1089
G01 X22.5330 Y11.1192
G01 X22.5260 Y11.1293
G01 X22.4680 Y11.2074
G01 X22.4605 Y11.2170
G01 X22.4525 Y11.2263
G01 X22.3872 Y11.2983
G01 X22.3787 Y11.3072
G01 X22.3699 Y11.3157
G01 X22.2978 Y11.3810
G01 X22.2885 Y11.3890
G01 X22.2789 Y11.3965
G01 X22.2008 Y11.4545
G01 X22.1907 Y11.4615
G01 X22.1804 Y11.4681
G01 X22.0970 Y11.5181
G01 X22.0863 Y11.5241
G01 X22.0754 Y11.5296
G01 X21.9875 Y11.5712
G01 X21.9763 Y11.5762
G01 X21.9648 Y11.5806
G01 X21.8733 Y11.6133
G01 X21.8616 Y11.6172
G01 X21.8498 Y11.6205
G01 X21.7555 Y11.6441
G01 X21.7435 Y11.6468
G01 X21.7314 Y11.6489
G01 X21.6353 Y11.6631
G01 X21.6231 Y11.6646
G01 X21.6109 Y11.6655
G01 X21.5138 Y11.6703
G01 X21.5015 Y11.6706
G01 X21.4892 Y11.6703
G01 X21.3921 Y11.6655
G01 X21.3799 Y11.6646
G01 X21.3677 Y11.6631
G01 X21.2716 Y11.6489
G01 X21.2595 Y11.6468
G01 X21.2475 Y11.6441
G01 X21.1532 Y11.6205
G01 X21.1414 Y11.6172
G01 X21.1297 Y11.6133
G01 X21.0382 Y11.5806
G01 X21.0267 Y11.5762
G01 X21.0155 Y11.5712
G01 X20.9277 Y11.5296
G01 X20.9167 Y11.5241
G01 X20.9060 Y11.5181
G01 X20.8226 Y11.4681
G01 X20.8123 Y11.4615
G01 X20.8022 Y11.4545
G01 X20.7242 Y11.3965
G01 X20.7145 Y11.3890
G01 X20.7052 Y11.3810
G01 X20.6332 Y11.3157
G01 X20.6243 Y11.3072
G01 X20.6158 Y11.2983
G01 X20.5505 Y11.2263
G01 X20.5425 Y11.2170
G01 X20.5350 Y11.2074
G01 X20.4771 Y11.1293
G01 X20.4700 Y11.1192
G01 X20.4634 Y11.1089
G01 X20.4134 Y11.0255
G01 X20.4074 Y11.0148
G01 X20.4019 Y11.0039
G01 X20.3603 Y10.9160
G01 X20.3553 Y10.9048
G01 X20.3509 Y10.8933
G01 X20.3182 Y10.8018
G01 X20.3143 Y10.7901
G01 X20.3111 Y10.7783
G01 X20.2874 Y10.6840
G01 X20.2847 Y10.6720
G01 X20.2826 Y10.6599
G01 X20.2684 Y10.5638
G01 X20.2669 Y10.5516
G01 X20.2660 Y10.5394
G01 X20.2612 Y10.4423
G01 X20.2609 Y10.4300
G01 X20.2612 Y10.4177
G01 X20.2660 Y10.3206
G01 X20.2669 Y10.3084
G01 X20.2684 Y10.2962
G01 X20.2826 Y10.2001
G01 X20.2847 Y10.1880
G01 X20.2874 Y10.1760
G01 X20.3111 Y10.0817
G01 X20.3143 Y10.0699
G01 X20.3182 Y10.0582
G01 X20.3509 Y9.9667
G01 X20.3553 Y9.9552
G01 X20.3603 Y9.9440
G01 X20.4046 Y9.8506
G01 X20.4134 Y9.8345
G01 X20.4634 Y9.7511
G01 X20.4700 Y9.7408
G01 X20.4771 Y9.7307
G01 X20.5387 Y9.6478
G01 X20.5505 Y9.6337
G01 X20.6200 Y9.5572
G01 X20.6287 Y9.5485
G01 X20.6567 Y9.5230
G01 X20.6472 Y9.4597
G01 X20.6457 Y9.4475
G01 X20.6419 Y9.3755
G01 X20.6416 Y9.3632
G01 X20.6417 Y8.9253
G01 X20.6448 Y8.8594
G01 X20.6457 Y8.8471
G01 X20.6533 Y8.7940
G00 Z2.0000
G00 X23.1933 Y8.7940
G01 F60.00
G01 Z-0.3732
G01 F200.00
G01 X23.1687 Y8.7715
G01 X23.1600 Y8.7628
G01 X23.0865 Y8.6817
G01 X23.0750 Y8.6674
G01 X23.0135 Y8.5843
G01 X23.0034 Y8.5689
G01 X22.9534 Y8.4855
G01 X22.9474 Y8.4748
G01 X22.9419 Y8.4639
G01 X22.8978 Y8.3704
G01 X22.8909 Y8.3533
G01 X22.8582 Y8.2618
G01 X22.8543 Y8.2501
G01 X22.8511 Y8.2383
G01 X22.8274 Y8.1440
G01 X22.8247 Y8.1320
G01 X22.8226 Y8.1199
G01 X22.8084 Y8.0238
G01 X22.8069 Y8.0116
G01 X22.8060 Y7.9994
G01 X22.8010 Y7.8961
G01 X22.8012 Y7.8777
G01 X22.8060 Y7.7806
G01 X22.8069 Y7.7684
G01 X22.8084 Y7.7562
G01 X22.8226 Y7.6601
G01 X22.8247 Y7.6480
G01 X22.8274 Y7.6360
G01 X22.8511 Y7.5417
G01 X22.8543 Y7.5299
G01 X22.8582 Y7.5182
G01 X22.8909 Y7.4267
G01 X22.8953 Y7.4152
G01 X22.9003 Y7.4040
G01 X22.9419 Y7.3161
G01 X22.9474 Y7.3052
G01 X22.9534 Y7.2945
G01 X23.0034 Y7.2111
G01 X23.0100 Y7.2008
G01 X23.0171 Y7.1907
G01 X23.0750 Y7.1126
G01 X23.0825 Y7.1030
G01 X23.0905 Y7.0937
G01 X23.1600 Y7.0172
G01 X23.1732 Y7.0043
G01 X23.2452 Y6.9390
G01 X23.2545 Y6.9310
G01 X23.2642 Y6.9235
G01 X23.3422 Y6.8655
G01 X23.3523 Y6.8585
G01 X23.3626 Y6.8519
G01 X23.4460 Y6.8019
G01 X23.4567 Y6.7959
G01 X23.4677 Y6.7904
G01 X23.5555 Y6.7488
G01 X23.5667 Y6.7438
G01 X23.5782 Y6.7394
G01 X23.6697 Y6.7067
G01 X23.6814 Y6.7028
G01 X23.6932 Y6.6995
G01 X23.7875 Y6.6759
G01 X23.7995 Y6.6732
G01 X23.8116 Y6.6711
G01 X23.9077 Y6.6569
G01 X23.9199 Y6.6554
G01 X23.9321 Y6.6545
G01 X24.0292 Y6.6497
G01 X24.0415 Y6.6494
G01 X24.0538 Y6.6497
G01 X24.1509 Y6.6545
G01 X24.1631 Y6.6554
G01 X24.1753 Y6.6569
G01 X24.2714 Y6.6711
G01 X24.2835 Y6.6732
G01 X24.2955 Y6.6759
G01 X24.3898 Y6.6995
G01 X24.4016 Y6.7028
G01 X24.4133 Y6.7067
G01 X24.5048 Y6.7394
G01 X24.5163 Y6.7438
G01 X24.5275 Y6.7488
G01 X24.6154 Y6.7904
G01 X24.6263 Y6.7959
G01 X24.6370 Y6.8019
G01 X24.7204 Y6.8519
G01 X24.7307 Y6.8585
G01 X24.7408 Y6.8655
G01 X24.8189 Y6.9235
G01 X24.8285 Y6.9310
G01 X24.8378 Y6.9390
G01 X24.9143 Y7.0085
G01 X24.9272 Y7.0217
G01 X24.9925 Y7.0937
G01 X25.0005 Y7.1030
G01 X25.0080 Y7.1126
G01 X25.0660 Y7.1907
G01 X25.0730 Y7.2008
G01 X25.0796 Y7.2111
G01 X25.1296 Y7.2945
G01 X25.1356 Y7.3052
G01 X25.1411 Y7.3161
G01 X25.1827 Y7.4040
G01 X25.1877 Y7.4152
G01 X25.1921 Y7.4267
G01 X25.2248 Y7.5182
G01 X25.2287 Y7.5299
G01 X25.2320 Y7.5417
G01 X25.2556 Y7.6360
G01 X25.2583 Y7.6480
G01 X25.2604 Y7.6601
G01 X25.2746 Y7.7562
G01 X25.2761 Y7.7684
G01 X25.2770 Y7.7806
G01 X25.2818 Y7.8777
G01 X25.2821 Y7.8900
G01 X25.2818 Y7.9023
G01 X25.2770 Y7.9994
G01 X25.2761 Y8.0116
G01 X25.2746 Y8.0238
G01 X25.2604 Y8.1199
G01 X25.2583 Y8.1320
G01 X25.2556 Y8.1440
G01 X25.2320 Y8.2383
G01 X25.2287 Y8.2501
G01 X25.2248 Y8.2618
G01 X25.1921 Y8.3533
G01 X25.1853 Y8.3704
G01 X25.1411 Y8.4639
G01 X25.1356 Y8.4748
G01 X25.1296 Y8.4855
G01 X25.0796 Y8.5689
G01 X25.0696 Y8.5843
G01 X25.0080 Y8.6674
G01 X24.9966 Y8.6817
G01 X24.9230 Y8.7628
G01 X24.9143 Y8.7715
G01 X24.8897 Y8.7940
G01 X24.8973 Y8.8471
G01 X24.8982 Y8.8594
G01 X24.9013 Y8.9253
G01 X24.9014 Y9.3632
G01 X24.9011 Y9.3755
G01 X24.8973 Y9.4475
G01 X24.8958 Y9.4597
G01 X24.8863 Y9.5230
G01 X24.9143 Y9.5485
G01 X24.9230 Y9.5572
G01 X24.9966 Y9.6383
G01 X25.0080 Y9.6526
G01 X25.0696 Y9.7357
G01 X25.0796 Y9.7511
G01 X25.1296 Y9.8345
G01 X25.1356 Y9.8452
G01 X25.1411 Y9.8561
G01 X25.1827 Y9.9440
G01 X25.1899 Y9.9609
G01 X25.2248 Y10.0582
G01 X25.2287 Y10.0699
G01 X25.2320 Y10.0817
G01 X25.2556 Y10.1760
G01 X25.2583 Y10.1880
G01 X25.2604 Y10.2001
G01 X25.2746 Y10.2962
G01 X25.2761 Y10.3084
G01 X25.2770 Y10.3206
G01 X25.2818 Y10.4177
G01 X25.2821 Y10.4300
G01 X25.2818 Y10.4423
G01 X25.2767 Y10.5455
G01 X25.2746 Y10.5638
G01 X25.2604 Y10.6599
G01 X25.2583 Y10.6720
G01 X25.2556 Y10.6840
G01 X25.2320 Y10.7783
G01 X25.2287 Y10.7901
G01 X25.2248 Y10.8018
G01 X25.1921 Y10.8933
G01 X25.1877 Y10.9048
G01 X25.1827 Y10.9160
G01 X25.1411 Y11.0039
G01 X25.1356 Y11.0148
G01 X25.1296 Y11.0255
G01 X25.0796 Y11.1089
G01 X25.0730 Y11.1192
G01 X25.0660 Y11.1293
G01 X25.0080 Y11.2074
G01 X25.0005 Y11.2170
G01 X24.9925 Y11.2263
G01 X24.9272 Y11.2983
G01 X24.9187 Y11.3072
G01 X24.9099 Y11.3157
G01 X24.8378 Y11.3810
G01 X24.8285 Y11.3890
G01 X24.8189 Y11.3965
G01 X24.7408 Y11.4545
G01 X24.7307 Y11.4615
G01 X24.7204 Y11.4681
G01 X24.6370 Y11.5181
G01 X24.6263 Y11.5241
G01 X24.6154 Y11.5296
G01 X24.5275 Y11.5712
G01 X24.5163 Y11.5762
G01 X24.5048 Y11.5806
G01 X24.4133 Y11.6133
G01 X24.4016 Y11.6172
G01 X24.3898 Y11.6205
G01 X24.2955 Y11.6441
G01 X24.2835 Y11.6468
G01 X24.2714 Y11.6489
G01 X24.1753 Y11.6631
G01 X24.1631 Y11.6646
G01 X24.1509 Y11.6655
G01 X24.0538 Y11.6703
G01 X24.0415 Y11.6706
G01 X24.0292 Y11.6703
G01 X23.9321 Y11.6655
G01 X23.9199 Y11.6646
G01 X23.9077 Y11.6631
G01 X23.8116 Y11.6489
G01 X23.7995 Y11.6468
G01 X23.7875 Y11.6441
G01 X23.6932 Y11.6205
G01 X23.6814 Y11.6172
G01 X23.6697 Y11.6133
G01 X23.5782 Y11.5806
G01 X23.5667 Y11.5762
G01 X23.5555 Y11.5712
G01 X23.4677 Y11.5296
G01 X23.4567 Y11.5241
G01 X23.4460 Y11.5181
G01 X23.3626 Y11.4681
G01 X23.3523 Y11.4615
G01 X23.3422 Y11.4545
G01 X23.2642 Y11.3965
G01 X23.2545 Y11.3890
G01 X23.2452 Y11.3810
G01 X23.1732 Y11.3157
G01 X23.1643 Y11.3072
G01 X23.1558 Y11.2983
G01 X23.0905 Y11.2263
G01 X23.0825 Y11.2170
G01 X23.0750 Y11.2074
G01 X23.0171 Y11.1293
G01 X23.0100 Y11.1192
G01 X23.0034 Y11.1089
G01 X22.9534 Y11.0255
G01 X22.9474 Y11.0148
G01 X22.9419 Y11.0039
G01 X22.9003 Y10.9160
G01 X22.8953 Y10.9048
G01 X22.8909 Y10.8933
G01 X22.8582 Y10.8018
G01 X22.8543 Y10.7901
G01 X22.8511 Y10.7783
G01 X22.8274 Y10.6840
G01 X22.8247 Y10.6720
G01 X22.8226 Y10.6599
G01 X22.8084 Y10.5638
G01 X22.8069 Y10.5516
G01 X22.8060 Y10.5394
G01 X22.8012 Y10.4423
G01 X22.8009 Y10.4300
G01 X22.8012 Y10.4177
G01 X22.8060 Y10.3206
G01 X22.8069 Y10.3084
G01 X22.8084 Y10.2962
G01 X22.8226 Y10.2001
G01 X22.8247 Y10.1880
G01 X22.8274 Y10.1760
G01 X22.8511 Y10.0817
G01 X22.8543 Y10.0699
G01 X22.8582 Y10.0582
G01 X22.8909 Y9.9667
G01 X22.8953 Y9.9552
G01 X22.9003 Y9.9440
G01 X22.9446 Y9.8506
G01 X22.9534 Y9.8345
G01 X23.0034 Y9.7511
G01 X23.0100 Y9.7408
G01 X23.0171 Y9.7307
G01 X23.0787 Y9.6478
G01 X23.0905 Y9.6337
G01 X23.1600 Y9.5572
G01 X23.1687 Y9.5485
G01 X23.1967 Y9.5230
G01 X23.1872 Y9.4597
G01 X23.1857 Y9.4475
G01 X23.1819 Y9.3755
G01 X23.1816 Y9.3632
G01 X23.1817 Y8.9253
G01 X23.1848 Y8.8594
G01 X23.1857 Y8.8471
G01 X23.1933 Y8.7940
G00 Z2.0000
G00 X25.7333 Y8.7940
G01 F60.00
G01 Z-0.3732
G01 F200.00
G01 X25.7087 Y8.7715
G01 X25.7000 Y8.7628
G01 X25.6265 Y8.6817
G01 X25.6150 Y8.6674
G01 X25.5535 Y8.5843
G01 X25.5434 Y8.5689
G01 X25.4934 Y8.4855
G01 X25.4874 Y8.4748
G01 X25.4819 Y8.4639
G01 X25.4378 Y8.3704
G01 X25.4309 Y8.3533
G01 X25.3982 Y8.2618
G01 X25.3943 Y8.2501
G01 X25.3911 Y8.2383
G01 X25.3674 Y8.1440
G01 X25.3647 Y8.1320
G01 X25.3626 Y8.1199
G01 X25.3484 Y8.0238
G01 X25.3469 Y8.0116
G01 X25.3460 Y7.9994
G01 X25.3410 Y7.8961
G01 X25.3412 Y7.8777
G01 X25.3460 Y7.7806
G01 X25.3469 Y7.7684
G01 X25.3484 Y7.7562
G01 X25.3626 Y7.6601
G01 X25.3647 Y7.6480
G01 X25.3674 Y7.6360
G01 X25.3911 Y7.5417
G01 X25.3943 Y7.5299
G01 X25.3982 Y7.5182
G01 X25.4309 Y7.4267
G01 X25.4353 Y7.4152
G01 X25.4403 Y7.4040
G01 X25.4819 Y7.3161
G01 X25.4874 Y7.3052
G01 X25.4934 Y7.2945
G01 X25.5434 Y7.2111
G01 X25.5500 Y7.2008
G01 X25.5571 Y7.1907
G01 X25.6150 Y7.1126
G01 X25.6225 Y7.1030
G01 X25.6305 Y7.0937
G01 X25.7000 Y7.0172
G01 X25.7132 Y7.0043
G01 X25.7852 Y6.9390
G01 X25.7945 Y6.9310
G01 X25.8042 Y6.9235
G01 X25.8822 Y6.8655
G01 X25.8923 Y6.8585
G01 X25.9026 Y6.8519
G01 X25.9860 Y6.8019
G01 X25.9967 Y6.7959
G01 X26.0077 Y6.7904
G01 X26.0955 Y6.7488
G01 X26.1067 Y6.7438
G01 X26.1182 Y6.7394
G01 X26.2097 Y6.7067
G01 X26.2214 Y6.7028
G01 X26.2332 Y6.6995
G01 X26.3275 Y6.6759
G01 X26.3395 Y6.6732
G01 X26.3516 Y6.6711
G01 X26.4477 Y6.6569
G01 X26.4599 Y6.6554
G01 X26.4721 Y6.6545
G01 X26.5692 Y6.6497
G01 X26.5815 Y6.6494
G01 X26.5938 Y6.6497
G01 X26.6909 Y6.6545
G01 X26.7031 Y6.6554
G01 X26.7153 Y6.6569
G01 X26.8114 Y6.6711
G01 X26.8235 Y6.6732
G01 X26.8355 Y6.6759
G01 X26.9298 Y6.6995
G01 X26.9416 Y6.7028
G01 X26.9533 Y6.7067
G01 X27.0448 Y6.7394
G01 X27.0563 Y6.7438
G01 X27.0675 Y6.7488
G01 X27.1554 Y6.7904
G01 X27.1663 Y6.7959
G01 X27.1770 Y6.8019
G01 X27.2604 Y6.8519
G01 X27.2707 Y6.8585
G01 X27.2808 Y6.8655
G01 X27.3589 Y6.9235
G01 X27.3685 Y6.9310
G01 X27.3778 Y6.9390
G01 X27.4543 Y7.0085
G01 X27.4672 Y7.0217
G01 X27.5325 Y7.0937
G01 X27.5405 Y7.1030
G01 X27.5480 Y7.1126
G01 X27.6060 Y7.1907
G01 X27.6130 Y7.2008
G01 X27.6196 Y7.2111
G01 X27.6696 Y7.2945
G01 X27.6756 Y7.3052
G01 X27.6811 Y7.3161
G01 X27.7227 Y7.4040
G01 X27.7277 Y7.4152
G01 X27.7321 Y7.4267
G01 X27.7648 Y7.5182
G01 X27.7687 Y7.5299
G01 X27.7720 Y7.5417
G01 X27.7956 Y7.6360
G01 X27.7983 Y7.6480
G01 X27.8004 Y7.6601
G01 X27.8146 Y7.7562
G01 X27.8161 Y7.7684
G01 X27.8170 Y7.7806
G01 X27.8218 Y7.8777
G01 X27.8221 Y7.8900
G01 X27.8218 Y7.9023
G01 X27.8170 Y7.9994
G01 X27.8161 Y8.0116
G01 X27.8146 Y8.0238
G01 X27.8004 Y8.1199
G01 X27.7983 Y8.1320
G01 X27.7956 Y8.1440
G01 X27.7720 Y8.2383
G01 X27.7687 Y8.2501
G01 X27.7648 Y8.2618
G01 X27.7321 Y8.3533
G01 X27.7253 Y8.3704
G01 X27.6811 Y8.4639
G01 X27.6756 Y8.4748
G01 X27.6696 Y8.4855
G01 X27.6196 Y8.5689
G01 X27.6096 Y8.5843
G01 X27.5480 Y8.6674
G01 X27.5366 Y8.6817
G01 X27.4630 Y8.7628
G01 X27.4543 Y8.7715
G01 X27.4297 Y8.7940
G01 X27.4373 Y8.8471
G01 X27.4382 Y8.8594
G01 X27.4413 Y8.9253
G01 X27.4414 Y9.3632
G01 X27.4411 Y9.3755
G01 X27.4373 Y9.4475
G01 X27.4358 Y9.4597
G01 X27.4263 Y9.5230
G01 X27.4543 Y9.5485
G01 X27.4630 Y9.5572
G01 X27.5366 Y9.6383
G01 X27.5480 Y9.6526
G01 X27.6096 Y9.7357
G01 X27.6196 Y9.7511
G01 X27.6696 Y9.8345
G01 X27.6756 Y9.8452
G01 X27.6811 Y9.8561
G01 X27.7227 Y9.9440
G01 X27.7299 Y9.9609
G01 X27.7648 Y10.0582
G01 X27.7687 Y10.0699
G01 X27.7720 Y10.0817
G01 X27.7956 Y10.1760
G01 X27.7983 Y10.1880
G01 X27.8004 Y10.2001
G01 X27.8146 Y10.2962
G01 X27.8161 Y10.3084
G01 X27.8170 Y10.3206
G01 X27.8218 Y10.4177
G01 X27.8221 Y10.4300
G01 X27.8218 Y10.4423
G01 X27.8167 Y10.5455
G01 X27.8146 Y10.5638
G01 X27.8004 Y10.6599
G01 X27.7983 Y10.6720
G01 X27.7956 Y10.6840
G01 X27.7720 Y10.7783
G01 X27.7687 Y10.7901
G01 X27.7648 Y10.8018
G01 X27.7321 Y10.8933
G01 X27.7277 Y10.9048
G01 X27.7227 Y10.9160
G01 X27.6811 Y11.0039
G01 X27.6756 Y11.0148
G01 X27.6696 Y11.0255
G01 X27.6196 Y11.1089
G01 X27.6130 Y11.1192
G01 X27.6060 Y11.1293
G01 X27.5480 Y11.2074
G01 X27.5405 Y11.2170
G01 X27.5325 Y11.2263
G01 X27.4672 Y11.2983
G01 X27.4587 Y11.3072
G01 X27.4499 Y11.3157
G01 X27.3778 Y11.3810
G01 X27.3685 Y11.3890
G01 X27.3589 Y11.3965
G01 X27.2808 Y11.4545
G01 X27.2707 Y11.4615
G01 X27.2604 Y11.4681
G01 X27.1770 Y11.5181
G01 X27.1663 Y11.5241
G01 X27.1554 Y11.5296
G01 X27.0675 Y11.5712
G01 X27.0563 Y11.5762
G01 X27.0448 Y11.5806
G01 X26.9533 Y11.6133
G01 X26.9416 Y11.6172
G01 X26.9298 Y11.6205
G01 X26.8355 Y11.6441
G01 X26.8235 Y11.6468
G01 X26.8114 Y11.6489
G01 X26.7153 Y11.6631
G01 X26.7031 Y11.6646
G01 X26.6909 Y11.6655
G01 X26.5938 Y11.6703
G01 X26.5815 Y11.6706
G01 X26.5692 Y11.6703
G01 X26.4721 Y11.6655
G01 X26.4599 Y11.6646
G01 X26.4477 Y11.6631
G01 X26.3516 Y11.6489
G01 X26.3395 Y11.6468
G01 X26.3275 Y11.6441
G01 X26.2332 Y11.6205
G01 X26.2214 Y11.6172
G01 X26.2097 Y11.6133
G01 X26.1182 Y11.5806
G01 X26.1067 Y11.5762
G01 X26.0955 Y11.5712
G01 X26.0077 Y11.5296
G01 X25.9967 Y11.5241
G01 X25.9860 Y11.5181
G01 X25.9026 Y11.4681
G01 X25.8923 Y11.4615
G01 X25.8822 Y11.4545
G01 X25.8042 Y11.3965
G01 X25.7945 Y11.3890
G01 X25.7852 Y11.3810
G01 X25.7132 Y11.3157
G01 X25.7043 Y11.3072
G01 X25.6958 Y11.2983
G01 X25.6305 Y11.2263
G01 X25.6225 Y11.2170
G01 X25.6150 Y11.2074
G01 X25.5571 Y11.1293
G01 X25.5500 Y11.1192
G01 X25.5434 Y11.1089
G01 X25.4934 Y11.0255
G01 X25.4874 Y11.0148
G01 X25.4819 Y11.0039
G01 X25.4403 Y10.9160
G01 X25.4353 Y10.9048
G01 X25.4309 Y10.8933
G01 X25.3982 Y10.8018
G01 X25.3943 Y10.7901
G01 X25.3911 Y10.7783
G01 X25.3674 Y10.6840
G01 X25.3647 Y10.6720
G01 X25.3626 Y10.6599
G01 X25.3484 Y10.5638
G01 X25.3469 Y10.5516
G01 X25.3460 Y10.5394
G01 X25.3412 Y10.4423
G01 X25.3409 Y10.4300
G01 X25.3412 Y10.4177
G01 X25.3460 Y10.3206
G01 X25.3469 Y10.3084
G01 X25.3484 Y10.2962
G01 X25.3626 Y10.2001
G01 X25.3647 Y10.1880
G01 X25.3674 Y10.1760
G01 X25.3911 Y10.0817
G01 X25.3943 Y10.0699
G01 X25.3982 Y10.0582
G01 X25.4309 Y9.9667
G01 X25.4353 Y9.9552
G01 X25.4403 Y9.9440
G01 X25.4846 Y9.8506
G01 X25.4934 Y9.8345
G01 X25.5434 Y9.7511
G01 X25.5500 Y9.7408
G01 X25.5571 Y9.7307
G01 X25.6187 Y9.6478
G01 X25.6305 Y9.6337
G01 X25.7000 Y9.5572
G01 X25.7087 Y9.5485
G01 X25.7367 Y9.5230
G01 X25.7272 Y9.4597
G01 X25.7257 Y9.4475
G01 X25.7219 Y9.3755
G01 X25.7216 Y9.3632
G01 X25.7217 Y8.9253
G01 X25.7248 Y8.8594
G01 X25.7257 Y8.8471
G01 X25.7333 Y8.7940
G00 Z2.0000
G00 X28.2616 Y8.7834
G01 F60.00
G01 Z-0.3732
G01 F200.00
G01 X28.2487 Y8.7715
G01 X28.2400 Y8.7628
G01 X28.1705 Y8.6863
G01 X28.1625 Y8.6770
G01 X28.1550 Y8.6674
G01 X28.0971 Y8.5893
G01 X28.0900 Y8.5792
G01 X28.0834 Y8.5689
G01 X28.0334 Y8.4855
G01 X28.0274 Y8.4748
G01 X28.0219 Y8.4639
G01 X27.9803 Y8.3760
G01 X27.9753 Y8.3648
G01 X27.9709 Y8.3533
G01 X27.9382 Y8.2618
G01 X27.9343 Y8.2501
G01 X27.9311 Y8.2383
G01 X27.9074 Y8.1440
G01 X27.9047 Y8.1320
G01 X27.9026 Y8.1199
G01 X27.8884 Y8.0238
G01 X27.8869 Y8.0116
G01 X27.8860 Y7.9994
G01 X27.8812 Y7.9023
G01 X27.8809 Y7.8900
G01 X27.8812 Y7.8777
G01 X27.8860 Y7.7806
G01 X27.8869 Y7.7684
G01 X27.8884 Y7.7562
G01 X27.9026 Y7.6601
G01 X27.9047 Y7.6480
G01 X27.9074 Y7.6360
G01 X27.9311 Y7.5417
G01 X27.9343 Y7.5299
G01 X27.9382 Y7.5182
G01 X27.9709 Y7.4267
G01 X27.9753 Y7.4152
G01 X27.9803 Y7.4040
G01 X28.0219 Y7.3161
G01 X28.0274 Y7.3052
G01 X28.0334 Y7.2945
G01 X28.0834 Y7.2111
G01 X28.0900 Y7.2008
G01 X28.0971 Y7.1907
G01 X28.1550 Y7.1126
G01 X28.1625 Y7.1030
G01 X28.1705 Y7.0937
G01 X28.2358 Y7.0217
G01 X28.2443 Y7.0128
G01 X28.2532 Y7.0043
G01 X28.3252 Y6.9390
G01 X28.3345 Y6.9310
G01 X28.3442 Y6.9235
G01 X28.4222 Y6.8655
G01 X28.4323 Y6.8585
G01 X28.4426 Y6.8519
G01 X28.5260 Y6.8019
G01 X28.5367 Y6.7959
G01 X28.5477 Y6.7904
G01 X28.6355 Y6.7488
G01 X28.6467 Y6.7438
G01 X28.6582 Y6.7394
G01 X28.7497 Y6.7067
G01 X28.7614 Y6.7028
G01 X28.7732 Y6.6995
G01 X28.8675 Y6.6759
G01 X28.8795 Y6.6732
G01 X28.8916 Y6.6711
G01 X28.9877 Y6.6569
G01 X28.9999 Y6.6554
G01 X29.0121 Y6.6545
G01 X29.1092 Y6.6497
G01 X29.1215 Y6.6494
G01 X29.1338 Y6.6497
G01 X29.2309 Y6.6545
G01 X29.2431 Y6.6554
G01 X29.2553 Y6.6569
G01 X29.3514 Y6.6711
G01 X29.3635 Y6.6732
G01 X29.3755 Y6.6759
G01 X29.4698 Y6.6995
G01 X29.4816 Y6.7028
G01 X29.4933 Y6.7067
G01 X29.5848 Y6.7394
G01 X29.5963 Y6.7438
G01 X29.6075 Y6.7488
G01 X29.6954 Y6.7904
G01 X29.7063 Y6.7959
G01 X29.7170 Y6.8019
G01 X29.8004 Y6.8519
G01 X29.8107 Y6.8585
G01 X29.8208 Y6.8655
G01 X29.8989 Y6.9235
G01 X29.9085 Y6.9310
G01 X29.9178 Y6.9390
G01 X29.9899 Y7.0043
G01 X29.9987 Y7.0128
G01 X30.0072 Y7.0217
G01 X30.0725 Y7.0937
G01 X30.0805 Y7.1030
G01 X30.0880 Y7.1126
G01 X30.1460 Y7.1907
G01 X30.1530 Y7.2008
G01 X30.1596 Y7.2111
G01 X30.2096 Y7.2945
G01 X30.2156 Y7.3052
G01 X30.2211 Y7.3161
G01 X30.2627 Y7.4040
G01 X30.2677 Y7.4152
G01 X30.2721 Y7.4267
G01 X30.3048 Y7.5182
G01 X30.3087 Y7.5299
G01 X30.3120 Y7.5417
G01 X30.3356 Y7.6360
G01 X30.3383 Y7.6480
G01 X30.3404 Y7.6601
G01 X30.3546 Y7.7562
G01 X30.3561 Y7.7684
G01 X30.3570 Y7.7806
G01 X30.3618 Y7.8777
G01 X30.3621 Y7.8900
G01 X30.3618 Y7.9023
G01 X30.3570 Y7.9994
G01 X30.3561 Y8.0116
G01 X30.3546 Y8.0238
G01 X30.3404 Y8.1199
G01 X30.3383 Y8.1320
G01 X30.3356 Y8.1440
G01 X30.3120 Y8.2383
G01 X30.3087 Y8.2501
G01 X30.3048 Y8.2618
G01 X30.2721 Y8.3533
G01 X30.2677 Y8.3648
G01 X30.2627 Y8.3760
G01 X30.2211 Y8.4639
G01 X30.2156 Y8.4748
G01 X30.2096 Y8.4855
G01 X30.1596 Y8.5689
G01 X30.1530 Y8.5792
G01 X30.1460 Y8.5893
G01 X30.0880 Y8.6674
G01 X30.0805 Y8.6770
G01 X30.0725 Y8.6863
G01 X30.0030 Y8.7628
G01 X29.9943 Y8.7715
G01 X29.9814 Y8.7833
G01 X29.9814 Y9.5366
G01 X29.9943 Y9.5485
G01 X30.0030 Y9.5572
G01 X30.0725 Y9.6337
G01 X30.0805 Y9.6430
G01 X30.0880 Y9.6526
G01 X30.1460 Y9.7307
G01 X30.1530 Y9.7408
G01 X30.1596 Y9.7511
G01 X30.2096 Y9.8345
G01 X30.2156 Y9.8452
G01 X30.2211 Y9.8561
G01 X30.2627 Y9.9440
G01 X30.2699 Y9.9609
G01 X30.3048 Y10.0582
G01 X30.3087 Y10.0699
G01 X30.3120 Y10.0817
G01 X30.3356 Y10.1760
G01 X30.3383 Y10.1880
G01 X30.3404 Y10.2001
G01 X30.3546 Y10.2962
G01 X30.3561 Y10.3084
G01 X30.3570 Y10.3206
G01 X30.3618 Y10.4177
G01 X30.3621 Y10.4300
G01 X30.3618 Y10.4423
G01 X30.3567 Y10.5455
G01 X30.3546 Y10.5638
G01 X30.3404 Y10.6599
G01 X30.3383 Y10.6720
G01 X30.3356 Y10.6840
G01 X30.3120 Y10.7783
G01 X30.3087 Y10.7901
G01 X30.3048 Y10.8018
G01 X30.2721 Y10.8933
G01 X30.2677 Y10.9048
G01 X30.2627 Y10.9160
G01 X30.2211 Y11.0039
G01 X30.2156 Y11.0148
G01 X30.2096 Y11.0255
G01 X30.1596 Y11.1089
G01 X30.1530 Y11.1192
G01 X30.1460 Y11.1293
G01 X30.0880 Y11.2074
G01 X30.0805 Y11.2170
G01 X30.0725 Y11.2263
G01 X30.0072 Y11.2983
G01 X29.9987 Y11.3072
G01 X29.9899 Y11.3157
G01 X29.9178 Y11.3810
G01 X29.9085 Y11.3890
G01 X29.8989 Y11.3965
G01 X29.8208 Y11.4545
G01 X29.8107 Y11.4615
G01 X29.8004 Y11.4681
G01 X29.7170 Y11.5181
G01 X29.7063 Y11.5241
G01 X29.6954 Y11.5296
G01 X29.6075 Y11.5712
G01 X29.5963 Y11.5762
G01 X29.5848 Y11.5806
G01 X29.4933 Y11.6133
G01 X29.4816 Y11.6172
G01 X29.4698 Y11.6205
G01 X29.3755 Y11.6441
G01 X29.3635 Y11.6468
G01 X29.3514 Y11.6489
G01 X29.2553 Y11.6631
G01 X29.2431 Y11.6646
G01 X29.2309 Y11.6655
G01 X29.1338 Y11.6703
G01 X29.1215 Y11.6706
G01 X29.1092 Y11.6703
G01 X29.0121 Y11.6655
G01 X28.9999 Y11.6646
G01 X28.9877 Y11.6631
G01 X28.8916 Y11.6489
G01 X28.8795 Y11.6468
G01 X28.8675 Y11.6441
G01 X28.7732 Y11.6205
G01 X28.7614 Y11.6172
G01 X28.7497 Y11.6133
G01 X28.6582 Y11.5806
G01 X28.6467 Y11.5762
G01 X28.6355 Y11.5712
G01 X28.5477 Y11.5296
G01 X28.5367 Y11.5241
G01 X28.5260 Y11.5181
G01 X28.4426 Y11.4681
G01 X28.4323 Y11.4615
G01 X28.4222 Y11.4545
G01 X28.3442 Y11.3965
G01 X28.3345 Y11.3890
G01 X28.3252 Y11.3810
G01 X28.2532 Y11.3157
G01 X28.2443 Y11.3072
G01 X28.2358 Y11.2983
G01 X28.1705 Y11.2263
G01 X28.1625 Y11.2170
G01 X28.1550 Y11.2074
G01 X28.0971 Y11.1293
G01 X28.0900 Y11.1192
G01 X28.0834 Y11.1089
G01 X28.0334 Y11.0255
G01 X28.0274 Y11.0148
G01 X28.0219 Y11.0039
G01 X27.9803 Y10.9160
G01 X27.9753 Y10.9048
G01 X27.9709 Y10.8933
G01 X27.9382 Y10.8018
G01 X27.9343 Y10.7901
G01 X27.9311 Y10.7783
G01 X27.9074 Y10.6840
G01 X27.9047 Y10.6720
G01 X27.9026 Y10.6599
G01 X27.8884 Y10.5638
G01 X27.8869 Y10.5516
G01 X27.8860 Y10.5394
G01 X27.8812 Y10.4423
G01 X27.8809 Y10.4300
G01 X27.8812 Y10.4177
G01 X27.8860 Y10.3206
G01 X27.8869 Y10.3084
G01 X27.8884 Y10.2962
G01 X27.9026 Y10.2001
G01 X27.9047 Y10.1880
G01 X27.9074 Y10.1760
G01 X27.9311 Y10.0817
G01 X27.9343 Y10.0699
G01 X27.9382 Y10.0582
G01 X27.9709 Y9.9667
G01 X27.9753 Y9.9552
G01 X27.9803 Y9.9440
G01 X28.0219 Y9.8561
G01 X28.0274 Y9.8452
G01 X28.0334 Y9.8345
G01 X28.0834 Y9.7511
G01 X28.0900 Y9.7408
G01 X28.0971 Y9.7307
G01 X28.1550 Y9.6526
G01 X28.1625 Y9.6430
G01 X28.1705 Y9.6337
G01 X28.2358 Y9.5617
G01 X28.2487 Y9.5485
G01 X28.2616 Y9.5366
G01 X28.2616 Y8.7834
G00 Z2.0000
G00 X30.4212 Y7.9023
G01 F60.00
G01 Z-0.3732
G01 F200.00
G01 X30.4209 Y7.8900
G01 X30.4212 Y7.8777
G01 X30.4260 Y7.7806
G01 X30.4269 Y7.7684
G01 X30.4284 Y7.7562
G01 X30.4426 Y7.6601
G01 X30.4447 Y7.6480
G01 X30.4474 Y7.6360
G01 X30.4711 Y7.5417
G01 X30.4743 Y7.5299
G01 X30.4782 Y7.5182
G01 X30.5109 Y7.4267
G01 X30.5153 Y7.4152
G01 X30.5203 Y7.4040
G01 X30.5619 Y7.3161
G01 X30.5674 Y7.3052
G01 X30.5734 Y7.2945
G01 X30.6234 Y7.2111
G01 X30.6300 Y7.2008
G01 X30.6371 Y7.1907
G01 X30.6950 Y7.1126
G01 X30.7025 Y7.1030
G01 X30.7105 Y7.0937
G01 X30.7758 Y7.0217
G01 X30.7843 Y7.0128
G01 X30.7932 Y7.0043
G01 X30.8652 Y6.9390
G01 X30.8745 Y6.9310
G01 X30.8842 Y6.9235
G01 X30.9622 Y6.8655
G01 X30.9723 Y6.8585
G01 X30.9826 Y6.8519
G01 X31.0660 Y6.8019
G01 X31.0767 Y6.7959
G01 X31.0877 Y6.7904
G01 X31.1755 Y6.7488
G01 X31.1867 Y6.7438
G01 X31.1982 Y6.7394
G01 X31.2897 Y6.7067
G01 X31.3014 Y6.7028
G01 X31.3132 Y6.6995
G01 X31.4075 Y6.6759
G01 X31.4195 Y6.6732
G01 X31.4316 Y6.6711
G01 X31.5277 Y6.6569
G01 X31.5399 Y6.6554
G01 X31.5521 Y6.6545
G01 X31.6492 Y6.6497
G01 X31.6615 Y6.6494
G01 X31.6738 Y6.6497
G01 X31.7709 Y6.6545
G01 X31.7831 Y6.6554
G01 X31.7953 Y6.6569
G01 X31.8914 Y6.6711
G01 X31.9035 Y6.6732
G01 X31.9155 Y6.6759
G01 X32.0098 Y6.6995
G01 X32.0216 Y6.7028
G01 X32.0333 Y6.7067
G01 X32.1248 Y6.7394
G01 X32.1363 Y6.7438
G01 X32.1475 Y6.7488
G01 X32.2354 Y6.7904
G01 X32.2463 Y6.7959
G01 X32.2570 Y6.8019
G01 X32.3404 Y6.8519
G01 X32.3507 Y6.8585
G01 X32.3608 Y6.8655
G01 X32.4389 Y6.9235
G01 X32.4485 Y6.9310
G01 X32.4578 Y6.9390
G01 X32.5299 Y7.0043
G01 X32.5387 Y7.0128
G01 X32.5472 Y7.0217
G01 X32.6125 Y7.0937
G01 X32.6205 Y7.1030
G01 X32.6280 Y7.1126
G01 X32.6860 Y7.1907
G01 X32.6930 Y7.2008
G01 X32.6996 Y7.2111
G01 X32.7496 Y7.2945
G01 X32.7556 Y7.3052
G01 X32.7611 Y7.3161
G01 X32.8027 Y7.4040
G01 X32.8077 Y7.4152
G01 X32.8121 Y7.4267
G01 X32.8448 Y7.5182
G01 X32.8487 Y7.5299
G01 X32.8520 Y7.5417
G01 X32.8756 Y7.6360
G01 X32.8783 Y7.6480
G01 X32.8804 Y7.6601
G01 X32.8946 Y7.7562
G01 X32.8961 Y7.7684
G01 X32.8970 Y7.7806
G01 X32.9018 Y7.8777
G01 X32.9021 Y7.8900
G01 X32.9018 Y7.9023
G01 X32.8970 Y7.9994
G01 X32.8961 Y8.0116
G01 X32.8946 Y8.0238
G01 X32.8804 Y8.1199
G01 X32.8783 Y8.1320
G01 X32.8756 Y8.1440
G01 X32.8520 Y8.2383
G01 X32.8487 Y8.2501
G01 X32.8448 Y8.2618
G01 X32.8121 Y8.3533
G01 X32.8077 Y8.3648
G01 X32.8027 Y8.3760
G01 X32.7611 Y8.4639
G01 X32.7556 Y8.4748
G01 X32.7496 Y8.4855
G01 X32.6996 Y8.5689
G01 X32.6930 Y8.5792
G01 X32.6860 Y8.5893
G01 X32.6280 Y8.6674
G01 X32.6205 Y8.6770
G01 X32.6125 Y8.6863
G01 X32.5472 Y8.7583
G01 X32.5387 Y8.7672
G01 X32.5299 Y8.7757
G01 X32.4578 Y8.8410
G01 X32.4485 Y8.8490
G01 X32.4389 Y8.8565
G01 X32.3608 Y8.9145
G01 X32.3507 Y8.9215
G01 X32.3404 Y8.9281
G01 X32.2570 Y8.9781
G01 X32.2463 Y8.9841
G01 X32.2354 Y8.9896
G01 X32.1475 Y9.0312
G01 X32.1363 Y9.0362
G01 X32.1248 Y9.0406
G01 X32.0333 Y9.0733
G01 X32.0216 Y9.0772
G01 X32.0098 Y9.0805
G01 X31.9155 Y9.1041
G01 X31.9035 Y9.1068
G01 X31.8914 Y9.1089
G01 X31.7953 Y9.1231
G01 X31.7831 Y9.1246
G01 X31.7709 Y9.1255
G01 X31.6738 Y9.1303
G01 X31.6615 Y9.1306
G01 X31.6492 Y9.1303
G01 X31.5521 Y9.1255
G01 X31.5399 Y9.1246
G01 X31.5277 Y9.1231
G01 X31.4316 Y9.1089
G01 X31.4195 Y9.1068
G01 X31.4075 Y9.1041
G01 X31.3132 Y9.0805
G01 X31.3014 Y9.0772
G01 X31.2897 Y9.0733
G01 X31.1982 Y9.0406
G01 X31.1867 Y9.0362
G01 X31.1755 Y9.0312
G01 X31.0877 Y8.9896
G01 X31.0767 Y8.9841
G01 X31.0660 Y8.9781
G01 X30.9826 Y8.9281
G01 X30.9723 Y8.9215
G01 X30.9622 Y8.9145
G01 X30.8842 Y8.8565
G01 X30.8745 Y8.8490
G01 X30.8652 Y8.8410
G01 X30.7932 Y8.7757
G01 X30.7843 Y8.7672
G01 X30.7758 Y8.7583
G01 X30.7105 Y8.6863
G01 X30.7025 Y8.6770
G01 X30.6950 Y8.6674
G01 X30.6371 Y8.5893
G01 X30.6300 Y8.5792
G01 X30.6234 Y8.5689
G01 X30.5734 Y8.4855
G01 X30.5674 Y8.4748
G01 X30.5619 Y8.4639
G01 X30.5203 Y8.3760
G01 X30.5153 Y8.3648
G01 X30.5109 Y8.3533
G01 X30.4782 Y8.2618
G01 X30.4743 Y8.2501
G01 X30.4711 Y8.2383
G01 X30.4474 Y8.1440
G01 X30.4447 Y8.1320
G01 X30.4426 Y8.1199
G01 X30.4284 Y8.0238
G01 X30.4269 Y8.0116
G01 X30.4260 Y7.9994
G01 X30.4212 Y7.9023
G00 Z2.0000
G00 X30.4212 Y10.4423
G01 F60.00
G01 Z-0.3732
G01 F200.00
G01 X30.4209 Y10.4300
G01 X30.4212 Y10.4177
G01 X30.4260 Y10.3206
G01 X30.4269 Y10.3084
G01 X30.4284 Y10.2962
G01 X30.4426 Y10.2001
G01 X30.4447 Y10.1880
G01 X30.4474 Y10.1760
G01 X30.4711 Y10.0817
G01 X30.4743 Y10.0699
G01 X30.4782 Y10.0582
G01 X30.5109 Y9.9667
G01 X30.5153 Y9.9552
G01 X30.5203 Y9.9440
G01 X30.5619 Y9.8561
G01 X30.5674 Y9.8452
G01 X30.5734 Y9.8345
G01 X30.6234 Y9.7511
G01 X30.6300 Y9.7408
G01 X30.6371 Y9.7307
G01 X30.6950 Y9.6526
G01 X30.7025 Y9.6430
G01 X30.7105 Y9.6337
G01 X30.7758 Y9.5617
G01 X30.7843 Y9.5528
G01 X30.7932 Y9.5443
G01 X30.8652 Y9.4790
G01 X30.8745 Y9.4710
G01 X30.8842 Y9.4635
G01 X30.9622 Y9.4055
G01 X30.9723 Y9.3985
G01 X30.9826 Y9.3919
G01 X31.0660 Y9.3419
G01 X31.0767 Y9.3359
G01 X31.0877 Y9.3304
G01 X31.1755 Y9.2888
G01 X31.1867 Y9.2838
G01 X31.1982 Y9.2794
G01 X31.2897 Y9.2467
G01 X31.3014 Y9.2428
G01 X31.3132 Y9.2395
G01 X31.4075 Y9.2159
G01 X31.4195 Y9.2132
G01 X31.4316 Y9.2111
G01 X31.5277 Y9.1969
G01 X31.5399 Y9.1954
G01 X31.5521 Y9.1945
G01 X31.6492 Y9.1897
G01 X31.6615 Y9.1894
G01 X31.6738 Y9.1897
G01 X31.7709 Y9.1945
G01 X31.7831 Y9.1954
G01 X31.7953 Y9.1969
G01 X31.8914 Y9.2111
G01 X31.9035 Y9.2132
G01 X31.9155 Y9.2159
G01 X32.0098 Y9.2395
G01 X32.0216 Y9.2428
G01 X32.0333 Y9.2467
G01 X32.1248 Y9.2794
G01 X32.1363 Y9.2838
G01 X32.1475 Y9.2888
G01 X32.2354 Y9.3304
G01 X32.2463 Y9.3359
G01 X32.2570 Y9.3419
G01 X32.3404 Y9.3919
G01 X32.3507 Y9.3985
G01 X32.3608 Y9.4055
G01 X32.4389 Y9.4635
G01 X32.4485 Y9.4710
G01 X32.4578 Y9.4790
G01 X32.5299 Y9.5443
G01 X32.5387 Y9.5528
G01 X32.5472 Y9.5617
G01 X32.6125 Y9.6337
G01 X32.6205 Y9.6430
G01 X32.6280 Y9.6526
G01 X32.6860 Y9.7307
G01 X32.6930 Y9.7408
G01 X32.6996 Y9.7511
G01 X32.7496 Y9.8345
G01 X32.7556 Y9.8452
G01 X32.7611 Y9.8561
G01 X32.8027 Y9.9440
G01 X32.8077 Y9.9552
G01 X32.8121 Y9.9667
G01 X32.8448 Y10.0582
G01 X32.8487 Y10.0699
G01 X32.8520 Y10.0817
G01 X32.8756 Y10.1760
G01 X32.8783 Y10.1880
G01 X32.8804 Y10.2001
G01 X32.8946 Y10.2962
G01 X32.8961 Y10.3084
G01 X32.8970 Y10.3206
G01 X32.9018 Y10.4177
G01 X32.9021 Y10.4300
G01 X32.9018 Y10.4423
G01 X32.8970 Y10.5394
G01 X32.8961 Y10.5516
G01 X32.8946 Y10.5638
G01 X32.8804 Y10.6599
G01 X32.8783 Y10.6720
G01 X32.8756 Y10.6840
G01 X32.8520 Y10.7783
G01 X32.8487 Y10.7901
G01 X32.8448 Y10.8018
G01 X32.8121 Y10.8933
G01 X32.8077 Y10.9048
G01 X32.8027 Y10.9160
G01 X32.7611 Y11.0039
G01 X32.7556 Y11.0148
G01 X32.7496 Y11.0255
G01 X32.6996 Y11.1089
G01 X32.6930 Y11.1192
G01 X32.6860 Y11.1293
G01 X32.6280 Y11.2074
G01 X32.6205 Y11.2170
G01 X32.6125 Y11.2263
G01 X32.5472 Y11.2983
G01 X32.5387 Y11.3072
G01 X32.5299 Y11.3157
G01 X32.4578 Y11.3810
G01 X32.4485 Y11.3890
G01 X32.4389 Y11.3965
G01 X32.3608 Y11.4545
G01 X32.3507 Y11.4615
G01 X32.3404 Y11.4681
G01 X32.2570 Y11.5181
G01 X32.2463 Y11.5241
G01 X32.2354 Y11.5296
G01 X32.1475 Y11.5712
G01 X32.1363 Y11.5762
G01 X32.1248 Y11.5806
G01 X32.0333 Y11.6133
G01 X32.0216 Y11.6172
G01 X32.0098 Y11.6205
G01 X31.9155 Y11.6441
G01 X31.9035 Y11.6468
G01 X31.8914 Y11.6489
G01 X31.7953 Y11.6631
G01 X31.7831 Y11.6646
G01 X31.7709 Y11.6655
G01 X31.6738 Y11.6703
G01 X31.6615 Y11.6706
G01 X31.6492 Y11.6703
G01 X31.5521 Y11.6655
G01 X31.5399 Y11.6646
G01 X31.5277 Y11.6631
G01 X31.4316 Y11.6489
G01 X31.4195 Y11.6468
G01 X31.4075 Y11.6441
G01 X31.3132 Y11.6205
G01 X31.3014 Y11.6172
G01 X31.2897 Y11.6133
G01 X31.1982 Y11.5806
G01 X31.1867 Y11.5762
G01 X31.1755 Y11.5712
G01 X31.0877 Y11.5296
G01 X31.0767 Y11.5241
G01 X31.0660 Y11.5181
G01 X30.9826 Y11.4681
G01 X30.9723 Y11.4615
G01 X30.9622 Y11.4545
G01 X30.8842 Y11.3965
G01 X30.8745 Y11.3890
G01 X30.8652 Y11.3810
G01 X30.7932 Y11.3157
G01 X30.7843 Y11.3072
G01 X30.7758 Y11.2983
G01 X30.7105 Y11.2263
G01 X30.7025 Y11.2170
G01 X30.6950 Y11.2074
G01 X30.6371 Y11.1293
G01 X30.6300 Y11.1192
G01 X30.6234 Y11.1089
G01 X30.5734 Y11.0255
G01 X30.5674 Y11.0148
G01 X30.5619 Y11.0039
G01 X30.5203 Y10.9160
G01 X30.5153 Y10.9048
G01 X30.5109 Y10.8933
G01 X30.4782 Y10.8018
G01 X30.4743 Y10.7901
G01 X30.4711 Y10.7783
G01 X30.4474 Y10.6840
G01 X30.4447 Y10.6720
G01 X30.4426 Y10.6599
G01 X30.4284 Y10.5638
G01 X30.4269 Y10.5516
G01 X30.4260 Y10.5394
G01 X30.4212 Y10.4423
G00 Z2.0000
G00 X32.9612 Y10.4423
G01 F60.00
G01 Z-0.3732
G01 F200.00
G01 X32.9609 Y10.4300
G01 X32.9612 Y10.4177
G01 X32.9660 Y10.3206
G01 X32.9669 Y10.3084
G01 X32.9684 Y10.2962
G01 X32.9826 Y10.2001
G01 X32.9847 Y10.1880
G01 X32.9874 Y10.1760
G01 X33.0111 Y10.0817
G01 X33.0143 Y10.0699
G01 X33.0182 Y10.0582
G01 X33.0509 Y9.9667
G01 X33.0553 Y9.9552
G01 X33.0603 Y9.9440
G01 X33.1019 Y9.8561
G01 X33.1074 Y9.8452
G01 X33.1134 Y9.8345
G01 X33.1634 Y9.7511
G01 X33.1700 Y9.7408
G01 X33.1771 Y9.7307
G01 X33.2350 Y9.6526
G01 X33.2425 Y9.6430
G01 X33.2505 Y9.6337
G01 X33.3158 Y9.5617
G01 X33.3243 Y9.5528
G01 X33.3332 Y9.5443
G01 X33.4052 Y9.4790
G01 X33.4145 Y9.4710
G01 X33.4242 Y9.4635
G01 X33.5022 Y9.4055
G01 X33.5123 Y9.3985
G01 X33.5226 Y9.3919
G01 X33.6060 Y9.3419
G01 X33.6167 Y9.3359
G01 X33.6277 Y9.3304
G01 X33.7155 Y9.2888
G01 X33.7267 Y9.2838
G01 X33.7382 Y9.2794
G01 X33.8297 Y9.2467
G01 X33.8414 Y9.2428
G01 X33.8532 Y9.2395
G01 X33.9475 Y9.2159
G01 X33.9595 Y9.2132
G01 X33.9716 Y9.2111
G01 X34.0677 Y9.1969
G01 X34.0799 Y9.1954
G01 X34.0921 Y9.1945
G01 X34.1892 Y9.1897
G01 X34.2015 Y9.1894
G01 X34.2138 Y9.1897
G01 X34.3109 Y9.1945
G01 X34.3231 Y9.1954
G01 X34.3353 Y9.1969
G01 X34.4314 Y9.2111
G01 X34.4435 Y9.2132
G01 X34.4555 Y9.2159
G01 X34.5498 Y9.2395
G01 X34.5616 Y9.2428
G01 X34.5733 Y9.2467
G01 X34.6648 Y9.2794
G01 X34.6763 Y9.2838
G01 X34.6875 Y9.2888
G01 X34.7754 Y9.3304
G01 X34.7863 Y9.3359
G01 X34.7970 Y9.3419
G01 X34.8804 Y9.3919
G01 X34.8907 Y9.3985
G01 X34.9008 Y9.4055
G01 X34.9789 Y9.4635
G01 X34.9885 Y9.4710
G01 X34.9978 Y9.4790
G01 X35.0699 Y9.5443
G01 X35.0787 Y9.5528
G01 X35.0872 Y9.5617
G01 X35.1525 Y9.6337
G01 X35.1605 Y9.6430
G01 X35.1680 Y9.6526
G01 X35.2260 Y9.7307
G01 X35.2330 Y9.7408
G01 X35.2396 Y9.7511
G01 X35.2896 Y9.8345
G01 X35.2956 Y9.8452
G01 X35.3011 Y9.8561
G01 X35.3427 Y9.9440
G01 X35.3477 Y9.9552
G01 X35.3521 Y9.9667
G01 X35.3848 Y10.0582
G01 X35.3887 Y10.0699
G01 X35.3920 Y10.0817
G01 X35.4156 Y10.1760
G01 X35.4183 Y10.1880
G01 X35.4204 Y10.2001
G01 X35.4346 Y10.2962
G01 X35.4361 Y10.3084
G01 X35.4370 Y10.3206
G01 X35.4418 Y10.4177
G01 X35.4421 Y10.4300
G01 X35.4418 Y10.4423
G01 X35.4370 Y10.5394
G01 X35.4361 Y10.5516
G01 X35.4346 Y10.5638
G01 X35.4204 Y10.6599
G01 X35.4183 Y10.6720
G01 X35.4156 Y10.6840
G01 X35.3920 Y10.7783
G01 X35.3887 Y10.7901
G01 X35.3848 Y10.8018
G01 X35.3521 Y10.8933
G01 X35.3477 Y10.9048
G01 X35.3427 Y10.9160
G01 X35.3011 Y11.0039
G01 X35.2956 Y11.0148
G01 X35.2896 Y11.0255
G01 X35.2396 Y11.1089
G01 X35.2330 Y11.1192
G01 X35.2260 Y11.1293
G01 X35.1680 Y11.2074
G01 X35.1605 Y11.2170
G01 X35.1525 Y11.2263
G01 X35.0872 Y11.2983
G01 X35.0787 Y11.3072
G01 X35.0699 Y11.3157
G01 X34.9978 Y11.3810
G01 X34.9885 Y11.3890
G01 X34.9789 Y11.3965
G01 X34.9008 Y11.4545
G01 X34.8907 Y11.4615
G01 X34.8804 Y11.4681
G01 X34.7970 Y11.5181
G01 X34.7863 Y11.5241
G01 X34.7754 Y11.5296
G01 X34.6875 Y11.5712
G01 X34.6763 Y11.5762
G01 X34.6648 Y11.5806
G01 X34.5733 Y11.6133
G01 X34.5616 Y11.6172
G01 X34.5498 Y11.6205
G01 X34.4555 Y11.6441
G01 X34.4435 Y11.6468
G01 X34.4314 Y11.6489
G01 X34.3353 Y11.6631
G01 X34.3231 Y11.6646
G01 X34.3109 Y11.6655
G01 X34.2138 Y11.6703
G01 X34.2015 Y11.6706
G01 X34.1892 Y11.6703
G01 X34.0921 Y11.6655
G01 X34.0799 Y11.6646
G01 X34.0677 Y11.6631
G01 X33.9716 Y11.6489
G01 X33.9595 Y11.6468
G01 X33.9475 Y11.6441
G01 X33.8532 Y11.6205
G01 X33.8414 Y11.6172
G01 X33.8297 Y11.6133
G01 X33.7382 Y11.5806
G01 X33.7267 Y11.5762
G01 X33.7155 Y11.5712
G01 X33.6277 Y11.5296
G01 X33.6167 Y11.5241
G01 X33.6060 Y11.5181
G01 X33.5226 Y11.4681
G01 X33.5123 Y11.4615
G01 X33.5022 Y11.4545
G01 X33.4242 Y11.3965
G01 X33.4145 Y11.3890
G01 X33.4052 Y11.3810
G01 X33.3332 Y11.3157
G01 X33.3243 Y11.3072
G01 X33.3158 Y11.2983
G01 X33.2505 Y11.2263
G01 X33.2425 Y11.2170
G01 X33.2350 Y11.2074
G01 X33.1771 Y11.1293
G01 X33.1700 Y11.1192
G01 X33.1634 Y11.1089
G01 X33.1134 Y11.0255
G01 X33.1074 Y11.0148
G01 X33.1019 Y11.0039
G01 X33.0603 Y10.9160
G01 X33.0553 Y10.9048
G01 X33.0509 Y10.8933
G01 X33.0182 Y10.8018
G01 X33.0143 Y10.7901
G01 X33.0111 Y10.7783
G01 X32.9874 Y10.6840
G01 X32.9847 Y10.6720
G01 X32.9826 Y10.6599
G01 X32.9684 Y10.5638
G01 X32.9669 Y10.5516
G01 X32.9660 Y10.5394
G01 X32.9612 Y10.4423
G00 Z2.0000
G00 X35.5012 Y10.4423
G01 F60.00
G01 Z-0.3732
G01 F200.00
G01 X35.5009 Y10.4300
G01 X35.5012 Y10.4177
G01 X35.5060 Y10.3206
G01 X35.5069 Y10.3084
G01 X35.5084 Y10.2962
G01 X35.5226 Y10.2001
G01 X35.5247 Y10.1880
G01 X35.5274 Y10.1760
G01 X35.5511 Y10.0817
G01 X35.5543 Y10.0699
G01 X35.5582 Y10.0582
G01 X35.5909 Y9.9667
G01 X35.5953 Y9.9552
G01 X35.6003 Y9.9440
G01 X35.6419 Y9.8561
G01 X35.6474 Y9.8452
G01 X35.6534 Y9.8345
G01 X35.7034 Y9.7511
G01 X35.7100 Y9.7408
G01 X35.7171 Y9.7307
G01 X35.7750 Y9.6526
G01 X35.7825 Y9.6430
G01 X35.7905 Y9.6337
G01 X35.8558 Y9.5617
G01 X35.8643 Y9.5528
G01 X35.8732 Y9.5443
G01 X35.9452 Y9.4790
G01 X35.9545 Y9.4710
G01 X35.9642 Y9.4635
G01 X36.0422 Y9.4055
G01 X36.0523 Y9.3985
G01 X36.0626 Y9.3919
G01 X36.1460 Y9.3419
G01 X36.1567 Y9.3359
G01 X36.1677 Y9.3304
G01 X36.2555 Y9.2888
G01 X36.2667 Y9.2838
G01 X36.2782 Y9.2794
G01 X36.3697 Y9.2467
G01 X36.3814 Y9.2428
G01 X36.3932 Y9.2395
G01 X36.4875 Y9.2159
G01 X36.4995 Y9.2132
G01 X36.5116 Y9.2111
G01 X36.6077 Y9.1969
G01 X36.6199 Y9.1954
G01 X36.6321 Y9.1945
G01 X36.7292 Y9.1897
G01 X36.7415 Y9.1894
G01 X36.7538 Y9.1897
G01 X36.8509 Y9.1945
G01 X36.8631 Y9.1954
G01 X36.8753 Y9.1969
G01 X36.9714 Y9.2111
G01 X36.9835 Y9.2132
G01 X36.9955 Y9.2159
G01 X37.0898 Y9.2395
G01 X37.1016 Y9.2428
G01 X37.1133 Y9.2467
G01 X37.2048 Y9.2794
G01 X37.2163 Y9.2838
G01 X37.2275 Y9.2888
G01 X37.3154 Y9.3304
G01 X37.3263 Y9.3359
G01 X37.3370 Y9.3419
G01 X37.4204 Y9.3919
G01 X37.4307 Y9.3985
G01 X37.4408 Y9.4055
G01 X37.5189 Y9.4635
G01 X37.5285 Y9.4710
G01 X37.5378 Y9.4790
G01 X37.6099 Y9.5443
G01 X37.6187 Y9.5528
G01 X37.6272 Y9.5617
G01 X37.6925 Y9.6337
G01 X37.7005 Y9.6430
G01 X37.7080 Y9.6526
G01 X37.7660 Y9.7307
G01 X37.7730 Y9.7408
G01 X37.7796 Y9.7511
G01 X37.8296 Y9.8345
G01 X37.8356 Y9.8452
G01 X37.8411 Y9.8561
G01 X37.8827 Y9.9440
G01 X37.8877 Y9.9552
G01 X37.8921 Y9.9667
G01 X37.9248 Y10.0582
G01 X37.9287 Y10.0699
G01 X37.9320 Y10.0817
G01 X37.9556 Y10.1760
G01 X37.9583 Y10.1880
G01 X37.9604 Y10.2001
G01 X37.9746 Y10.2962
G01 X37.9761 Y10.3084
G01 X37.9770 Y10.3206
G01 X37.9818 Y10.4177
G01 X37.9821 Y10.4300
G01 X37.9818 Y10.4423
G01 X37.9770 Y10.5394
G01 X37.9761 Y10.5516
G01 X37.9746 Y10.5638
G01 X37.9604 Y10.6599
G01 X37.9583 Y10.6720
G01 X37.9556 Y10.6840
G01 X37.9320 Y10.7783
G01 X37.9287 Y10.7901
G01 X37.9248 Y10.8018
G01 X37.8921 Y10.8933
G01 X37.8877 Y10.9048
G01 X37.8827 Y10.9160
G01 X37.8411 Y11.0039
G01 X37.8356 Y11.0148
G01 X37.8296 Y11.0255
G01 X37.7796 Y11.1089
G01 X37.7730 Y11.1192
G01 X37.7660 Y11.1293
G01 X37.7080 Y11.2074
G01 X37.7005 Y11.2170
G01 X37.6925 Y11.2263
G01 X37.6272 Y11.2983
G01 X37.6187 Y11.3072
G01 X37.6099 Y11.3157
G01 X37.5378 Y11.3810
G01 X37.5285 Y11.3890
G01 X37.5189 Y11.3965
G01 X37.4408 Y11.4545
G01 X37.4307 Y11.4615
G01 X37.4204 Y11.4681
G01 X37.3370 Y11.5181
G01 X37.3263 Y11.5241
G01 X37.3154 Y11.5296
G01 X37.2275 Y11.5712
G01 X37.2163 Y11.5762
G01 X37.2048 Y11.5806
G01 X37.1133 Y11.6133
G01 X37.1016 Y11.6172
G01 X37.0898 Y11.6205
G01 X36.9955 Y11.6441
G01 X36.9835 Y11.6468
G01 X36.9714 Y11.6489
G01 X36.8753 Y11.6631
G01 X36.8631 Y11.6646
G01 X36.8509 Y11.6655
G01 X36.7538 Y11.6703
G01 X36.7415 Y11.6706
G01 X36.7292 Y11.6703
G01 X36.6321 Y11.6655
G01 X36.6199 Y11.6646
G01 X36.6077 Y11.6631
G01 X36.5116 Y11.6489
G01 X36.4995 Y11.6468
G01 X36.4875 Y11.6441
G01 X36.3932 Y11.6205
G01 X36.3814 Y11.6172
G01 X36.3697 Y11.6133
G01 X36.2782 Y11.5806
G01 X36.2667 Y11.5762
G01 X36.2555 Y11.5712
G01 X36.1677 Y11.5296
G01 X36.1567 Y11.5241
G01 X36.1460 Y11.5181
G01 X36.0626 Y11.4681
G01 X36.0523 Y11.4615
G01 X36.0422 Y11.4545
G01 X35.9642 Y11.3965
G01 X35.9545 Y11.3890
G01 X35.9452 Y11.3810
G01 X35.8732 Y11.3157
G01 X35.8643 Y11.3072
G01 X35.8558 Y11.2983
G01 X35.7905 Y11.2263
G01 X35.7825 Y11.2170
G01 X35.7750 Y11.2074
G01 X35.7171 Y11.1293
G01 X35.7100 Y11.1192
G01 X35.7034 Y11.1089
G01 X35.6534 Y11.0255
G01 X35.6474 Y11.0148
G01 X35.6419 Y11.0039
G01 X35.6003 Y10.9160
G01 X35.5953 Y10.9048
G01 X35.5909 Y10.8933
G01 X35.5582 Y10.8018
G01 X35.5543 Y10.7901
G01 X35.5511 Y10.7783
G01 X35.5274 Y10.6840
G01 X35.5247 Y10.6720
G01 X35.5226 Y10.6599
G01 X35.5084 Y10.5638
G01 X35.5069 Y10.5516
G01 X35.5060 Y10.5394
G01 X35.5012 Y10.4423
G00 Z2.0000
G00 X35.5012 Y7.9023
G01 F60.00
G01 Z-0.3732
G01 F200.00
G01 X35.5009 Y7.8900
G01 X35.5012 Y7.8777
G01 X35.5060 Y7.7806
G01 X35.5069 Y7.7684
G01 X35.5084 Y7.7562
G01 X35.5226 Y7.6601
G01 X35.5247 Y7.6480
G01 X35.5274 Y7.6360
G01 X35.5511 Y7.5417
G01 X35.5543 Y7.5299
G01 X35.5582 Y7.5182
G01 X35.5909 Y7.4267
G01 X35.5953 Y7.4152
G01 X35.6003 Y7.4040
G01 X35.6419 Y7.3161
G01 X35.6474 Y7.3052
G01 X35.6534 Y7.2945
G01 X35.7034 Y7.2111
G01 X35.7100 Y7.2008
G01 X35.7171 Y7.1907
G01 X35.7750 Y7.1126
G01 X35.7825 Y7.1030
G01 X35.7905 Y7.0937
G01 X35.8558 Y7.0217
G01 X35.8643 Y7.0128
G01 X35.8732 Y7.0043
G01 X35.9452 Y6.9390
G01 X35.9545 Y6.9310
G01 X35.9642 Y6.9235
G01 X36.0422 Y6.8655
G01 X36.0523 Y6.8585
G01 X36.0626 Y6.8519
G01 X36.1460 Y6.8019
G01 X36.1567 Y6.7959
G01 X36.1677 Y6.7904
G01 X36.2555 Y6.7488
G01 X36.2667 Y6.7438
G01 X36.2782 Y6.7394
G01 X36.3697 Y6.7067
G01 X36.3814 Y6.7028
G01 X36.3932 Y6.6995
G01 X36.4875 Y6.6759
G01 X36.4995 Y6.6732
G01 X36.5116 Y6.6711
G01 X36.6077 Y6.6569
G01 X36.6199 Y6.6554
G01 X36.6321 Y6.6545
G01 X36.7292 Y6.6497
G01 X36.7415 Y6.6494
G01 X36.7538 Y6.6497
G01 X36.8509 Y6.6545
G01 X36.8631 Y6.6554
G01 X36.8753 Y6.6569
G01 X36.9714 Y6.6711
G01 X36.9835 Y6.6732
G01 X36.9955 Y6.6759
G01 X37.0898 Y6.6995
G01 X37.1016 Y6.7028
G01 X37.1133 Y6.7067
G01 X37.2048 Y6.7394
G01 X37.2163 Y6.7438
G01 X37.2275 Y6.7488
G01 X37.3154 Y6.7904
G01 X37.3263 Y6.7959
G01 X37.3370 Y6.8019
G01 X37.4204 Y6.8519
G01 X37.4307 Y6.8585
G01 X37.4408 Y6.8655
G01 X37.5189 Y6.9235
G01 X37.5285 Y6.9310
G01 X37.5378 Y6.9390
G01 X37.6099 Y7.0043
G01 X37.6187 Y7.0128
G01 X37.6272 Y7.0217
G01 X37.6925 Y7.0937
G01 X37.7005 Y7.1030
G01 X37.7080 Y7.1126
G01 X37.7660 Y7.1907
G01 X37.7730 Y7.2008
G01 X37.7796 Y7.2111
G01 X37.8296 Y7.2945
G01 X37.8356 Y7.3052
G01 X37.8411 Y7.3161
G01 X37.8827 Y7.4040
G01 X37.8877 Y7.4152
G01 X37.8921 Y7.4267
G01 X37.9248 Y7.5182
G01 X37.9287 Y7.5299
G01 X37.9320 Y7.5417
G01 X37.9556 Y7.6360
G01 X37.9583 Y7.6480
G01 X37.9604 Y7.6601
G01 X37.9746 Y7.7562
G01 X37.9761 Y7.7684
G01 X37.9770 Y7.7806
G01 X37.9818 Y7.8777
G01 X37.9821 Y7.8900
G01 X37.9818 Y7.9023
G01 X37.9770 Y7.9994
G01 X37.9761 Y8.0116
G01 X37.9746 Y8.0238
G01 X37.9604 Y8.1199
G01 X37.9583 Y8.1320
G01 X37.9556 Y8.1440
G01 X37.9320 Y8.2383
G01 X37.9287 Y8.2501
G01 X37.9248 Y8.2618
G01 X37.8921 Y8.3533
G01 X37.8877 Y8.3648
G01 X37.8827 Y8.3760
G01 X37.8411 Y8.4639
G01 X37.8356 Y8.4748
G01 X37.8296 Y8.4855
G01 X37.7796 Y8.5689
G01 X37.7730 Y8.5792
G01 X37.7660 Y8.5893
G01 X37.7080 Y8.6674
G01 X37.7005 Y8.6770
G01 X37.6925 Y8.6863
G01 X37.6272 Y8.7583
G01 X37.6187 Y8.7672
G01 X37.6099 Y8.7757
G01 X37.5378 Y8.8410
G01 X37.5285 Y8.8490
G01 X37.5189 Y8.8565
G01 X37.4408 Y8.9145
G01 X37.4307 Y8.9215
G01 X37.4204 Y8.9281
G01 X37.3370 Y8.9781
G01 X37.3263 Y8.9841
G01 X37.3154 Y8.9896
G01 X37.2275 Y9.0312
G01 X37.2163 Y9.0362
G01 X37.2048 Y9.0406
G01 X37.1133 Y9.0733
G01 X37.1016 Y9.0772
G01 X37.0898 Y9.0805
G01 X36.9955 Y9.1041
G01 X36.9835 Y9.1068
G01 X36.9714 Y9.1089
G01 X36.8753 Y9.1231
G01 X36.8631 Y9.1246
G01 X36.8509 Y9.1255
G01 X36.7538 Y9.1303
G01 X36.7415 Y9.1306
G01 X36.7292 Y9.1303
G01 X36.6321 Y9.1255
G01 X36.6199 Y9.1246
G01 X36.6077 Y9.1231
G01 X36.5116 Y9.1089
G01 X36.4995 Y9.1068
G01 X36.4875 Y9.1041
G01 X36.3932 Y9.0805
G01 X36.3814 Y9.0772
G01 X36.3697 Y9.0733
G01 X36.2782 Y9.0406
G01 X36.2667 Y9.0362
G01 X36.2555 Y9.0312
G01 X36.1677 Y8.9896
G01 X36.1567 Y8.9841
G01 X36.1460 Y8.9781
G01 X36.0626 Y8.9281
G01 X36.0523 Y8.9215
G01 X36.0422 Y8.9145
G01 X35.9642 Y8.8565
G01 X35.9545 Y8.8490
G01 X35.9452 Y8.8410
G01 X35.8732 Y8.7757
G01 X35.8643 Y8.7672
G01 X35.8558 Y8.7583
G01 X35.7905 Y8.6863
G01 X35.7825 Y8.6770
G01 X35.7750 Y8.6674
G01 X35.7171 Y8.5893
G01 X35.7100 Y8.5792
G01 X35.7034 Y8.5689
G01 X35.6534 Y8.4855
G01 X35.6474 Y8.4748
G01 X35.6419 Y8.4639
G01 X35.6003 Y8.3760
G01 X35.5953 Y8.3648
G01 X35.5909 Y8.3533
G01 X35.5582 Y8.2618
G01 X35.5543 Y8.2501
G01 X35.5511 Y8.2383
G01 X35.5274 Y8.1440
G01 X35.5247 Y8.1320
G01 X35.5226 Y8.1199
G01 X35.5084 Y8.0238
G01 X35.5069 Y8.0116
G01 X35.5060 Y7.9994
G01 X35.5012 Y7.9023
G00 Z2.0000
G00 X32.9612 Y7.9023
G01 F60.00
G01 Z-0.3732
G01 F200.00
G01 X32.9609 Y7.8900
G01 X32.9612 Y7.8777
G01 X32.9660 Y7.7806
G01 X32.9669 Y7.7684
G01 X32.9684 Y7.7562
G01 X32.9826 Y7.6601
G01 X32.9847 Y7.6480
G01 X32.9874 Y7.6360
G01 X33.0111 Y7.5417
G01 X33.0143 Y7.5299
G01 X33.0182 Y7.5182
G01 X33.0509 Y7.4267
G01 X33.0553 Y7.4152
G01 X33.0603 Y7.4040
G01 X33.1019 Y7.3161
G01 X33.1074 Y7.3052
G01 X33.1134 Y7.2945
G01 X33.1634 Y7.2111
G01 X33.1700 Y7.2008
G01 X33.1771 Y7.1907
G01 X33.2350 Y7.1126
G01 X33.2425 Y7.1030
G01 X33.2505 Y7.0937
G01 X33.3158 Y7.0217
G01 X33.3243 Y7.0128
G01 X33.3332 Y7.0043
G01 X33.4052 Y6.9390
G01 X33.4145 Y6.9310
G01 X33.4242 Y6.9235
G01 X33.5022 Y6.8655
G01 X33.5123 Y6.8585
G01 X33.5226 Y6.8519
G01 X33.6060 Y6.8019
G01 X33.6167 Y6.7959
G01 X33.6277 Y6.7904
G01 X33.7155 Y6.7488
G01 X33.7267 Y6.7438
G01 X33.7382 Y6.7394
G01 X33.8297 Y6.7067
G01 X33.8414 Y6.7028
G01 X33.8532 Y6.6995
G01 X33.9475 Y6.6759
G01 X33.9595 Y6.6732
G01 X33.9716 Y6.6711
G01 X34.0677 Y6.6569
G01 X34.0799 Y6.6554
G01 X34.0921 Y6.6545
G01 X34.1892 Y6.6497
G01 X34.2015 Y6.6494
G01 X34.2138 Y6.6497
G01 X34.3109 Y6.6545
G01 X34.3231 Y6.6554
G01 X34.3353 Y6.6569
G01 X34.4314 Y6.6711
G01 X34.4435 Y6.6732
G01 X34.4555 Y6.6759
G01 X34.5498 Y6.6995
G01 X34.5616 Y6.7028
G01 X34.5733 Y6.7067
G01 X34.6648 Y6.7394
G01 X34.6763 Y6.7438
G01 X34.6875 Y6.7488
G01 X34.7754 Y6.7904
G01 X34.7863 Y6.7959
G01 X34.7970 Y6.8019
G01 X34.8804 Y6.8519
G01 X34.8907 Y6.8585
G01 X34.9008 Y6.8655
G01 X34.9789 Y6.9235
G01 X34.9885 Y6.9310
G01 X34.9978 Y6.9390
G01 X35.0699 Y7.0043
G01 X35.0787 Y7.0128
G01 X35.0872 Y7.0217
G01 X35.1525 Y7.0937
G01 X35.1605 Y7.1030
G01 X35.1680 Y7.1126
G01 X35.2260 Y7.1907
G01 X35.2330 Y7.2008
G01 X35.2396 Y7.2111
G01 X35.2896 Y7.2945
G01 X35.2956 Y7.3052
G01 X35.3011 Y7.3161
G01 X35.3427 Y7.4040
G01 X35.3477 Y7.4152
G01 X35.3521 Y7.4267
G01 X35.3848 Y7.5182
G01 X35.3887 Y7.5299
G01 X35.3920 Y7.5417
G01 X35.4156 Y7.6360
G01 X35.4183 Y7.6480
G01 X35.4204 Y7.6601
G01 X35.4346 Y7.7562
G01 X35.4361 Y7.7684
G01 X35.4370 Y7.7806
G01 X35.4418 Y7.8777
G01 X35.4421 Y7.8900
G01 X35.4418 Y7.9023
G01 X35.4370 Y7.9994
G01 X35.4361 Y8.0116
G01 X35.4346 Y8.0238
G01 X35.4204 Y8.1199
G01 X35.4183 Y8.1320
G01 X35.4156 Y8.1440
G01 X35.3920 Y8.2383
G01 X35.3887 Y8.2501
G01 X35.3848 Y8.2618
G01 X35.3521 Y8.3533
G01 X35.3477 Y8.3648
G01 X35.3427 Y8.3760
G01 X35.3011 Y8.4639
G01 X35.2956 Y8.4748
G01 X35.2896 Y8.4855
G01 X35.2396 Y8.5689
G01 X35.2330 Y8.5792
G01 X35.2260 Y8.5893
G01 X35.1680 Y8.6674
G01 X35.1605 Y8.6770
G01 X35.1525 Y8.6863
G01 X35.0872 Y8.7583
G01 X35.0787 Y8.7672
G01 X35.0699 Y8.7757
G01 X34.9978 Y8.8410
G01 X34.9885 Y8.8490
G01 X34.9789 Y8.8565
G01 X34.9008 Y8.9145
G01 X34.8907 Y8.9215
G01 X34.8804 Y8.9281
G01 X34.7970 Y8.9781
G01 X34.7863 Y8.9841
G01 X34.7754 Y8.9896
G01 X34.6875 Y9.0312
G01 X34.6763 Y9.0362
G01 X34.6648 Y9.0406
G01 X34.5733 Y9.0733
G01 X34.5616 Y9.0772
G01 X34.5498 Y9.0805
G01 X34.4555 Y9.1041
G01 X34.4435 Y9.1068
G01 X34.4314 Y9.1089
G01 X34.3353 Y9.1231
G01 X34.3231 Y9.1246
G01 X34.3109 Y9.1255
G01 X34.2138 Y9.1303
G01 X34.2015 Y9.1306
G01 X34.1892 Y9.1303
G01 X34.0921 Y9.1255
G01 X34.0799 Y9.1246
G01 X34.0677 Y9.1231
G01 X33.9716 Y9.1089
G01 X33.9595 Y9.1068
G01 X33.9475 Y9.1041
G01 X33.8532 Y9.0805
G01 X33.8414 Y9.0772
G01 X33.8297 Y9.0733
G01 X33.7382 Y9.0406
G01 X33.7267 Y9.0362
G01 X33.7155 Y9.0312
G01 X33.6277 Y8.9896
G01 X33.6167 Y8.9841
G01 X33.6060 Y8.9781
G01 X33.5226 Y8.9281
G01 X33.5123 Y8.9215
G01 X33.5022 Y8.9145
G01 X33.4242 Y8.8565
G01 X33.4145 Y8.8490
G01 X33.4052 Y8.8410
G01 X33.3332 Y8.7757
G01 X33.3243 Y8.7672
G01 X33.3158 Y8.7583
G01 X33.2505 Y8.6863
G01 X33.2425 Y8.6770
G01 X33.2350 Y8.6674
G01 X33.1771 Y8.5893
G01 X33.1700 Y8.5792
G01 X33.1634 Y8.5689
G01 X33.1134 Y8.4855
G01 X33.1074 Y8.4748
G01 X33.1019 Y8.4639
G01 X33.0603 Y8.3760
G01 X33.0553 Y8.3648
G01 X33.0509 Y8.3533
G01 X33.0182 Y8.2618
G01 X33.0143 Y8.2501
G01 X33.0111 Y8.2383
G01 X32.9874 Y8.1440
G01 X32.9847 Y8.1320
G01 X32.9826 Y8.1199
G01 X32.9684 Y8.0238
G01 X32.9669 Y8.0116
G01 X32.9660 Y7.9994
G01 X32.9612 Y7.9023
G00 Z2.0000
G00 X40.9733 Y8.7940
G01 F60.00
G01 Z-0.3732
G01 F200.00
G01 X40.9487 Y8.7715
G01 X40.9400 Y8.7628
G01 X40.8665 Y8.6817
G01 X40.8550 Y8.6674
G01 X40.7971 Y8.5893
G01 X40.7866 Y8.5741
G01 X40.7334 Y8.4855
G01 X40.7274 Y8.4748
G01 X40.7219 Y8.4639
G01 X40.6803 Y8.3760
G01 X40.6753 Y8.3648
G01 X40.6709 Y8.3533
G01 X40.6382 Y8.2618
G01 X40.6326 Y8.2442
G01 X40.6074 Y8.1440
G01 X40.6047 Y8.1320
G01 X40.6026 Y8.1199
G01 X40.5884 Y8.0238
G01 X40.5869 Y8.0116
G01 X40.5860 Y7.9994
G01 X40.5812 Y7.9023
G01 X40.5809 Y7.8900
G01 X40.5812 Y7.8777
G01 X40.5860 Y7.7806
G01 X40.5869 Y7.7684
G01 X40.5884 Y7.7562
G01 X40.6026 Y7.6601
G01 X40.6047 Y7.6480
G01 X40.6074 Y7.6360
G01 X40.6311 Y7.5417
G01 X40.6343 Y7.5299
G01 X40.6382 Y7.5182
G01 X40.6709 Y7.4267
G01 X40.6753 Y7.4152
G01 X40.6803 Y7.4040
G01 X40.7219 Y7.3161
G01 X40.7274 Y7.3052
G01 X40.7334 Y7.2945
G01 X40.7834 Y7.2111
G01 X40.7900 Y7.2008
G01 X40.7971 Y7.1907
G01 X40.8550 Y7.1126
G01 X40.8625 Y7.1030
G01 X40.8705 Y7.0937
G01 X40.9358 Y7.0217
G01 X40.9443 Y7.0128
G01 X40.9532 Y7.0043
G01 X41.0252 Y6.9390
G01 X41.0345 Y6.9310
G01 X41.0442 Y6.9235
G01 X41.1222 Y6.8655
G01 X41.1323 Y6.8585
G01 X41.1426 Y6.8519
G01 X41.2260 Y6.8019
G01 X41.2367 Y6.7959
G01 X41.2477 Y6.7904
G01 X41.3355 Y6.7488
G01 X41.3467 Y6.7438
G01 X41.3582 Y6.7394
G01 X41.4497 Y6.7067
G01 X41.4614 Y6.7028
G01 X41.4732 Y6.6995
G01 X41.5675 Y6.6759
G01 X41.5795 Y6.6732
G01 X41.5916 Y6.6711
G01 X41.6877 Y6.6569
G01 X41.6999 Y6.6554
G01 X41.7121 Y6.6545
G01 X41.8092 Y6.6497
G01 X41.8215 Y6.6494
G01 X41.8338 Y6.6497
G01 X41.9309 Y6.6545
G01 X41.9431 Y6.6554
G01 X41.9553 Y6.6569
G01 X42.0514 Y6.6711
G01 X42.0635 Y6.6732
G01 X42.0755 Y6.6759
G01 X42.1698 Y6.6995
G01 X42.1875 Y6.7047
G01 X42.2848 Y6.7394
G01 X42.2963 Y6.7438
G01 X42.3075 Y6.7488
G01 X42.3954 Y6.7904
G01 X42.4063 Y6.7959
G01 X42.4170 Y6.8019
G01 X42.5056 Y6.8551
G01 X42.5208 Y6.8655
G01 X42.5989 Y6.9235
G01 X42.6132 Y6.9350
G01 X42.6943 Y7.0085
G01 X42.7030 Y7.0172
G01 X42.7285 Y7.0452
G01 X42.7918 Y7.0357
G01 X42.8040 Y7.0342
G01 X42.8760 Y7.0304
G01 X42.8883 Y7.0301
G01 X43.3262 Y7.0302
G01 X43.3922 Y7.0333
G01 X43.4044 Y7.0342
G01 X43.4575 Y7.0418
G01 X43.4800 Y7.0172
G01 X43.4887 Y7.0085
G01 X43.5698 Y6.9350
G01 X43.5842 Y6.9235
G01 X43.6672 Y6.8620
G01 X43.6826 Y6.8519
G01 X43.7660 Y6.8019
G01 X43.7767 Y6.7959
G01 X43.7877 Y6.7904
G01 X43.8755 Y6.7488
G01 X43.8924 Y6.7416
G01 X43.9897 Y6.7067
G01 X44.0014 Y6.7028
G01 X44.0132 Y6.6995
G01 X44.1075 Y6.6759
G01 X44.1195 Y6.6732
G01 X44.1316 Y6.6711
G01 X44.2277 Y6.6569
G01 X44.2399 Y6.6554
G01 X44.2521 Y6.6545
G01 X44.3492 Y6.6497
G01 X44.3615 Y6.6494
G01 X44.3738 Y6.6497
G01 X44.4709 Y6.6545
G01 X44.4831 Y6.6554
G01 X44.4953 Y6.6569
G01 X44.5914 Y6.6711
G01 X44.6035 Y6.6732
G01 X44.6155 Y6.6759
G01 X44.7098 Y6.6995
G01 X44.7216 Y6.7028
G01 X44.7333 Y6.7067
G01 X44.8248 Y6.7394
G01 X44.8363 Y6.7438
G01 X44.8475 Y6.7488
G01 X44.9409 Y6.7931
G01 X44.9570 Y6.8019
G01 X45.0404 Y6.8519
G01 X45.0507 Y6.8585
G01 X45.0608 Y6.8655
G01 X45.1437 Y6.9272
G01 X45.1578 Y6.9390
G01 X45.2343 Y7.0085
G01 X45.2430 Y7.0172
G01 X45.2685 Y7.0452
G01 X45.3318 Y7.0357
G01 X45.3440 Y7.0342
G01 X45.4160 Y7.0304
G01 X45.4283 Y7.0301
G01 X45.8662 Y7.0302
G01 X45.9322 Y7.0333
G01 X45.9444 Y7.0342
G01 X45.9975 Y7.0418
G01 X46.0200 Y7.0172
G01 X46.0287 Y7.0085
G01 X46.1098 Y6.9350
G01 X46.1242 Y6.9235
G01 X46.2022 Y6.8655
G01 X46.2174 Y6.8551
G01 X46.3060 Y6.8019
G01 X46.3167 Y6.7959
G01 X46.3277 Y6.7904
G01 X46.4155 Y6.7488
G01 X46.4267 Y6.7438
G01 X46.4382 Y6.7394
G01 X46.5355 Y6.7047
G01 X46.5532 Y6.6995
G01 X46.6475 Y6.6759
G01 X46.6595 Y6.6732
G01 X46.6716 Y6.6711
G01 X46.7677 Y6.6569
G01 X46.7799 Y6.6554
G01 X46.7921 Y6.6545
G01 X46.8892 Y6.6497
G01 X46.9015 Y6.6494
G01 X46.9138 Y6.6497
G01 X47.0109 Y6.6545
G01 X47.0231 Y6.6554
G01 X47.0353 Y6.6569
G01 X47.1314 Y6.6711
G01 X47.1435 Y6.6732
G01 X47.1555 Y6.6759
G01 X47.2498 Y6.6995
G01 X47.2616 Y6.7028
G01 X47.2733 Y6.7067
G01 X47.3648 Y6.7394
G01 X47.3763 Y6.7438
G01 X47.3875 Y6.7488
G01 X47.4754 Y6.7904
G01 X47.4863 Y6.7959
G01 X47.4970 Y6.8019
G01 X47.5804 Y6.8519
G01 X47.5907 Y6.8585
G01 X47.6008 Y6.8655
G01 X47.6789 Y6.9235
G01 X47.6885 Y6.9310
G01 X47.6978 Y6.9390
G01 X47.7699 Y7.0043
G01 X47.7787 Y7.0128
G01 X47.7872 Y7.0217
G01 X47.8525 Y7.0937
G01 X47.8605 Y7.1030
G01 X47.8680 Y7.1126
G01 X47.9260 Y7.1907
G01 X47.9330 Y7.2008
G01 X47.9396 Y7.2111
G01 X47.9896 Y7.2945
G01 X47.9956 Y7.3052
G01 X48.0011 Y7.3161
G01 X48.0427 Y7.4040
G01 X48.0477 Y7.4152
G01 X48.0521 Y7.4267
G01 X48.0848 Y7.5182
G01 X48.0887 Y7.5299
G01 X48.0920 Y7.5417
G01 X48.1156 Y7.6360
G01 X48.1183 Y7.6480
G01 X48.1204 Y7.6601
G01 X48.1346 Y7.7562
G01 X48.1361 Y7.7684
G01 X48.1370 Y7.7806
G01 X48.1418 Y7.8777
G01 X48.1421 Y7.8900
G01 X48.1418 Y7.9023
G01 X48.1370 Y7.9994
G01 X48.1361 Y8.0116
G01 X48.1346 Y8.0238
G01 X48.1204 Y8.1199
G01 X48.1183 Y8.1320
G01 X48.1156 Y8.1440
G01 X48.0920 Y8.2383
G01 X48.0887 Y8.2501
G01 X48.0848 Y8.2618
G01 X48.0521 Y8.3533
G01 X48.0477 Y8.3648
G01 X48.0427 Y8.3760
G01 X48.0011 Y8.4639
G01 X47.9956 Y8.4748
G01 X47.9896 Y8.4855
G01 X47.9396 Y8.5689
G01 X47.9330 Y8.5792
G01 X47.9260 Y8.5893
G01 X47.8680 Y8.6674
G01 X47.8605 Y8.6770
G01 X47.8525 Y8.6863
G01 X47.7872 Y8.7583
G01 X47.7787 Y8.7672
G01 X47.7699 Y8.7757
G01 X47.6978 Y8.8410
G01 X47.6885 Y8.8490
G01 X47.6789 Y8.8565
G01 X47.6008 Y8.9145
G01 X47.5907 Y8.9215
G01 X47.5804 Y8.9281
G01 X47.4970 Y8.9781
G01 X47.4863 Y8.9841
G01 X47.4754 Y8.9896
G01 X47.3875 Y9.0312
G01 X47.3763 Y9.0362
G01 X47.3648 Y9.0406
G01 X47.2733 Y9.0733
G01 X47.2616 Y9.0772
G01 X47.2498 Y9.0805
G01 X47.1555 Y9.1041
G01 X47.1435 Y9.1068
G01 X47.1314 Y9.1089
G01 X47.0353 Y9.1231
G01 X47.0231 Y9.1246
G01 X47.0109 Y9.1255
G01 X46.9138 Y9.1303
G01 X46.9015 Y9.1306
G01 X46.8892 Y9.1303
G01 X46.7921 Y9.1255
G01 X46.7799 Y9.1246
G01 X46.7677 Y9.1231
G01 X46.6716 Y9.1089
G01 X46.6595 Y9.1068
G01 X46.6475 Y9.1041
G01 X46.5532 Y9.0805
G01 X46.5355 Y9.0753
G01 X46.4382 Y9.0406
G01 X46.4267 Y9.0362
G01 X46.4155 Y9.0312
G01 X46.3277 Y8.9896
G01 X46.3167 Y8.9841
G01 X46.3060 Y8.9781
G01 X46.2174 Y8.9249
G01 X46.2022 Y8.9145
G01 X46.1242 Y8.8565
G01 X46.1098 Y8.8450
G01 X46.0287 Y8.7715
G01 X46.0200 Y8.7628
G01 X45.9975 Y8.7382
G01 X45.9444 Y8.7458
G01 X45.9322 Y8.7467
G01 X45.8662 Y8.7498
G01 X45.4283 Y8.7499
G01 X45.4160 Y8.7496
G01 X45.3440 Y8.7458
G01 X45.3318 Y8.7443
G01 X45.2685 Y8.7348
G01 X45.2430 Y8.7628
G01 X45.2343 Y8.7715
G01 X45.1532 Y8.8450
G01 X45.1389 Y8.8565
G01 X45.0558 Y8.9180
G01 X45.0404 Y8.9281
G01 X44.9570 Y8.9781
G01 X44.9463 Y8.9841
G01 X44.9354 Y8.9896
G01 X44.8419 Y9.0337
G01 X44.8248 Y9.0406
G01 X44.7333 Y9.0733
G01 X44.7216 Y9.0772
G01 X44.7098 Y9.0805
G01 X44.6155 Y9.1041
G01 X44.6035 Y9.1068
G01 X44.5914 Y9.1089
G01 X44.4953 Y9.1231
G01 X44.4831 Y9.1246
G01 X44.4709 Y9.1255
G01 X44.3738 Y9.1303
G01 X44.3615 Y9.1306
G01 X44.3492 Y9.1303
G01 X44.2521 Y9.1255
G01 X44.2399 Y9.1246
G01 X44.2277 Y9.1231
G01 X44.1316 Y9.1089
G01 X44.1195 Y9.1068
G01 X44.1075 Y9.1041
G01 X44.0132 Y9.0805
G01 X44.0014 Y9.0772
G01 X43.9897 Y9.0733
G01 X43.8982 Y9.0406
G01 X43.8811 Y9.0337
G01 X43.7877 Y8.9896
G01 X43.7767 Y8.9841
G01 X43.7660 Y8.9781
G01 X43.6826 Y8.9281
G01 X43.6672 Y8.9180
G01 X43.5842 Y8.8565
G01 X43.5698 Y8.8450
G01 X43.4887 Y8.7715
G01 X43.4800 Y8.7628
G01 X43.4575 Y8.7382
G01 X43.4044 Y8.7458
G01 X43.3922 Y8.7467
G01 X43.3262 Y8.7498
G01 X42.8883 Y8.7499
G01 X42.8760 Y8.7496
G01 X42.8040 Y8.7458
G01 X42.7918 Y8.7443
G01 X42.7285 Y8.7348
G01 X42.6987 Y8.7672
G01 X42.6697 Y8.7940
G01 X42.6773 Y8.8471
G01 X42.6782 Y8.8594
G01 X42.6813 Y8.9253
G01 X42.6814 Y9.3632
G01 X42.6811 Y9.3755
G01 X42.6773 Y9.4475
G01 X42.6758 Y9.4597
G01 X42.6663 Y9.5230
G01 X42.6943 Y9.5485
G01 X42.7030 Y9.5572
G01 X42.7766 Y9.6383
G01 X42.7880 Y9.6526
G01 X42.8460 Y9.7307
G01 X42.8564 Y9.7459
G01 X42.9096 Y9.8345
G01 X42.9156 Y9.8452
G01 X42.9211 Y9.8561
G01 X42.9627 Y9.9440
G01 X42.9677 Y9.9552
G01 X42.9721 Y9.9667
G01 X43.0068 Y10.0640
G01 X43.0120 Y10.0817
G01 X43.0356 Y10.1760
G01 X43.0383 Y10.1880
G01 X43.0404 Y10.2001
G01 X43.0546 Y10.2962
G01 X43.0561 Y10.3084
G01 X43.0570 Y10.3206
G01 X43.0618 Y10.4177
G01 X43.0621 Y10.4300
G01 X43.0618 Y10.4423
G01 X43.0570 Y10.5394
G01 X43.0561 Y10.5516
G01 X43.0546 Y10.5638
G01 X43.0404 Y10.6599
G01 X43.0370 Y10.6780
G01 X43.0120 Y10.7783
G01 X43.0087 Y10.7901
G01 X43.0048 Y10.8018
G01 X42.9721 Y10.8933
G01 X42.9677 Y10.9048
G01 X42.9627 Y10.9160
G01 X42.9211 Y11.0039
G01 X42.9156 Y11.0148
G01 X42.9096 Y11.0255
G01 X42.8596 Y11.1089
G01 X42.8530 Y11.1192
G01 X42.8460 Y11.1293
G01 X42.7880 Y11.2074
G01 X42.7805 Y11.2170
G01 X42.7725 Y11.2263
G01 X42.7072 Y11.2983
G01 X42.6987 Y11.3072
G01 X42.6899 Y11.3157
G01 X42.6178 Y11.3810
G01 X42.6085 Y11.3890
G01 X42.5989 Y11.3965
G01 X42.5208 Y11.4545
G01 X42.5107 Y11.4615
G01 X42.5004 Y11.4681
G01 X42.4170 Y11.5181
G01 X42.4063 Y11.5241
G01 X42.3954 Y11.5296
G01 X42.3075 Y11.5712
G01 X42.2963 Y11.5762
G01 X42.2848 Y11.5806
G01 X42.1933 Y11.6133
G01 X42.1816 Y11.6172
G01 X42.1698 Y11.6205
G01 X42.0755 Y11.6441
G01 X42.0635 Y11.6468
G01 X42.0514 Y11.6489
G01 X41.9553 Y11.6631
G01 X41.9431 Y11.6646
G01 X41.9309 Y11.6655
G01 X41.8338 Y11.6703
G01 X41.8215 Y11.6706
G01 X41.8092 Y11.6703
G01 X41.7121 Y11.6655
G01 X41.6999 Y11.6646
G01 X41.6877 Y11.6631
G01 X41.5916 Y11.6489
G01 X41.5795 Y11.6468
G01 X41.5675 Y11.6441
G01 X41.4732 Y11.6205
G01 X41.4614 Y11.6172
G01 X41.4497 Y11.6133
G01 X41.3582 Y11.5806
G01 X41.3467 Y11.5762
G01 X41.3355 Y11.5712
G01 X41.2477 Y11.5296
G01 X41.2367 Y11.5241
G01 X41.2260 Y11.5181
G01 X41.1426 Y11.4681
G01 X41.1323 Y11.4615
G01 X41.1222 Y11.4545
G01 X41.0442 Y11.3965
G01 X41.0345 Y11.3890
G01 X41.0252 Y11.3810
G01 X40.9532 Y11.3157
G01 X40.9443 Y11.3072
G01 X40.9358 Y11.2983
G01 X40.8705 Y11.2263
G01 X40.8625 Y11.2170
G01 X40.8550 Y11.2074
G01 X40.7971 Y11.1293
G01 X40.7900 Y11.1192
G01 X40.7834 Y11.1089
G01 X40.7334 Y11.0255
G01 X40.7274 Y11.0148
G01 X40.7219 Y11.0039
G01 X40.6803 Y10.9160
G01 X40.6731 Y10.8991
G01 X40.6382 Y10.8018
G01 X40.6343 Y10.7901
G01 X40.6311 Y10.7783
G01 X40.6074 Y10.6840
G01 X40.6047 Y10.6720
G01 X40.6026 Y10.6599
G01 X40.5884 Y10.5638
G01 X40.5869 Y10.5516
G01 X40.5860 Y10.5394
G01 X40.5812 Y10.4423
G01 X40.5809 Y10.4300
G01 X40.5812 Y10.4177
G01 X40.5860 Y10.3206
G01 X40.5869 Y10.3084
G01 X40.5884 Y10.2962
G01 X40.6026 Y10.2001
G01 X40.6047 Y10.1880
G01 X40.6074 Y10.1760
G01 X40.6311 Y10.0817
G01 X40.6343 Y10.0699
G01 X40.6382 Y10.0582
G01 X40.6709 Y9.9667
G01 X40.6753 Y9.9552
G01 X40.6803 Y9.9440
G01 X40.7246 Y9.8506
G01 X40.7334 Y9.8345
G01 X40.7834 Y9.7511
G01 X40.7900 Y9.7408
G01 X40.7971 Y9.7307
G01 X40.8587 Y9.6478
G01 X40.8705 Y9.6337
G01 X40.9400 Y9.5572
G01 X40.9487 Y9.5485
G01 X40.9767 Y9.5230
G01 X40.9672 Y9.4597
G01 X40.9657 Y9.4475
G01 X40.9619 Y9.3755
G01 X40.9616 Y9.3632
G01 X40.9617 Y8.9253
G01 X40.9648 Y8.8594
G01 X40.9657 Y8.8471
G01 X40.9733 Y8.7940
G00 Z2.0000
G00 X40.5812 Y15.5223
G01 F60.00
G01 Z-0.3732
G01 F200.00
G01 X40.5809 Y15.5100
G01 X40.5812 Y15.4977
G01 X40.5860 Y15.4006
G01 X40.5869 Y15.3884
G01 X40.5884 Y15.3762
G01 X40.6026 Y15.2801
G01 X40.6047 Y15.2680
G01 X40.6074 Y15.2560
G01 X40.6311 Y15.1617
G01 X40.6343 Y15.1499
G01 X40.6382 Y15.1382
G01 X40.6709 Y15.0467
G01 X40.6753 Y15.0352
G01 X40.6803 Y15.0240
G01 X40.7219 Y14.9361
G01 X40.7274 Y14.9252
G01 X40.7334 Y14.9145
G01 X40.7834 Y14.8311
G01 X40.7900 Y14.8208
G01 X40.7971 Y14.8107
G01 X40.8550 Y14.7326
G01 X40.8625 Y14.7230
G01 X40.8705 Y14.7137
G01 X40.9358 Y14.6417
G01 X40.9443 Y14.6328
G01 X40.9532 Y14.6243
G01 X41.0252 Y14.5590
G01 X41.0345 Y14.5510
G01 X41.0442 Y14.5435
G01 X41.1222 Y14.4855
G01 X41.1323 Y14.4785
G01 X41.1426 Y14.4719
G01 X41.2260 Y14.4219
G01 X41.2367 Y14.4159
G01 X41.2477 Y14.4104
G01 X41.3355 Y14.3688
G01 X41.3467 Y14.3638
G01 X41.3582 Y14.3594
G01 X41.4497 Y14.3267
G01 X41.4614 Y14.3228
G01 X41.4732 Y14.3195
G01 X41.5675 Y14.2959
G01 X41.5795 Y14.2932
G01 X41.5916 Y14.2911
G01 X41.6877 Y14.2769
G01 X41.6999 Y14.2754
G01 X41.7121 Y14.2745
G01 X41.8092 Y14.2697
G01 X41.8215 Y14.2694
G01 X41.8338 Y14.2697
G01 X41.9309 Y14.2745
G01 X41.9431 Y14.2754
G01 X41.9553 Y14.2769
G01 X42.0514 Y14.2911
G01 X42.0635 Y14.2932
G01 X42.0755 Y14.2959
G01 X42.1698 Y14.3195
G01 X42.1816 Y14.3228
G01 X42.1933 Y14.3267
G01 X42.2848 Y14.3594
G01 X42.2963 Y14.3638
G01 X42.3075 Y14.3688
G01 X42.3954 Y14.4104
G01 X42.4063 Y14.4159
G01 X42.4170 Y14.4219
G01 X42.5004 Y14.4719
G01 X42.5107 Y14.4785
G01 X42.5208 Y14.4855
G01 X42.5989 Y14.5435
G01 X42.6085 Y14.5510
G01 X42.6178 Y14.5590
G01 X42.6899 Y14.6243
G01 X42.6987 Y14.6328
G01 X42.7072 Y14.6417
G01 X42.7725 Y14.7137
G01 X42.7805 Y14.7230
G01 X42.7880 Y14.7326
G01 X42.8460 Y14.8107
G01 X42.8530 Y14.8208
G01 X42.8596 Y14.8311
G01 X42.9096 Y14.9145
G01 X42.9156 Y14.9252
G01 X42.9211 Y14.9361
G01 X42.9627 Y15.0240
G01 X42.9677 Y15.0352
G01 X42.9721 Y15.0467
G01 X43.0048 Y15.1382
G01 X43.0087 Y15.1499
G01 X43.0120 Y15.1617
G01 X43.0356 Y15.2560
G01 X43.0383 Y15.2680
G01 X43.0404 Y15.2801
G01 X43.0546 Y15.3762
G01 X43.0561 Y15.3884
G01 X43.0570 Y15.4006
G01 X43.0618 Y15.4977
G01 X43.0621 Y15.5100
G01 X43.0618 Y15.5223
G01 X43.0570 Y15.6194
G01 X43.0561 Y15.6316
G01 X43.0546 Y15.6438
G01 X43.0404 Y15.7399
G01 X43.0383 Y15.7520
G01 X43.0356 Y15.7640
G01 X43.0120 Y15.8583
G01 X43.0087 Y15.8701
G01 X43.0048 Y15.8818
G01 X42.9721 Y15.9733
G01 X42.9677 Y15.9848
G01 X42.9627 Y15.9960
G01 X42.9211 Y16.0839
G01 X42.9156 Y16.0948
G01 X42.9096 Y16.1055
G01 X42.8596 Y16.1889
G01 X42.8530 Y16.1992
G01 X42.8460 Y16.2093
G01 X42.7880 Y16.2874
G01 X42.7805 Y16.2970
G01 X42.7725 Y16.3063
G01 X42.7072 Y16.3783
G01 X42.6987 Y16.3872
G01 X42.6899 Y16.3957
G01 X42.6178 Y16.4610
G01 X42.6085 Y16.4690
G01 X42.5989 Y16.4765
G01 X42.5208 Y16.5345
G01 X42.5107 Y16.5415
G01 X42.5004 Y16.5481
G01 X42.4170 Y16.5981
G01 X42.4063 Y16.6041
G01 X42.3954 Y16.6096
G01 X42.3075 Y16.6512
G01 X42.2963 Y16.6562
G01 X42.2848 Y16.6606
G01 X42.1933 Y16.6933
G01 X42.1816 Y16.6972
G01 X42.1698 Y16.7005
G01 X42.0755 Y16.7241
G01 X42.0635 Y16.7268
G01 X42.0514 Y16.7289
G01 X41.9553 Y16.7431
G01 X41.9431 Y16.7446
G01 X41.9309 Y16.7455
G01 X41.8338 Y16.7503
G01 X41.8215 Y16.7506
G01 X41.8092 Y16.7503
G01 X41.7121 Y16.7455
G01 X41.6999 Y16.7446
G01 X41.6877 Y16.7431
G01 X41.5916 Y16.7289
G01 X41.5795 Y16.7268
G01 X41.5675 Y16.7241
G01 X41.4732 Y16.7005
G01 X41.4614 Y16.6972
G01 X41.4497 Y16.6933
G01 X41.3582 Y16.6606
G01 X41.3467 Y16.6562
G01 X41.3355 Y16.6512
G01 X41.2477 Y16.6096
G01 X41.2367 Y16.6041
G01 X41.2260 Y16.5981
G01 X41.1426 Y16.5481
G01 X41.1323 Y16.5415
G01 X41.1222 Y16.5345
G01 X41.0442 Y16.4765
G01 X41.0345 Y16.4690
G01 X41.0252 Y16.4610
G01 X40.9532 Y16.3957
G01 X40.9443 Y16.3872
G01 X40.9358 Y16.3783
G01 X40.8705 Y16.3063
G01 X40.8625 Y16.2970
G01 X40.8550 Y16.2874
G01 X40.7971 Y16.2093
G01 X40.7900 Y16.1992
G01 X40.7834 Y16.1889
G01 X40.7334 Y16.1055
G01 X40.7274 Y16.0948
G01 X40.7219 Y16.0839
G01 X40.6803 Y15.9960
G01 X40.6753 Y15.9848
G01 X40.6709 Y15.9733
G01 X40.6382 Y15.8818
G01 X40.6343 Y15.8701
G01 X40.6311 Y15.8583
G01 X40.6074 Y15.7640
G01 X40.6047 Y15.7520
G01 X40.6026 Y15.7399
G01 X40.5884 Y15.6438
G01 X40.5869 Y15.6316
G01 X40.5860 Y15.6194
G01 X40.5812 Y15.5223
G00 Z2.0000
G00 X38.4333 Y16.4140
G01 F60.00
G01 Z-0.3732
G01 F200.00
G01 X38.4087 Y16.3915
G01 X38.4000 Y16.3828
G01 X38.3265 Y16.3017
G01 X38.3150 Y16.2874
G01 X38.2535 Y16.2043
G01 X38.2434 Y16.1889
G01 X38.1934 Y16.1055
G01 X38.1874 Y16.0948
G01 X38.1819 Y16.0839
G01 X38.1378 Y15.9904
G01 X38.1309 Y15.9733
G01 X38.0982 Y15.8818
G01 X38.0943 Y15.8701
G01 X38.0911 Y15.8583
G01 X38.0674 Y15.7640
G01 X38.0647 Y15.7520
G01 X38.0626 Y15.7399
G01 X38.0484 Y15.6438
G01 X38.0469 Y15.6316
G01 X38.0460 Y15.6194
G01 X38.0410 Y15.5161
G01 X38.0412 Y15.4977
G01 X38.0460 Y15.4006
G01 X38.0469 Y15.3884
G01 X38.0484 Y15.3762
G01 X38.0626 Y15.2801
G01 X38.0647 Y15.2680
G01 X38.0674 Y15.2560
G01 X38.0911 Y15.1617
G01 X38.0943 Y15.1499
G01 X38.0982 Y15.1382
G01 X38.1309 Y15.0467
G01 X38.1353 Y15.0352
G01 X38.1403 Y15.0240
G01 X38.1819 Y14.9361
G01 X38.1874 Y14.9252
G01 X38.1934 Y14.9145
G01 X38.2434 Y14.8311
G01 X38.2500 Y14.8208
G01 X38.2571 Y14.8107
G01 X38.3150 Y14.7326
G01 X38.3225 Y14.7230
G01 X38.3305 Y14.7137
G01 X38.4000 Y14.6372
G01 X38.4132 Y14.6243
G01 X38.4852 Y14.5590
G01 X38.4945 Y14.5510
G01 X38.5042 Y14.5435
G01 X38.5822 Y14.4855
G01 X38.5923 Y14.4785
G01 X38.6026 Y14.4719
G01 X38.6860 Y14.4219
G01 X38.6967 Y14.4159
G01 X38.7077 Y14.4104
G01 X38.7955 Y14.3688
G01 X38.8067 Y14.3638
G01 X38.8182 Y14.3594
G01 X38.9097 Y14.3267
G01 X38.9214 Y14.3228
G01 X38.9332 Y14.3195
G01 X39.0275 Y14.2959
G01 X39.0395 Y14.2932
G01 X39.0516 Y14.2911
G01 X39.1477 Y14.2769
G01 X39.1599 Y14.2754
G01 X39.1721 Y14.2745
G01 X39.2692 Y14.2697
G01 X39.2815 Y14.2694
G01 X39.2938 Y14.2697
G01 X39.3909 Y14.2745
G01 X39.4031 Y14.2754
G01 X39.4153 Y14.2769
G01 X39.5114 Y14.2911
G01 X39.5235 Y14.2932
G01 X39.5355 Y14.2959
G01 X39.6298 Y14.3195
G01 X39.6416 Y14.3228
G01 X39.6533 Y14.3267
G01 X39.7448 Y14.3594
G01 X39.7563 Y14.3638
G01 X39.7675 Y14.3688
G01 X39.8554 Y14.4104
G01 X39.8663 Y14.4159
G01 X39.8770 Y14.4219
G01 X39.9604 Y14.4719
G01 X39.9707 Y14.4785
G01 X39.9808 Y14.4855
G01 X40.0589 Y14.5435
G01 X40.0685 Y14.5510
G01 X40.0778 Y14.5590
G01 X40.1543 Y14.6285
G01 X40.1672 Y14.6417
G01 X40.2325 Y14.7137
G01 X40.2405 Y14.7230
G01 X40.2480 Y14.7326
G01 X40.3060 Y14.8107
G01 X40.3130 Y14.8208
G01 X40.3196 Y14.8311
G01 X40.3696 Y14.9145
G01 X40.3756 Y14.9252
G01 X40.3811 Y14.9361
G01 X40.4227 Y15.0240
G01 X40.4277 Y15.0352
G01 X40.4321 Y15.0467
G01 X40.4648 Y15.1382
G01 X40.4687 Y15.1499
G01 X40.4720 Y15.1617
G01 X40.4956 Y15.2560
G01 X40.4983 Y15.2680
G01 X40.5004 Y15.2801
G01 X40.5146 Y15.3762
G01 X40.5161 Y15.3884
G01 X40.5170 Y15.4006
G01 X40.5218 Y15.4977
G01 X40.5221 Y15.5100
G01 X40.5218 Y15.5223
G01 X40.5170 Y15.6194
G01 X40.5161 Y15.6316
G01 X40.5146 Y15.6438
G01 X40.5004 Y15.7399
G01 X40.4983 Y15.7520
G01 X40.4956 Y15.7640
G01 X40.4720 Y15.8583
G01 X40.4687 Y15.8701
G01 X40.4648 Y15.8818
G01 X40.4321 Y15.9733
G01 X40.4253 Y15.9904
G01 X40.3811 Y16.0839
G01 X40.3756 Y16.0948
G01 X40.3696 Y16.1055
G01 X40.3196 Y16.1889
G01 X40.3096 Y16.2043
G01 X40.2480 Y16.2874
G01 X40.2366 Y16.3017
G01 X40.1630 Y16.3828
G01 X40.1543 Y16.3915
G01 X40.1297 Y16.4140
G01 X40.1358 Y16.4549
G01 X40.1378 Y16.4732
G01 X40.1411 Y16.5391
G01 X40.1414 Y16.5514
G01 X40.1414 Y19.5232
G01 X40.1411 Y19.5355
G01 X40.1373 Y19.6075
G01 X40.1358 Y19.6197
G01 X40.1263 Y19.6830
G01 X40.1543 Y19.7085
G01 X40.1630 Y19.7172
G01 X40.2366 Y19.7983
G01 X40.2480 Y19.8126
G01 X40.3096 Y19.8957
G01 X40.3196 Y19.9111
G01 X40.3696 Y19.9945
G01 X40.3756 Y20.0052
G01 X40.3811 Y20.0161
G01 X40.4227 Y20.1040
G01 X40.4299 Y20.1209
G01 X40.4648 Y20.2182
G01 X40.4687 Y20.2299
G01 X40.4720 Y20.2417
G01 X40.4956 Y20.3360
G01 X40.4983 Y20.3480
G01 X40.5004 Y20.3601
G01 X40.5146 Y20.4562
G01 X40.5161 Y20.4684
G01 X40.5170 Y20.4806
G01 X40.5218 Y20.5777
G01 X40.5221 Y20.5900
G01 X40.5218 Y20.6023
G01 X40.5170 Y20.6994
G01 X40.5161 Y20.7116
G01 X40.5146 Y20.7238
G01 X40.5004 Y20.8199
G01 X40.4983 Y20.8320
G01 X40.4956 Y20.8440
G01 X40.4720 Y20.9383
G01 X40.4687 Y20.9501
G01 X40.4648 Y20.9618
G01 X40.4321 Y21.0533
G01 X40.4277 Y21.0648
G01 X40.4227 Y21.0760
G01 X40.3811 Y21.1639
G01 X40.3756 Y21.1748
G01 X40.3696 Y21.1855
G01 X40.3196 Y21.2689
G01 X40.3130 Y21.2792
G01 X40.3060 Y21.2893
G01 X40.2480 Y21.3674
G01 X40.2405 Y21.3770
G01 X40.2325 Y21.3863
G01 X40.1672 Y21.4583
G01 X40.1587 Y21.4672
G01 X40.1499 Y21.4757
G01 X40.0778 Y21.5410
G01 X40.0685 Y21.5490
G01 X40.0589 Y21.5565
G01 X39.9808 Y21.6145
G01 X39.9707 Y21.6215
G01 X39.9604 Y21.6281
G01 X39.8770 Y21.6781
G01 X39.8663 Y21.6841
G01 X39.8554 Y21.6896
G01 X39.7675 Y21.7312
G01 X39.7563 Y21.7362
G01 X39.7448 Y21.7406
G01 X39.6533 Y21.7733
G01 X39.6416 Y21.7772
G01 X39.6298 Y21.7805
G01 X39.5355 Y21.8041
G01 X39.5235 Y21.8068
G01 X39.5114 Y21.8089
G01 X39.4153 Y21.8231
G01 X39.4031 Y21.8246
G01 X39.3909 Y21.8255
G01 X39.2938 Y21.8303
G01 X39.2815 Y21.8306
G01 X39.2692 Y21.8303
G01 X39.1721 Y21.8255
G01 X39.1599 Y21.8246
G01 X39.1477 Y21.8231
G01 X39.0516 Y21.8089
G01 X39.0395 Y21.8068
G01 X39.0275 Y21.8041
G01 X38.9332 Y21.7805
G01 X38.9214 Y21.7772
G01 X38.9097 Y21.7733
G01 X38.8182 Y21.7406
G01 X38.8067 Y21.7362
G01 X38.7955 Y21.7312
G01 X38.7077 Y21.6896
G01 X38.6967 Y21.6841
G01 X38.6860 Y21.6781
G01 X38.6026 Y21.6281
G01 X38.5923 Y21.6215
G01 X38.5822 Y21.6145
G01 X38.5042 Y21.5565
G01 X38.4945 Y21.5490
G01 X38.4852 Y21.5410
G01 X38.4132 Y21.4757
G01 X38.4043 Y21.4672
G01 X38.3958 Y21.4583
G01 X38.3305 Y21.3863
G01 X38.3225 Y21.3770
G01 X38.3150 Y21.3674
G01 X38.2571 Y21.2893
G01 X38.2500 Y21.2792
G01 X38.2434 Y21.2689
G01 X38.1934 Y21.1855
G01 X38.1874 Y21.1748
G01 X38.1819 Y21.1639
G01 X38.1403 Y21.0760
G01 X38.1353 Y21.0648
G01 X38.1309 Y21.0533
G01 X38.0982 Y20.9618
G01 X38.0943 Y20.9501
G01 X38.0911 Y20.9383
G01 X38.0674 Y20.8440
G01 X38.0647 Y20.8320
G01 X38.0626 Y20.8199
G01 X38.0484 Y20.7238
G01 X38.0469 Y20.7116
G01 X38.0460 Y20.6994
G01 X38.0412 Y20.6023
G01 X38.0409 Y20.5900
G01 X38.0412 Y20.5777
G01 X38.0460 Y20.4806
G01 X38.0469 Y20.4684
G01 X38.0484 Y20.4562
G01 X38.0626 Y20.3601
G01 X38.0647 Y20.3480
G01 X38.0674 Y20.3360
G01 X38.0911 Y20.2417
G01 X38.0962 Y20.2240
G01 X38.1309 Y20.1267
G01 X38.1353 Y20.1152
G01 X38.1403 Y20.1040
G01 X38.1819 Y20.0161
G01 X38.1874 Y20.0052
G01 X38.1934 Y19.9945
G01 X38.2466 Y19.9059
G01 X38.2571 Y19.8907
G01 X38.3150 Y19.8126
G01 X38.3265 Y19.7983
G01 X38.4000 Y19.7172
G01 X38.4087 Y19.7085
G01 X38.4367 Y19.6830
G01 X38.4272 Y19.6197
G01 X38.4257 Y19.6075
G01 X38.4219 Y19.5355
G01 X38.4216 Y19.5232
G01 X38.4216 Y16.5514
G01 X38.4219 Y16.5391
G01 X38.4252 Y16.4732
G01 X38.4272 Y16.4549
G01 X38.4333 Y16.4140
G00 Z2.0000
G00 X40.5812 Y20.6023
G01 F60.00
G01 Z-0.3732
G01 F200.00
G01 X40.5809 Y20.5900
G01 X40.5812 Y20.5777
G01 X40.5860 Y20.4806
G01 X40.5869 Y20.4684
G01 X40.5884 Y20.4562
G01 X40.6026 Y20.3601
G01 X40.6047 Y20.3480
G01 X40.6074 Y20.3360
G01 X40.6311 Y20.2417
G01 X40.6343 Y20.2299
G01 X40.6382 Y20.2182
G01 X40.6709 Y20.1267
G01 X40.6753 Y20.1152
G01 X40.6803 Y20.1040
G01 X40.7219 Y20.0161
G01 X40.7274 Y20.0052
G01 X40.7334 Y19.9945
G01 X40.7834 Y19.9111
G01 X40.7900 Y19.9008
G01 X40.7971 Y19.8907
G01 X40.8550 Y19.8126
G01 X40.8625 Y19.8030
G01 X40.8705 Y19.7937
G01 X40.9358 Y19.7217
G01 X40.9443 Y19.7128
G01 X40.9532 Y19.7043
G01 X41.0252 Y19.6390
G01 X41.0345 Y19.6310
G01 X41.0442 Y19.6235
G01 X41.1222 Y19.5655
G01 X41.1323 Y19.5585
G01 X41.1426 Y19.5519
G01 X41.2260 Y19.5019
G01 X41.2367 Y19.4959
G01 X41.2477 Y19.4904
G01 X41.3355 Y19.4488
G01 X41.3467 Y19.4438
G01 X41.3582 Y19.4394
G01 X41.4497 Y19.4067
G01 X41.4614 Y19.4028
G01 X41.4732 Y19.3995
G01 X41.5675 Y19.3759
G01 X41.5795 Y19.3732
G01 X41.5916 Y19.3711
G01 X41.6877 Y19.3569
G01 X41.6999 Y19.3554
G01 X41.7121 Y19.3545
G01 X41.8092 Y19.3497
G01 X41.8215 Y19.3494
G01 X41.8338 Y19.3497
G01 X41.9309 Y19.3545
G01 X41.9431 Y19.3554
G01 X41.9553 Y19.3569
G01 X42.0514 Y19.3711
G01 X42.0635 Y19.3732
G01 X42.0755 Y19.3759
G01 X42.1698 Y19.3995
G01 X42.1816 Y19.4028
G01 X42.1933 Y19.4067
G01 X42.2848 Y19.4394
G01 X42.2963 Y19.4438
G01 X42.3075 Y19.4488
G01 X42.3954 Y19.4904
G01 X42.4063 Y19.4959
G01 X42.4170 Y19.5019
G01 X42.5004 Y19.5519
G01 X42.5107 Y19.5585
G01 X42.5208 Y19.5655
G01 X42.5989 Y19.6235
G01 X42.6085 Y19.6310
G01 X42.6178 Y19.6390
G01 X42.6899 Y19.7043
G01 X42.6987 Y19.7128
G01 X42.7072 Y19.7217
G01 X42.7725 Y19.7937
G01 X42.7805 Y19.8030
