(G-CODE GENERATED BY FLATCAM v8.994 - www.flatcam.org - Version Date: 2020/11/7)

(Name: AD2CheckWSw3018x1_drill.txt_cnc)
(Type: G-code from Geometry)
(Units: MM)

(Created on Thursday, 05 August 2021 at 17:09)

(This preprocessor is the default preprocessor used by FlatCAM.)
(It is made to work with MACH3 compatible motion controllers.)


(TOOLS DIAMETER: )
(Tool: 1 -> Dia: 0.9652)
(Tool: 2 -> Dia: 0.8999982)

(FEEDRATE Z: )
(Tool: 1 -> Feedrate: 300)
(Tool: 2 -> Feedrate: 300)

(FEEDRATE RAPIDS: )
(Tool: 1 -> Feedrate Rapids: 1500)
(Tool: 2 -> Feedrate Rapids: 1500)

(Z_CUT: )
(Tool: 1 -> Z_Cut: -2.0)
(Tool: 2 -> Z_Cut: -2.0)

(Tools Offset: )
(Tool: 1 -> Offset Z: 0.0)
(Tool: 2 -> Offset Z: 0.0)

(Z_MOVE: )
(Tool: 1 -> Z_Move: 2)
(Tool: 2 -> Z_Move: 2)

(Z Toolchange: 15 mm)
(X,Y Toolchange: 0.0000, 0.0000 mm)
(Z Start: None mm)
(Z End: 0.5 mm)
(X,Y End: None mm)
(Steps per circle: 64)
(Preprocessor Excellon: default)

(X range:    8.6894 ...   47.7220  mm)
(Y range:    7.3947 ...   21.0599  mm)

(Spindle Speed: 0 RPM)
G21
G90
G94

G01 F300.00

M5
G00 Z15.0000
T1
G00 X0.0000 Y0.0000                
M6
(MSG, Change to Tool Dia = 0.9652 ||| Total drills for tool T1 = 43)
M0
G00 Z15.0000

G01 F300.00
M03
G00 X11.6794 Y7.8773
G01 Z-2.0000
G01 Z0
G00 Z2.0000
G00 X14.2194 Y7.8773
G01 Z-2.0000
G01 Z0
G00 Z2.0000
G00 X16.7594 Y7.8773
G01 Z-2.0000
G01 Z0
G00 Z2.0000
G00 X19.2994 Y7.8773
G01 Z-2.0000
G01 Z0
G00 Z2.0000
G00 X21.8394 Y7.8773
G01 Z-2.0000
G01 Z0
G00 Z2.0000
G00 X24.3794 Y7.8773
G01 Z-2.0000
G01 Z0
G00 Z2.0000
G00 X26.9194 Y7.8773
G01 Z-2.0000
G01 Z0
G00 Z2.0000
G00 X29.4594 Y7.8773
G01 Z-2.0000
G01 Z0
G00 Z2.0000
G00 X31.9994 Y7.8773
G01 Z-2.0000
G01 Z0
G00 Z2.0000
G00 X34.5394 Y7.8773
G01 Z-2.0000
G01 Z0
G00 Z2.0000
G00 X37.0794 Y7.8773
G01 Z-2.0000
G01 Z0
G00 Z2.0000
G00 X39.6194 Y7.8773
G01 Z-2.0000
G01 Z0
G00 Z2.0000
G00 X42.1594 Y7.8773
G01 Z-2.0000
G01 Z0
G00 Z2.0000
G00 X44.6994 Y7.8773
G01 Z-2.0000
G01 Z0
G00 Z2.0000
G00 X47.2394 Y7.8773
G01 Z-2.0000
G01 Z0
G00 Z2.0000
G00 X47.2394 Y10.4173
G01 Z-2.0000
G01 Z0
G00 Z2.0000
G00 X44.6994 Y10.4173
G01 Z-2.0000
G01 Z0
G00 Z2.0000
G00 X42.1594 Y10.4173
G01 Z-2.0000
G01 Z0
G00 Z2.0000
G00 X39.6194 Y10.4173
G01 Z-2.0000
G01 Z0
G00 Z2.0000
G00 X42.1594 Y15.4973
G01 Z-2.0000
G01 Z0
G00 Z2.0000
G00 X44.6994 Y15.4973
G01 Z-2.0000
G01 Z0
G00 Z2.0000
G00 X44.6994 Y20.5773
G01 Z-2.0000
G01 Z0
G00 Z2.0000
G00 X42.1594 Y20.5773
G01 Z-2.0000
G01 Z0
G00 Z2.0000
G00 X39.6194 Y20.5773
G01 Z-2.0000
G01 Z0
G00 Z2.0000
G00 X39.6194 Y15.4973
G01 Z-2.0000
G01 Z0
G00 Z2.0000
G00 X37.0794 Y10.4173
G01 Z-2.0000
G01 Z0
G00 Z2.0000
G00 X34.5394 Y10.4173
G01 Z-2.0000
G01 Z0
G00 Z2.0000
G00 X31.9994 Y10.4173
G01 Z-2.0000
G01 Z0
G00 Z2.0000
G00 X29.4594 Y10.4173
G01 Z-2.0000
G01 Z0
G00 Z2.0000
G00 X26.9194 Y10.4173
G01 Z-2.0000
G01 Z0
G00 Z2.0000
G00 X24.3794 Y10.4173
G01 Z-2.0000
G01 Z0
G00 Z2.0000
G00 X21.8394 Y10.4173
G01 Z-2.0000
G01 Z0
G00 Z2.0000
G00 X19.2994 Y10.4173
G01 Z-2.0000
G01 Z0
G00 Z2.0000
G00 X19.2994 Y15.4973
G01 Z-2.0000
G01 Z0
G00 Z2.0000
G00 X19.2994 Y20.5773
G01 Z-2.0000
G01 Z0
G00 Z2.0000
G00 X16.7594 Y20.5773
G01 Z-2.0000
G01 Z0
G00 Z2.0000
G00 X14.2194 Y20.5773
G01 Z-2.0000
G01 Z0
G00 Z2.0000
G00 X9.1394 Y18.0373
G01 Z-2.0000
G01 Z0
G00 Z2.0000
G00 X14.2194 Y15.4973
G01 Z-2.0000
G01 Z0
G00 Z2.0000
G00 X16.7594 Y15.4973
G01 Z-2.0000
G01 Z0
G00 Z2.0000
G00 X16.7594 Y10.4173
G01 Z-2.0000
G01 Z0
G00 Z2.0000
G00 X14.2194 Y10.4173
G01 Z-2.0000
G01 Z0
G00 Z2.0000
G00 X11.6794 Y10.4173
G01 Z-2.0000
G01 Z0
G00 Z2.0000
M05
G00 Z0.50


