(G-CODE GENERATED BY FLATCAM v8.994 - www.flatcam.org - Version Date: 2020/11/7)

(Name: AD2CheckWSw3018x1_copperTop.gtl_iso_combined_cnc)
(Type: G-code from Geometry)
(Units: MM)

(Created on Thursday, 05 August 2021 at 12:24)

(This preprocessor is the default preprocessor used by FlatCAM.)
(It is made to work with MACH3 compatible motion controllers.)

(TOOL DIAMETER: 0.5 mm)
(Feedrate_XY: 200.0 mm/min)
(Feedrate_Z: 60.0 mm/min)
(Feedrate rapids 1500.0 mm/min)

(Z_Cut: -0.1866 mm)
(Z_Move: 2.0 mm)
(Z Start: None mm)
(Z End: 15.0 mm)
(X,Y End: None mm)
(Steps per circle: 64)
(Preprocessor Geometry: default)

(X range:    7.9416 ...   48.4902  mm)
(Y range:    4.4647 ...   23.9899  mm)

(Spindle Speed: 0.0 RPM)
G21
G90
G94

G01 F200.00

M5
G00 Z15.0000
G00 X0.0000 Y0.0000
T1
M6    
(MSG, Change to Tool Dia = 0.5000)
M0
G00 Z15.0000

M03
G01 F200.00
G00 X8.2900 Y5.3123
G01 F60.00
G01 Z-0.1866
G01 F200.00
G01 X8.2938 Y5.2403
G01 X8.2953 Y5.2281
G01 X8.3062 Y5.1568
G01 X8.3235 Y5.0868
G01 X8.3267 Y5.0750
G01 X8.3306 Y5.0633
G01 X8.3552 Y4.9955
G01 X8.3601 Y4.9843
G01 X8.3912 Y4.9192
G01 X8.4281 Y4.8572
G01 X8.4346 Y4.8469
G01 X8.4773 Y4.7888
G01 X8.4849 Y4.7791
G01 X8.4929 Y4.7698
G01 X8.5416 Y4.7166
G01 X8.5948 Y4.6679
G01 X8.6041 Y4.6599
G01 X8.6138 Y4.6523
G01 X8.6719 Y4.6096
G01 X8.6822 Y4.6031
G01 X8.7442 Y4.5662
G01 X8.8093 Y4.5351
G01 X8.8205 Y4.5302
G01 X8.8320 Y4.5257
G01 X8.9000 Y4.5017
G01 X8.9118 Y4.4985
G01 X8.9818 Y4.4812
G01 X8.9939 Y4.4791
G01 X9.0653 Y4.4688
G01 X9.1373 Y4.4650
G01 X9.1496 Y4.4647
G01 X21.8557 Y4.4648
G01 X21.9216 Y4.4679
G01 X21.9339 Y4.4688
G01 X21.9461 Y4.4703
G01 X22.0174 Y4.4812
G01 X22.0874 Y4.4985
G01 X22.0992 Y4.5017
G01 X22.1109 Y4.5056
G01 X22.1787 Y4.5302
G01 X22.1899 Y4.5351
G01 X22.2550 Y4.5662
G01 X22.3170 Y4.6031
G01 X22.3273 Y4.6096
G01 X22.3854 Y4.6523
G01 X22.3951 Y4.6599
G01 X22.4044 Y4.6679
G01 X22.4533 Y4.7123
G01 X22.4661 Y4.7254
G01 X22.5143 Y4.7791
G01 X22.5575 Y4.8368
G01 X22.5646 Y4.8469
G01 X22.5711 Y4.8572
G01 X22.6050 Y4.9139
G01 X22.6135 Y4.9302
G01 X22.6440 Y4.9955
G01 X22.6485 Y5.0070
G01 X22.6725 Y5.0750
G01 X22.6757 Y5.0868
G01 X22.6930 Y5.1568
G01 X22.6951 Y5.1689
G01 X22.7054 Y5.2403
G01 X22.7063 Y5.2526
G01 X22.7095 Y5.3246
G01 X22.7095 Y6.8232
G01 X22.7092 Y6.8355
G01 X22.7054 Y6.9075
G01 X22.7039 Y6.9197
G01 X22.6944 Y6.9830
G01 X22.7224 Y7.0085
G01 X22.7311 Y7.0172
G01 X22.8046 Y7.0983
G01 X22.8161 Y7.1126
G01 X22.8776 Y7.1957
G01 X22.8877 Y7.2111
G01 X22.9377 Y7.2945
G01 X22.9437 Y7.3052
G01 X22.9492 Y7.3161
G01 X22.9908 Y7.4040
G01 X22.9980 Y7.4209
G01 X23.0329 Y7.5182
G01 X23.0368 Y7.5299
G01 X23.0401 Y7.5417
G01 X23.0637 Y7.6360
G01 X23.0664 Y7.6480
G01 X23.0685 Y7.6601
G01 X23.0827 Y7.7562
G01 X23.0842 Y7.7684
G01 X23.0851 Y7.7806
G01 X23.0899 Y7.8777
G01 X23.0902 Y7.8900
G01 X23.0899 Y7.9023
G01 X23.0851 Y7.9994
G01 X23.0842 Y8.0116
G01 X23.0827 Y8.0238
G01 X23.0685 Y8.1199
G01 X23.0664 Y8.1320
G01 X23.0637 Y8.1440
G01 X23.0401 Y8.2383
G01 X23.0368 Y8.2501
G01 X23.0329 Y8.2618
G01 X23.0002 Y8.3533
G01 X22.9958 Y8.3648
G01 X22.9908 Y8.3760
G01 X22.9492 Y8.4639
G01 X22.9437 Y8.4748
G01 X22.9377 Y8.4855
G01 X22.8877 Y8.5689
G01 X22.8811 Y8.5792
G01 X22.8741 Y8.5893
G01 X22.8161 Y8.6674
G01 X22.8086 Y8.6770
G01 X22.8006 Y8.6863
G01 X22.7353 Y8.7583
G01 X22.7268 Y8.7672
G01 X22.7179 Y8.7757
G01 X22.6459 Y8.8410
G01 X22.6366 Y8.8490
G01 X22.6270 Y8.8565
G01 X22.5489 Y8.9145
G01 X22.5388 Y8.9215
G01 X22.5285 Y8.9281
G01 X22.4451 Y8.9781
G01 X22.4344 Y8.9841
G01 X22.4235 Y8.9896
G01 X22.3356 Y9.0312
G01 X22.3244 Y9.0362
G01 X22.3129 Y9.0406
G01 X22.2214 Y9.0733
G01 X22.2097 Y9.0772
G01 X22.1979 Y9.0805
G01 X22.1036 Y9.1041
G01 X22.0916 Y9.1068
G01 X22.0795 Y9.1089
G01 X21.9773 Y9.1239
G01 X21.9590 Y9.1255
G01 X21.8619 Y9.1303
G01 X21.8496 Y9.1306
G01 X21.8373 Y9.1303
G01 X21.7402 Y9.1255
G01 X21.7280 Y9.1246
G01 X21.7158 Y9.1231
G01 X21.6197 Y9.1089
G01 X21.6076 Y9.1068
G01 X21.5956 Y9.1041
G01 X21.5013 Y9.0805
G01 X21.4895 Y9.0772
G01 X21.4778 Y9.0733
G01 X21.3863 Y9.0406
G01 X21.3748 Y9.0362
G01 X21.3636 Y9.0312
G01 X21.2757 Y8.9896
G01 X21.2648 Y8.9841
G01 X21.2541 Y8.9781
G01 X21.1707 Y8.9281
G01 X21.1604 Y8.9215
G01 X21.1503 Y8.9145
G01 X21.0722 Y8.8565
G01 X21.0626 Y8.8490
G01 X21.0533 Y8.8410
G01 X20.9813 Y8.7757
G01 X20.9724 Y8.7672
G01 X20.9639 Y8.7583
G01 X20.8986 Y8.6863
G01 X20.8906 Y8.6770
G01 X20.8831 Y8.6674
G01 X20.8251 Y8.5893
G01 X20.8181 Y8.5792
G01 X20.8115 Y8.5689
G01 X20.7615 Y8.4855
G01 X20.7555 Y8.4748
G01 X20.7500 Y8.4639
G01 X20.7084 Y8.3760
G01 X20.7034 Y8.3648
G01 X20.6990 Y8.3533
G01 X20.6643 Y8.2560
G01 X20.6591 Y8.2383
G01 X20.6355 Y8.1440
G01 X20.6328 Y8.1320
G01 X20.6307 Y8.1199
G01 X20.6165 Y8.0238
G01 X20.6150 Y8.0116
G01 X20.6141 Y7.9994
G01 X20.6093 Y7.9023
G01 X20.6090 Y7.8900
G01 X20.6093 Y7.8777
G01 X20.6141 Y7.7806
G01 X20.6150 Y7.7684
G01 X20.6165 Y7.7562
G01 X20.6307 Y7.6601
G01 X20.6328 Y7.6480
G01 X20.6355 Y7.6360
G01 X20.6607 Y7.5358
G01 X20.6663 Y7.5182
G01 X20.6990 Y7.4267
G01 X20.7034 Y7.4152
G01 X20.7084 Y7.4040
G01 X20.7500 Y7.3161
G01 X20.7555 Y7.3052
G01 X20.7615 Y7.2945
G01 X20.8147 Y7.2059
G01 X20.8251 Y7.1907
G01 X20.8831 Y7.1126
G01 X20.8946 Y7.0983
G01 X20.9681 Y7.0172
G01 X20.9768 Y7.0085
G01 X21.0048 Y6.9830
G01 X20.9953 Y6.9197
G01 X20.9938 Y6.9075
G01 X20.9929 Y6.8952
G01 X20.9898 Y6.8293
G01 X20.9897 Y6.1845
G01 X10.0095 Y6.1845
G01 X10.0095 Y12.0847
G01 X19.2842 Y12.0847
G01 X19.2965 Y12.0850
G01 X19.3685 Y12.0888
G01 X19.3807 Y12.0903
G01 X19.4520 Y12.1012
G01 X19.5220 Y12.1185
G01 X19.5338 Y12.1217
G01 X19.5455 Y12.1256
G01 X19.6133 Y12.1502
G01 X19.6245 Y12.1551
G01 X19.6896 Y12.1862
G01 X19.7516 Y12.2231
G01 X19.7619 Y12.2296
G01 X19.7720 Y12.2367
G01 X19.8249 Y12.2761
G01 X19.8390 Y12.2879
G01 X19.8922 Y12.3366
G01 X19.9409 Y12.3898
G01 X19.9489 Y12.3991
G01 X19.9565 Y12.4088
G01 X19.9992 Y12.4669
G01 X20.0057 Y12.4772
G01 X20.0426 Y12.5392
G01 X20.0737 Y12.6043
G01 X20.0786 Y12.6155
G01 X20.1032 Y12.6833
G01 X20.1088 Y12.7009
G01 X20.1249 Y12.7649
G01 X20.1276 Y12.7768
G01 X20.1385 Y12.8481
G01 X20.1405 Y12.8664
G01 X20.1440 Y12.9385
G01 X20.1441 Y14.4432
G01 X20.1438 Y14.4555
G01 X20.1400 Y14.5275
G01 X20.1321 Y14.5827
G01 X20.1779 Y14.6243
G01 X20.1911 Y14.6372
G01 X20.2606 Y14.7137
G01 X20.2724 Y14.7278
G01 X20.3341 Y14.8107
G01 X20.3411 Y14.8208
G01 X20.3477 Y14.8311
G01 X20.3977 Y14.9145
G01 X20.4065 Y14.9306
G01 X20.4508 Y15.0240
G01 X20.4558 Y15.0352
G01 X20.4602 Y15.0467
G01 X20.4929 Y15.1382
G01 X20.4968 Y15.1499
G01 X20.5001 Y15.1617
G01 X20.5237 Y15.2560
G01 X20.5264 Y15.2680
G01 X20.5285 Y15.2801
G01 X20.5427 Y15.3762
G01 X20.5442 Y15.3884
G01 X20.5451 Y15.4006
G01 X20.5499 Y15.4977
G01 X20.5502 Y15.5100
G01 X20.5499 Y15.5223
G01 X20.5451 Y15.6194
G01 X20.5442 Y15.6316
G01 X20.5427 Y15.6438
G01 X20.5285 Y15.7399
G01 X20.5264 Y15.7520
G01 X20.5237 Y15.7640
G01 X20.5001 Y15.8583
G01 X20.4968 Y15.8701
G01 X20.4929 Y15.8818
G01 X20.4602 Y15.9733
G01 X20.4558 Y15.9848
G01 X20.4508 Y15.9960
G01 X20.4092 Y16.0839
G01 X20.4037 Y16.0948
G01 X20.3977 Y16.1055
G01 X20.3477 Y16.1889
G01 X20.3411 Y16.1992
G01 X20.3341 Y16.2093
G01 X20.2761 Y16.2874
G01 X20.2686 Y16.2970
G01 X20.2606 Y16.3063
G01 X20.1911 Y16.3828
G01 X20.1779 Y16.3957
G01 X20.1059 Y16.4610
G01 X20.0966 Y16.4690
G01 X20.0870 Y16.4765
G01 X20.0089 Y16.5345
G01 X19.9988 Y16.5415
G01 X19.9885 Y16.5481
G01 X19.9051 Y16.5981
G01 X19.8944 Y16.6041
G01 X19.8835 Y16.6096
G01 X19.7956 Y16.6512
G01 X19.7844 Y16.6562
G01 X19.7729 Y16.6606
G01 X19.6814 Y16.6933
G01 X19.6697 Y16.6972
G01 X19.6579 Y16.7005
G01 X19.5636 Y16.7241
G01 X19.5516 Y16.7268
G01 X19.5395 Y16.7289
G01 X19.4434 Y16.7431
G01 X19.4312 Y16.7446
G01 X19.4190 Y16.7455
G01 X19.3219 Y16.7503
G01 X19.3096 Y16.7506
G01 X19.2973 Y16.7503
G01 X19.2002 Y16.7455
G01 X19.1880 Y16.7446
G01 X19.1758 Y16.7431
G01 X19.0797 Y16.7289
G01 X19.0676 Y16.7268
G01 X19.0556 Y16.7241
G01 X18.9613 Y16.7005
G01 X18.9495 Y16.6972
G01 X18.9378 Y16.6933
G01 X18.8463 Y16.6606
G01 X18.8348 Y16.6562
G01 X18.8236 Y16.6512
G01 X18.7357 Y16.6096
G01 X18.7248 Y16.6041
G01 X18.7141 Y16.5981
G01 X18.6307 Y16.5481
G01 X18.6204 Y16.5415
G01 X18.6103 Y16.5345
G01 X18.5322 Y16.4765
G01 X18.5226 Y16.4690
G01 X18.5133 Y16.4610
G01 X18.4413 Y16.3957
G01 X18.4324 Y16.3872
G01 X18.4239 Y16.3783
G01 X18.3586 Y16.3063
G01 X18.3506 Y16.2970
G01 X18.3431 Y16.2874
G01 X18.2851 Y16.2093
G01 X18.2781 Y16.1992
G01 X18.2715 Y16.1889
G01 X18.2215 Y16.1055
G01 X18.2155 Y16.0948
G01 X18.2100 Y16.0839
G01 X18.1684 Y15.9960
G01 X18.1634 Y15.9848
G01 X18.1590 Y15.9733
G01 X18.1263 Y15.8818
G01 X18.1224 Y15.8701
G01 X18.1191 Y15.8583
G01 X18.0955 Y15.7640
G01 X18.0928 Y15.7520
G01 X18.0907 Y15.7399
G01 X18.0765 Y15.6438
G01 X18.0750 Y15.6316
G01 X18.0741 Y15.6194
G01 X18.0693 Y15.5223
G01 X18.0690 Y15.5100
G01 X18.0693 Y15.4977
G01 X18.0741 Y15.4006
G01 X18.0750 Y15.3884
G01 X18.0765 Y15.3762
G01 X18.0907 Y15.2801
G01 X18.0928 Y15.2680
G01 X18.0955 Y15.2560
G01 X18.1191 Y15.1617
G01 X18.1224 Y15.1499
G01 X18.1263 Y15.1382
G01 X18.1590 Y15.0467
G01 X18.1634 Y15.0352
G01 X18.1684 Y15.0240
G01 X18.2100 Y14.9361
G01 X18.2155 Y14.9252
G01 X18.2215 Y14.9145
G01 X18.2715 Y14.8311
G01 X18.2781 Y14.8208
G01 X18.2851 Y14.8107
G01 X18.3431 Y14.7326
G01 X18.3506 Y14.7230
G01 X18.3586 Y14.7137
G01 X18.4239 Y14.6417
G01 X18.4324 Y14.6328
G01 X18.4434 Y14.6224
G01 X18.4408 Y14.6110
G01 X18.4387 Y14.5989
G01 X18.4284 Y14.5275
G01 X18.4275 Y14.5152
G01 X18.4244 Y14.4493
G01 X18.4243 Y13.8045
G01 X9.1435 Y13.8044
G01 X9.0776 Y13.8013
G01 X9.0653 Y13.8004
G01 X9.0531 Y13.7989
G01 X8.9818 Y13.7880
G01 X8.9118 Y13.7707
G01 X8.9000 Y13.7675
G01 X8.8883 Y13.7636
G01 X8.8205 Y13.7390
G01 X8.8093 Y13.7341
G01 X8.7442 Y13.7030
G01 X8.6822 Y13.6661
G01 X8.6719 Y13.6596
G01 X8.6138 Y13.6169
G01 X8.6041 Y13.6093
G01 X8.5948 Y13.6013
G01 X8.5459 Y13.5569
G01 X8.5331 Y13.5438
G01 X8.4849 Y13.4901
G01 X8.4773 Y13.4804
G01 X8.4346 Y13.4223
G01 X8.4281 Y13.4120
G01 X8.3912 Y13.3500
G01 X8.3601 Y13.2849
G01 X8.3552 Y13.2737
G01 X8.3507 Y13.2622
G01 X8.3267 Y13.1942
G01 X8.3235 Y13.1824
G01 X8.3062 Y13.1124
G01 X8.3041 Y13.1003
G01 X8.2938 Y13.0289
G01 X8.2929 Y13.0166
G01 X8.2898 Y12.9507
G01 X8.2897 Y5.3246
G01 X8.2900 Y5.3123
G00 Z2.0000
G00 X12.9299 Y7.9023
G01 F60.00
G01 Z-0.1866
G01 F200.00
G01 X12.9251 Y7.9994
G01 X12.9242 Y8.0116
G01 X12.9227 Y8.0238
G01 X12.9085 Y8.1199
G01 X12.9064 Y8.1320
G01 X12.9037 Y8.1440
G01 X12.8801 Y8.2383
G01 X12.8768 Y8.2501
G01 X12.8729 Y8.2618
G01 X12.8402 Y8.3533
G01 X12.8358 Y8.3648
G01 X12.8308 Y8.3760
G01 X12.7892 Y8.4639
G01 X12.7837 Y8.4748
G01 X12.7777 Y8.4855
G01 X12.7277 Y8.5689
G01 X12.7211 Y8.5792
G01 X12.7141 Y8.5893
G01 X12.6561 Y8.6674
G01 X12.6486 Y8.6770
G01 X12.6406 Y8.6863
G01 X12.5753 Y8.7583
G01 X12.5668 Y8.7672
G01 X12.5579 Y8.7757
G01 X12.4859 Y8.8410
G01 X12.4766 Y8.8490
G01 X12.4670 Y8.8565
G01 X12.3889 Y8.9145
G01 X12.3788 Y8.9215
G01 X12.3685 Y8.9281
G01 X12.2851 Y8.9781
G01 X12.2744 Y8.9841
G01 X12.2635 Y8.9896
G01 X12.1756 Y9.0312
G01 X12.1644 Y9.0362
G01 X12.1529 Y9.0406
G01 X12.0614 Y9.0733
G01 X12.0497 Y9.0772
G01 X12.0379 Y9.0805
G01 X11.9436 Y9.1041
G01 X11.9316 Y9.1068
G01 X11.9195 Y9.1089
G01 X11.8234 Y9.1231
G01 X11.8112 Y9.1246
G01 X11.7990 Y9.1255
G01 X11.7019 Y9.1303
G01 X11.6896 Y9.1306
G01 X11.6773 Y9.1303
G01 X11.5802 Y9.1255
G01 X11.5680 Y9.1246
G01 X11.5558 Y9.1231
G01 X11.4597 Y9.1089
G01 X11.4476 Y9.1068
G01 X11.4356 Y9.1041
G01 X11.3413 Y9.0805
G01 X11.3295 Y9.0772
G01 X11.3178 Y9.0733
G01 X11.2263 Y9.0406
G01 X11.2148 Y9.0362
G01 X11.2036 Y9.0312
G01 X11.1157 Y8.9896
G01 X11.1048 Y8.9841
G01 X11.0941 Y8.9781
G01 X11.0107 Y8.9281
G01 X11.0004 Y8.9215
G01 X10.9903 Y8.9145
G01 X10.9122 Y8.8565
G01 X10.9026 Y8.8490
G01 X10.8933 Y8.8410
G01 X10.8213 Y8.7757
G01 X10.8124 Y8.7672
G01 X10.8039 Y8.7583
G01 X10.7386 Y8.6863
G01 X10.7306 Y8.6770
G01 X10.7231 Y8.6674
G01 X10.6651 Y8.5893
G01 X10.6581 Y8.5792
G01 X10.6515 Y8.5689
G01 X10.6015 Y8.4855
G01 X10.5955 Y8.4748
G01 X10.5900 Y8.4639
G01 X10.5484 Y8.3760
G01 X10.5434 Y8.3648
G01 X10.5390 Y8.3533
G01 X10.5063 Y8.2618
G01 X10.5024 Y8.2501
G01 X10.4991 Y8.2383
G01 X10.4755 Y8.1440
G01 X10.4728 Y8.1320
G01 X10.4707 Y8.1199
G01 X10.4565 Y8.0238
G01 X10.4550 Y8.0116
G01 X10.4541 Y7.9994
G01 X10.4493 Y7.9023
G01 X10.4490 Y7.8900
G01 X10.4493 Y7.8777
G01 X10.4541 Y7.7806
G01 X10.4550 Y7.7684
G01 X10.4565 Y7.7562
G01 X10.4707 Y7.6601
G01 X10.4728 Y7.6480
G01 X10.4755 Y7.6360
G01 X10.4991 Y7.5417
G01 X10.5024 Y7.5299
G01 X10.5063 Y7.5182
G01 X10.5390 Y7.4267
G01 X10.5434 Y7.4152
G01 X10.5484 Y7.4040
G01 X10.5900 Y7.3161
G01 X10.5955 Y7.3052
G01 X10.6015 Y7.2945
G01 X10.6515 Y7.2111
G01 X10.6581 Y7.2008
G01 X10.6651 Y7.1907
G01 X10.7231 Y7.1126
G01 X10.7306 Y7.1030
G01 X10.7386 Y7.0937
G01 X10.8039 Y7.0217
G01 X10.8124 Y7.0128
G01 X10.8213 Y7.0043
G01 X10.8933 Y6.9390
G01 X10.9026 Y6.9310
G01 X10.9122 Y6.9235
G01 X10.9903 Y6.8655
G01 X11.0004 Y6.8585
G01 X11.0107 Y6.8519
G01 X11.0941 Y6.8019
G01 X11.1048 Y6.7959
G01 X11.1157 Y6.7904
G01 X11.2036 Y6.7488
G01 X11.2148 Y6.7438
G01 X11.2263 Y6.7394
G01 X11.3178 Y6.7067
G01 X11.3295 Y6.7028
G01 X11.3413 Y6.6995
G01 X11.4356 Y6.6759
G01 X11.4476 Y6.6732
G01 X11.4597 Y6.6711
G01 X11.5558 Y6.6569
G01 X11.5680 Y6.6554
G01 X11.5802 Y6.6545
G01 X11.6773 Y6.6497
G01 X11.6896 Y6.6494
G01 X11.7019 Y6.6497
G01 X11.7990 Y6.6545
G01 X11.8112 Y6.6554
G01 X11.8234 Y6.6569
G01 X11.9195 Y6.6711
G01 X11.9316 Y6.6732
G01 X11.9436 Y6.6759
G01 X12.0379 Y6.6995
G01 X12.0497 Y6.7028
G01 X12.0614 Y6.7067
G01 X12.1529 Y6.7394
G01 X12.1644 Y6.7438
G01 X12.1756 Y6.7488
G01 X12.2635 Y6.7904
G01 X12.2744 Y6.7959
G01 X12.2851 Y6.8019
G01 X12.3685 Y6.8519
G01 X12.3788 Y6.8585
G01 X12.3889 Y6.8655
G01 X12.4670 Y6.9235
G01 X12.4766 Y6.9310
G01 X12.4859 Y6.9390
G01 X12.5579 Y7.0043
G01 X12.5668 Y7.0128
G01 X12.5753 Y7.0217
G01 X12.6406 Y7.0937
G01 X12.6486 Y7.1030
G01 X12.6561 Y7.1126
G01 X12.7141 Y7.1907
G01 X12.7211 Y7.2008
G01 X12.7277 Y7.2111
G01 X12.7777 Y7.2945
G01 X12.7837 Y7.3052
G01 X12.7892 Y7.3161
G01 X12.8308 Y7.4040
G01 X12.8358 Y7.4152
G01 X12.8402 Y7.4267
G01 X12.8729 Y7.5182
G01 X12.8768 Y7.5299
G01 X12.8801 Y7.5417
G01 X12.9037 Y7.6360
G01 X12.9064 Y7.6480
G01 X12.9085 Y7.6601
G01 X12.9227 Y7.7562
G01 X12.9242 Y7.7684
G01 X12.9251 Y7.7806
G01 X12.9299 Y7.8777
G01 X12.9302 Y7.8900
G01 X12.9299 Y7.9023
G00 Z2.0000
G00 X12.9299 Y10.4423
G01 F60.00
G01 Z-0.1866
G01 F200.00
G01 X12.9251 Y10.5394
G01 X12.9242 Y10.5516
G01 X12.9227 Y10.5638
G01 X12.9085 Y10.6599
G01 X12.9064 Y10.6720
G01 X12.9037 Y10.6840
G01 X12.8801 Y10.7783
G01 X12.8768 Y10.7901
G01 X12.8729 Y10.8018
G01 X12.8402 Y10.8933
G01 X12.8358 Y10.9048
G01 X12.8308 Y10.9160
G01 X12.7892 Y11.0039
G01 X12.7837 Y11.0148
G01 X12.7777 Y11.0255
G01 X12.7277 Y11.1089
G01 X12.7211 Y11.1192
G01 X12.7141 Y11.1293
G01 X12.6561 Y11.2074
G01 X12.6486 Y11.2170
G01 X12.6406 Y11.2263
G01 X12.5753 Y11.2983
G01 X12.5668 Y11.3072
G01 X12.5579 Y11.3157
G01 X12.4859 Y11.3810
G01 X12.4766 Y11.3890
G01 X12.4670 Y11.3965
G01 X12.3889 Y11.4545
G01 X12.3788 Y11.4615
G01 X12.3685 Y11.4681
G01 X12.2851 Y11.5181
G01 X12.2744 Y11.5241
G01 X12.2635 Y11.5296
G01 X12.1756 Y11.5712
G01 X12.1644 Y11.5762
G01 X12.1529 Y11.5806
G01 X12.0614 Y11.6133
G01 X12.0497 Y11.6172
G01 X12.0379 Y11.6205
G01 X11.9436 Y11.6441
G01 X11.9316 Y11.6468
G01 X11.9195 Y11.6489
G01 X11.8234 Y11.6631
G01 X11.8112 Y11.6646
G01 X11.7990 Y11.6655
G01 X11.7019 Y11.6703
G01 X11.6896 Y11.6706
G01 X11.6773 Y11.6703
G01 X11.5802 Y11.6655
G01 X11.5680 Y11.6646
G01 X11.5558 Y11.6631
G01 X11.4597 Y11.6489
G01 X11.4476 Y11.6468
G01 X11.4356 Y11.6441
G01 X11.3413 Y11.6205
G01 X11.3295 Y11.6172
G01 X11.3178 Y11.6133
G01 X11.2263 Y11.5806
G01 X11.2148 Y11.5762
G01 X11.2036 Y11.5712
G01 X11.1157 Y11.5296
G01 X11.1048 Y11.5241
G01 X11.0941 Y11.5181
G01 X11.0107 Y11.4681
G01 X11.0004 Y11.4615
G01 X10.9903 Y11.4545
G01 X10.9122 Y11.3965
G01 X10.9026 Y11.3890
G01 X10.8933 Y11.3810
G01 X10.8213 Y11.3157
G01 X10.8124 Y11.3072
G01 X10.8039 Y11.2983
G01 X10.7386 Y11.2263
G01 X10.7306 Y11.2170
G01 X10.7231 Y11.2074
G01 X10.6651 Y11.1293
G01 X10.6581 Y11.1192
G01 X10.6515 Y11.1089
G01 X10.6015 Y11.0255
G01 X10.5955 Y11.0148
G01 X10.5900 Y11.0039
G01 X10.5484 Y10.9160
G01 X10.5434 Y10.9048
G01 X10.5390 Y10.8933
G01 X10.5063 Y10.8018
G01 X10.5024 Y10.7901
G01 X10.4991 Y10.7783
G01 X10.4755 Y10.6840
G01 X10.4728 Y10.6720
G01 X10.4707 Y10.6599
G01 X10.4565 Y10.5638
G01 X10.4550 Y10.5516
G01 X10.4541 Y10.5394
G01 X10.4493 Y10.4423
G01 X10.4490 Y10.4300
G01 X10.4493 Y10.4177
G01 X10.4541 Y10.3206
G01 X10.4550 Y10.3084
G01 X10.4565 Y10.2962
G01 X10.4707 Y10.2001
G01 X10.4728 Y10.1880
G01 X10.4755 Y10.1760
G01 X10.4991 Y10.0817
G01 X10.5024 Y10.0699
G01 X10.5063 Y10.0582
G01 X10.5390 Y9.9667
G01 X10.5434 Y9.9552
G01 X10.5484 Y9.9440
G01 X10.5900 Y9.8561
G01 X10.5955 Y9.8452
G01 X10.6015 Y9.8345
G01 X10.6515 Y9.7511
G01 X10.6581 Y9.7408
G01 X10.6651 Y9.7307
G01 X10.7231 Y9.6526
G01 X10.7306 Y9.6430
G01 X10.7386 Y9.6337
G01 X10.8039 Y9.5617
G01 X10.8124 Y9.5528
G01 X10.8213 Y9.5443
G01 X10.8933 Y9.4790
G01 X10.9026 Y9.4710
G01 X10.9122 Y9.4635
G01 X10.9903 Y9.4055
G01 X11.0004 Y9.3985
G01 X11.0107 Y9.3919
G01 X11.0941 Y9.3419
G01 X11.1048 Y9.3359
G01 X11.1157 Y9.3304
G01 X11.2036 Y9.2888
G01 X11.2148 Y9.2838
G01 X11.2263 Y9.2794
G01 X11.3178 Y9.2467
G01 X11.3295 Y9.2428
G01 X11.3413 Y9.2395
G01 X11.4356 Y9.2159
G01 X11.4476 Y9.2132
G01 X11.4597 Y9.2111
G01 X11.5558 Y9.1969
G01 X11.5680 Y9.1954
G01 X11.5802 Y9.1945
G01 X11.6773 Y9.1897
G01 X11.6896 Y9.1894
G01 X11.7019 Y9.1897
G01 X11.7990 Y9.1945
G01 X11.8112 Y9.1954
G01 X11.8234 Y9.1969
G01 X11.9195 Y9.2111
G01 X11.9316 Y9.2132
G01 X11.9436 Y9.2159
G01 X12.0379 Y9.2395
G01 X12.0497 Y9.2428
G01 X12.0614 Y9.2467
G01 X12.1529 Y9.2794
G01 X12.1644 Y9.2838
G01 X12.1756 Y9.2888
G01 X12.2635 Y9.3304
G01 X12.2744 Y9.3359
G01 X12.2851 Y9.3419
G01 X12.3685 Y9.3919
G01 X12.3788 Y9.3985
G01 X12.3889 Y9.4055
G01 X12.4670 Y9.4635
G01 X12.4766 Y9.4710
G01 X12.4859 Y9.4790
G01 X12.5579 Y9.5443
G01 X12.5668 Y9.5528
G01 X12.5753 Y9.5617
G01 X12.6406 Y9.6337
G01 X12.6486 Y9.6430
G01 X12.6561 Y9.6526
G01 X12.7141 Y9.7307
G01 X12.7211 Y9.7408
G01 X12.7277 Y9.7511
G01 X12.7777 Y9.8345
G01 X12.7837 Y9.8452
G01 X12.7892 Y9.8561
G01 X12.8308 Y9.9440
G01 X12.8358 Y9.9552
G01 X12.8402 Y9.9667
G01 X12.8729 Y10.0582
G01 X12.8768 Y10.0699
G01 X12.8801 Y10.0817
G01 X12.9037 Y10.1760
G01 X12.9064 Y10.1880
G01 X12.9085 Y10.2001
G01 X12.9227 Y10.2962
G01 X12.9242 Y10.3084
G01 X12.9251 Y10.3206
G01 X12.9299 Y10.4177
G01 X12.9302 Y10.4300
G01 X12.9299 Y10.4423
G00 Z2.0000
G00 X15.4699 Y10.4423
G01 F60.00
G01 Z-0.1866
G01 F200.00
G01 X15.4651 Y10.5394
G01 X15.4642 Y10.5516
G01 X15.4627 Y10.5638
G01 X15.4485 Y10.6599
G01 X15.4464 Y10.6720
G01 X15.4437 Y10.6840
G01 X15.4201 Y10.7783
G01 X15.4168 Y10.7901
G01 X15.4129 Y10.8018
G01 X15.3802 Y10.8933
G01 X15.3758 Y10.9048
G01 X15.3708 Y10.9160
G01 X15.3292 Y11.0039
G01 X15.3237 Y11.0148
G01 X15.3177 Y11.0255
G01 X15.2677 Y11.1089
G01 X15.2611 Y11.1192
G01 X15.2541 Y11.1293
G01 X15.1961 Y11.2074
G01 X15.1886 Y11.2170
G01 X15.1806 Y11.2263
G01 X15.1153 Y11.2983
G01 X15.1068 Y11.3072
G01 X15.0979 Y11.3157
G01 X15.0259 Y11.3810
G01 X15.0166 Y11.3890
G01 X15.0070 Y11.3965
G01 X14.9289 Y11.4545
G01 X14.9188 Y11.4615
G01 X14.9085 Y11.4681
G01 X14.8251 Y11.5181
G01 X14.8144 Y11.5241
G01 X14.8035 Y11.5296
G01 X14.7156 Y11.5712
G01 X14.7044 Y11.5762
G01 X14.6929 Y11.5806
G01 X14.6014 Y11.6133
G01 X14.5897 Y11.6172
G01 X14.5779 Y11.6205
G01 X14.4836 Y11.6441
G01 X14.4716 Y11.6468
G01 X14.4595 Y11.6489
G01 X14.3634 Y11.6631
G01 X14.3512 Y11.6646
G01 X14.3390 Y11.6655
G01 X14.2419 Y11.6703
G01 X14.2296 Y11.6706
G01 X14.2173 Y11.6703
G01 X14.1202 Y11.6655
G01 X14.1080 Y11.6646
G01 X14.0958 Y11.6631
G01 X13.9997 Y11.6489
G01 X13.9876 Y11.6468
G01 X13.9756 Y11.6441
G01 X13.8813 Y11.6205
G01 X13.8695 Y11.6172
G01 X13.8578 Y11.6133
G01 X13.7663 Y11.5806
G01 X13.7548 Y11.5762
G01 X13.7436 Y11.5712
G01 X13.6557 Y11.5296
G01 X13.6448 Y11.5241
G01 X13.6341 Y11.5181
G01 X13.5507 Y11.4681
G01 X13.5404 Y11.4615
G01 X13.5303 Y11.4545
G01 X13.4522 Y11.3965
G01 X13.4426 Y11.3890
G01 X13.4333 Y11.3810
G01 X13.3613 Y11.3157
G01 X13.3524 Y11.3072
G01 X13.3439 Y11.2983
G01 X13.2786 Y11.2263
G01 X13.2706 Y11.2170
G01 X13.2631 Y11.2074
G01 X13.2051 Y11.1293
G01 X13.1981 Y11.1192
G01 X13.1915 Y11.1089
G01 X13.1415 Y11.0255
G01 X13.1355 Y11.0148
G01 X13.1300 Y11.0039
G01 X13.0884 Y10.9160
G01 X13.0834 Y10.9048
G01 X13.0790 Y10.8933
G01 X13.0463 Y10.8018
G01 X13.0424 Y10.7901
G01 X13.0391 Y10.7783
G01 X13.0155 Y10.6840
G01 X13.0128 Y10.6720
G01 X13.0107 Y10.6599
G01 X12.9965 Y10.5638
G01 X12.9950 Y10.5516
G01 X12.9941 Y10.5394
G01 X12.9893 Y10.4423
G01 X12.9890 Y10.4300
G01 X12.9893 Y10.4177
G01 X12.9941 Y10.3206
G01 X12.9950 Y10.3084
G01 X12.9965 Y10.2962
G01 X13.0107 Y10.2001
G01 X13.0128 Y10.1880
G01 X13.0155 Y10.1760
G01 X13.0391 Y10.0817
G01 X13.0424 Y10.0699
G01 X13.0463 Y10.0582
G01 X13.0790 Y9.9667
G01 X13.0834 Y9.9552
G01 X13.0884 Y9.9440
G01 X13.1300 Y9.8561
G01 X13.1355 Y9.8452
G01 X13.1415 Y9.8345
G01 X13.1915 Y9.7511
G01 X13.1981 Y9.7408
G01 X13.2051 Y9.7307
G01 X13.2631 Y9.6526
G01 X13.2706 Y9.6430
G01 X13.2786 Y9.6337
G01 X13.3439 Y9.5617
G01 X13.3524 Y9.5528
G01 X13.3613 Y9.5443
G01 X13.4333 Y9.4790
G01 X13.4426 Y9.4710
G01 X13.4522 Y9.4635
G01 X13.5303 Y9.4055
G01 X13.5404 Y9.3985
G01 X13.5507 Y9.3919
G01 X13.6341 Y9.3419
G01 X13.6448 Y9.3359
G01 X13.6557 Y9.3304
G01 X13.7436 Y9.2888
G01 X13.7548 Y9.2838
G01 X13.7663 Y9.2794
G01 X13.8578 Y9.2467
G01 X13.8695 Y9.2428
G01 X13.8813 Y9.2395
G01 X13.9756 Y9.2159
G01 X13.9876 Y9.2132
G01 X13.9997 Y9.2111
G01 X14.0958 Y9.1969
G01 X14.1080 Y9.1954
G01 X14.1202 Y9.1945
G01 X14.2173 Y9.1897
G01 X14.2296 Y9.1894
G01 X14.2419 Y9.1897
G01 X14.3390 Y9.1945
G01 X14.3512 Y9.1954
G01 X14.3634 Y9.1969
G01 X14.4595 Y9.2111
G01 X14.4716 Y9.2132
G01 X14.4836 Y9.2159
G01 X14.5779 Y9.2395
G01 X14.5897 Y9.2428
G01 X14.6014 Y9.2467
G01 X14.6929 Y9.2794
G01 X14.7044 Y9.2838
G01 X14.7156 Y9.2888
G01 X14.8035 Y9.3304
G01 X14.8144 Y9.3359
G01 X14.8251 Y9.3419
G01 X14.9085 Y9.3919
G01 X14.9188 Y9.3985
G01 X14.9289 Y9.4055
G01 X15.0070 Y9.4635
G01 X15.0166 Y9.4710
G01 X15.0259 Y9.4790
G01 X15.0979 Y9.5443
G01 X15.1068 Y9.5528
G01 X15.1153 Y9.5617
G01 X15.1806 Y9.6337
G01 X15.1886 Y9.6430
G01 X15.1961 Y9.6526
G01 X15.2541 Y9.7307
G01 X15.2611 Y9.7408
G01 X15.2677 Y9.7511
G01 X15.3177 Y9.8345
G01 X15.3237 Y9.8452
G01 X15.3292 Y9.8561
G01 X15.3708 Y9.9440
G01 X15.3758 Y9.9552
G01 X15.3802 Y9.9667
G01 X15.4129 Y10.0582
G01 X15.4168 Y10.0699
G01 X15.4201 Y10.0817
G01 X15.4437 Y10.1760
G01 X15.4464 Y10.1880
G01 X15.4485 Y10.2001
G01 X15.4627 Y10.2962
G01 X15.4642 Y10.3084
G01 X15.4651 Y10.3206
G01 X15.4699 Y10.4177
G01 X15.4702 Y10.4300
G01 X15.4699 Y10.4423
G00 Z2.0000
G00 X15.4699 Y7.9023
G01 F60.00
G01 Z-0.1866
G01 F200.00
G01 X15.4651 Y7.9994
G01 X15.4642 Y8.0116
G01 X15.4627 Y8.0238
G01 X15.4485 Y8.1199
G01 X15.4464 Y8.1320
G01 X15.4437 Y8.1440
G01 X15.4201 Y8.2383
G01 X15.4168 Y8.2501
G01 X15.4129 Y8.2618
G01 X15.3802 Y8.3533
G01 X15.3758 Y8.3648
G01 X15.3708 Y8.3760
G01 X15.3292 Y8.4639
G01 X15.3237 Y8.4748
G01 X15.3177 Y8.4855
G01 X15.2677 Y8.5689
G01 X15.2611 Y8.5792
G01 X15.2541 Y8.5893
G01 X15.1961 Y8.6674
G01 X15.1886 Y8.6770
G01 X15.1806 Y8.6863
G01 X15.1153 Y8.7583
G01 X15.1068 Y8.7672
G01 X15.0979 Y8.7757
G01 X15.0259 Y8.8410
G01 X15.0166 Y8.8490
G01 X15.0070 Y8.8565
G01 X14.9289 Y8.9145
G01 X14.9188 Y8.9215
G01 X14.9085 Y8.9281
G01 X14.8251 Y8.9781
G01 X14.8144 Y8.9841
G01 X14.8035 Y8.9896
G01 X14.7156 Y9.0312
G01 X14.7044 Y9.0362
G01 X14.6929 Y9.0406
G01 X14.6014 Y9.0733
G01 X14.5897 Y9.0772
G01 X14.5779 Y9.0805
G01 X14.4836 Y9.1041
G01 X14.4716 Y9.1068
G01 X14.4595 Y9.1089
G01 X14.3634 Y9.1231
G01 X14.3512 Y9.1246
G01 X14.3390 Y9.1255
G01 X14.2419 Y9.1303
G01 X14.2296 Y9.1306
G01 X14.2173 Y9.1303
G01 X14.1202 Y9.1255
G01 X14.1080 Y9.1246
G01 X14.0958 Y9.1231
G01 X13.9997 Y9.1089
G01 X13.9876 Y9.1068
G01 X13.9756 Y9.1041
G01 X13.8813 Y9.0805
G01 X13.8695 Y9.0772
G01 X13.8578 Y9.0733
G01 X13.7663 Y9.0406
G01 X13.7548 Y9.0362
G01 X13.7436 Y9.0312
G01 X13.6557 Y8.9896
G01 X13.6448 Y8.9841
G01 X13.6341 Y8.9781
G01 X13.5507 Y8.9281
G01 X13.5404 Y8.9215
G01 X13.5303 Y8.9145
G01 X13.4522 Y8.8565
G01 X13.4426 Y8.8490
G01 X13.4333 Y8.8410
G01 X13.3613 Y8.7757
G01 X13.3524 Y8.7672
G01 X13.3439 Y8.7583
G01 X13.2786 Y8.6863
G01 X13.2706 Y8.6770
G01 X13.2631 Y8.6674
G01 X13.2051 Y8.5893
G01 X13.1981 Y8.5792
G01 X13.1915 Y8.5689
G01 X13.1415 Y8.4855
G01 X13.1355 Y8.4748
G01 X13.1300 Y8.4639
G01 X13.0884 Y8.3760
G01 X13.0834 Y8.3648
G01 X13.0790 Y8.3533
G01 X13.0463 Y8.2618
G01 X13.0424 Y8.2501
G01 X13.0391 Y8.2383
G01 X13.0155 Y8.1440
G01 X13.0128 Y8.1320
G01 X13.0107 Y8.1199
G01 X12.9965 Y8.0238
G01 X12.9950 Y8.0116
G01 X12.9941 Y7.9994
G01 X12.9893 Y7.9023
G01 X12.9890 Y7.8900
G01 X12.9893 Y7.8777
G01 X12.9941 Y7.7806
G01 X12.9950 Y7.7684
G01 X12.9965 Y7.7562
G01 X13.0107 Y7.6601
G01 X13.0128 Y7.6480
G01 X13.0155 Y7.6360
G01 X13.0391 Y7.5417
G01 X13.0424 Y7.5299
G01 X13.0463 Y7.5182
G01 X13.0790 Y7.4267
G01 X13.0834 Y7.4152
G01 X13.0884 Y7.4040
G01 X13.1300 Y7.3161
G01 X13.1355 Y7.3052
G01 X13.1415 Y7.2945
G01 X13.1915 Y7.2111
G01 X13.1981 Y7.2008
G01 X13.2051 Y7.1907
G01 X13.2631 Y7.1126
G01 X13.2706 Y7.1030
G01 X13.2786 Y7.0937
G01 X13.3439 Y7.0217
G01 X13.3524 Y7.0128
G01 X13.3613 Y7.0043
G01 X13.4333 Y6.9390
G01 X13.4426 Y6.9310
G01 X13.4522 Y6.9235
G01 X13.5303 Y6.8655
G01 X13.5404 Y6.8585
G01 X13.5507 Y6.8519
G01 X13.6341 Y6.8019
G01 X13.6448 Y6.7959
G01 X13.6557 Y6.7904
G01 X13.7436 Y6.7488
G01 X13.7548 Y6.7438
G01 X13.7663 Y6.7394
G01 X13.8578 Y6.7067
G01 X13.8695 Y6.7028
G01 X13.8813 Y6.6995
G01 X13.9756 Y6.6759
G01 X13.9876 Y6.6732
G01 X13.9997 Y6.6711
G01 X14.0958 Y6.6569
G01 X14.1080 Y6.6554
G01 X14.1202 Y6.6545
G01 X14.2173 Y6.6497
G01 X14.2296 Y6.6494
G01 X14.2419 Y6.6497
G01 X14.3390 Y6.6545
G01 X14.3512 Y6.6554
G01 X14.3634 Y6.6569
G01 X14.4595 Y6.6711
G01 X14.4716 Y6.6732
G01 X14.4836 Y6.6759
G01 X14.5779 Y6.6995
G01 X14.5897 Y6.7028
G01 X14.6014 Y6.7067
G01 X14.6929 Y6.7394
G01 X14.7044 Y6.7438
G01 X14.7156 Y6.7488
G01 X14.8035 Y6.7904
G01 X14.8144 Y6.7959
G01 X14.8251 Y6.8019
G01 X14.9085 Y6.8519
G01 X14.9188 Y6.8585
G01 X14.9289 Y6.8655
G01 X15.0070 Y6.9235
G01 X15.0166 Y6.9310
G01 X15.0259 Y6.9390
G01 X15.0979 Y7.0043
G01 X15.1068 Y7.0128
G01 X15.1153 Y7.0217
G01 X15.1806 Y7.0937
G01 X15.1886 Y7.1030
G01 X15.1961 Y7.1126
G01 X15.2541 Y7.1907
G01 X15.2611 Y7.2008
G01 X15.2677 Y7.2111
G01 X15.3177 Y7.2945
G01 X15.3237 Y7.3052
G01 X15.3292 Y7.3161
G01 X15.3708 Y7.4040
G01 X15.3758 Y7.4152
G01 X15.3802 Y7.4267
G01 X15.4129 Y7.5182
G01 X15.4168 Y7.5299
G01 X15.4201 Y7.5417
G01 X15.4437 Y7.6360
G01 X15.4464 Y7.6480
G01 X15.4485 Y7.6601
G01 X15.4627 Y7.7562
G01 X15.4642 Y7.7684
G01 X15.4651 Y7.7806
G01 X15.4699 Y7.8777
G01 X15.4702 Y7.8900
G01 X15.4699 Y7.9023
G00 Z2.0000
G00 X18.0099 Y7.9023
G01 F60.00
G01 Z-0.1866
G01 F200.00
G01 X18.0051 Y7.9994
G01 X18.0042 Y8.0116
G01 X18.0027 Y8.0238
G01 X17.9885 Y8.1199
G01 X17.9864 Y8.1320
G01 X17.9837 Y8.1440
G01 X17.9601 Y8.2383
G01 X17.9568 Y8.2501
G01 X17.9529 Y8.2618
G01 X17.9202 Y8.3533
G01 X17.9158 Y8.3648
G01 X17.9108 Y8.3760
G01 X17.8692 Y8.4639
G01 X17.8637 Y8.4748
G01 X17.8577 Y8.4855
G01 X17.8077 Y8.5689
G01 X17.8011 Y8.5792
G01 X17.7941 Y8.5893
G01 X17.7361 Y8.6674
G01 X17.7286 Y8.6770
G01 X17.7206 Y8.6863
G01 X17.6553 Y8.7583
G01 X17.6468 Y8.7672
G01 X17.6379 Y8.7757
G01 X17.5659 Y8.8410
G01 X17.5566 Y8.8490
G01 X17.5470 Y8.8565
G01 X17.4689 Y8.9145
G01 X17.4588 Y8.9215
G01 X17.4485 Y8.9281
G01 X17.3651 Y8.9781
G01 X17.3544 Y8.9841
G01 X17.3435 Y8.9896
G01 X17.2556 Y9.0312
G01 X17.2444 Y9.0362
G01 X17.2329 Y9.0406
G01 X17.1414 Y9.0733
G01 X17.1297 Y9.0772
G01 X17.1179 Y9.0805
G01 X17.0236 Y9.1041
G01 X17.0116 Y9.1068
G01 X16.9995 Y9.1089
G01 X16.9034 Y9.1231
G01 X16.8912 Y9.1246
G01 X16.8790 Y9.1255
G01 X16.7819 Y9.1303
G01 X16.7696 Y9.1306
G01 X16.7573 Y9.1303
G01 X16.6602 Y9.1255
G01 X16.6480 Y9.1246
G01 X16.6358 Y9.1231
G01 X16.5397 Y9.1089
G01 X16.5276 Y9.1068
G01 X16.5156 Y9.1041
G01 X16.4213 Y9.0805
G01 X16.4095 Y9.0772
G01 X16.3978 Y9.0733
G01 X16.3063 Y9.0406
G01 X16.2948 Y9.0362
G01 X16.2836 Y9.0312
G01 X16.1957 Y8.9896
G01 X16.1848 Y8.9841
G01 X16.1741 Y8.9781
G01 X16.0907 Y8.9281
G01 X16.0804 Y8.9215
G01 X16.0703 Y8.9145
G01 X15.9922 Y8.8565
G01 X15.9826 Y8.8490
G01 X15.9733 Y8.8410
G01 X15.9013 Y8.7757
G01 X15.8924 Y8.7672
G01 X15.8839 Y8.7583
G01 X15.8186 Y8.6863
G01 X15.8106 Y8.6770
G01 X15.8031 Y8.6674
G01 X15.7451 Y8.5893
G01 X15.7381 Y8.5792
G01 X15.7315 Y8.5689
G01 X15.6815 Y8.4855
G01 X15.6755 Y8.4748
G01 X15.6700 Y8.4639
G01 X15.6284 Y8.3760
G01 X15.6234 Y8.3648
G01 X15.6190 Y8.3533
G01 X15.5863 Y8.2618
G01 X15.5824 Y8.2501
G01 X15.5791 Y8.2383
G01 X15.5555 Y8.1440
G01 X15.5528 Y8.1320
G01 X15.5507 Y8.1199
G01 X15.5365 Y8.0238
G01 X15.5350 Y8.0116
G01 X15.5341 Y7.9994
G01 X15.5293 Y7.9023
G01 X15.5290 Y7.8900
G01 X15.5293 Y7.8777
G01 X15.5341 Y7.7806
G01 X15.5350 Y7.7684
G01 X15.5365 Y7.7562
G01 X15.5507 Y7.6601
G01 X15.5528 Y7.6480
G01 X15.5555 Y7.6360
G01 X15.5791 Y7.5417
G01 X15.5824 Y7.5299
G01 X15.5863 Y7.5182
G01 X15.6190 Y7.4267
G01 X15.6234 Y7.4152
G01 X15.6284 Y7.4040
G01 X15.6700 Y7.3161
G01 X15.6755 Y7.3052
G01 X15.6815 Y7.2945
G01 X15.7315 Y7.2111
G01 X15.7381 Y7.2008
G01 X15.7451 Y7.1907
G01 X15.8031 Y7.1126
G01 X15.8106 Y7.1030
G01 X15.8186 Y7.0937
G01 X15.8839 Y7.0217
G01 X15.8924 Y7.0128
G01 X15.9013 Y7.0043
G01 X15.9733 Y6.9390
G01 X15.9826 Y6.9310
G01 X15.9922 Y6.9235
G01 X16.0703 Y6.8655
G01 X16.0804 Y6.8585
G01 X16.0907 Y6.8519
G01 X16.1741 Y6.8019
G01 X16.1848 Y6.7959
G01 X16.1957 Y6.7904
G01 X16.2836 Y6.7488
G01 X16.2948 Y6.7438
G01 X16.3063 Y6.7394
G01 X16.3978 Y6.7067
G01 X16.4095 Y6.7028
G01 X16.4213 Y6.6995
G01 X16.5156 Y6.6759
G01 X16.5276 Y6.6732
G01 X16.5397 Y6.6711
G01 X16.6358 Y6.6569
G01 X16.6480 Y6.6554
G01 X16.6602 Y6.6545
G01 X16.7573 Y6.6497
G01 X16.7696 Y6.6494
G01 X16.7819 Y6.6497
G01 X16.8790 Y6.6545
G01 X16.8912 Y6.6554
G01 X16.9034 Y6.6569
G01 X16.9995 Y6.6711
G01 X17.0116 Y6.6732
G01 X17.0236 Y6.6759
G01 X17.1179 Y6.6995
G01 X17.1297 Y6.7028
G01 X17.1414 Y6.7067
G01 X17.2329 Y6.7394
G01 X17.2444 Y6.7438
G01 X17.2556 Y6.7488
G01 X17.3435 Y6.7904
G01 X17.3544 Y6.7959
G01 X17.3651 Y6.8019
G01 X17.4485 Y6.8519
G01 X17.4588 Y6.8585
G01 X17.4689 Y6.8655
G01 X17.5470 Y6.9235
G01 X17.5566 Y6.9310
G01 X17.5659 Y6.9390
G01 X17.6379 Y7.0043
G01 X17.6468 Y7.0128
G01 X17.6553 Y7.0217
G01 X17.7206 Y7.0937
G01 X17.7286 Y7.1030
G01 X17.7361 Y7.1126
G01 X17.7941 Y7.1907
G01 X17.8011 Y7.2008
G01 X17.8077 Y7.2111
G01 X17.8577 Y7.2945
G01 X17.8637 Y7.3052
G01 X17.8692 Y7.3161
G01 X17.9108 Y7.4040
G01 X17.9158 Y7.4152
G01 X17.9202 Y7.4267
G01 X17.9529 Y7.5182
G01 X17.9568 Y7.5299
G01 X17.9601 Y7.5417
G01 X17.9837 Y7.6360
G01 X17.9864 Y7.6480
G01 X17.9885 Y7.6601
G01 X18.0027 Y7.7562
G01 X18.0042 Y7.7684
G01 X18.0051 Y7.7806
G01 X18.0099 Y7.8777
G01 X18.0102 Y7.8900
G01 X18.0099 Y7.9023
G00 Z2.0000
G00 X20.5499 Y7.9023
G01 F60.00
G01 Z-0.1866
G01 F200.00
G01 X20.5451 Y7.9994
G01 X20.5442 Y8.0116
G01 X20.5427 Y8.0238
G01 X20.5285 Y8.1199
G01 X20.5264 Y8.1320
G01 X20.5237 Y8.1440
G01 X20.5001 Y8.2383
G01 X20.4968 Y8.2501
G01 X20.4929 Y8.2618
G01 X20.4602 Y8.3533
G01 X20.4558 Y8.3648
G01 X20.4508 Y8.3760
G01 X20.4092 Y8.4639
G01 X20.4037 Y8.4748
G01 X20.3977 Y8.4855
G01 X20.3477 Y8.5689
G01 X20.3411 Y8.5792
G01 X20.3341 Y8.5893
G01 X20.2761 Y8.6674
G01 X20.2686 Y8.6770
G01 X20.2606 Y8.6863
G01 X20.1953 Y8.7583
G01 X20.1868 Y8.7672
G01 X20.1779 Y8.7757
G01 X20.1059 Y8.8410
G01 X20.0966 Y8.8490
G01 X20.0870 Y8.8565
G01 X20.0089 Y8.9145
G01 X19.9988 Y8.9215
G01 X19.9885 Y8.9281
G01 X19.9051 Y8.9781
G01 X19.8944 Y8.9841
G01 X19.8835 Y8.9896
G01 X19.7956 Y9.0312
G01 X19.7844 Y9.0362
G01 X19.7729 Y9.0406
G01 X19.6814 Y9.0733
G01 X19.6697 Y9.0772
G01 X19.6579 Y9.0805
G01 X19.5636 Y9.1041
G01 X19.5516 Y9.1068
G01 X19.5395 Y9.1089
G01 X19.4434 Y9.1231
G01 X19.4312 Y9.1246
G01 X19.4190 Y9.1255
G01 X19.3219 Y9.1303
G01 X19.3096 Y9.1306
G01 X19.2973 Y9.1303
G01 X19.2002 Y9.1255
G01 X19.1880 Y9.1246
G01 X19.1758 Y9.1231
G01 X19.0797 Y9.1089
G01 X19.0676 Y9.1068
G01 X19.0556 Y9.1041
G01 X18.9613 Y9.0805
G01 X18.9495 Y9.0772
G01 X18.9378 Y9.0733
G01 X18.8463 Y9.0406
G01 X18.8348 Y9.0362
G01 X18.8236 Y9.0312
G01 X18.7357 Y8.9896
G01 X18.7248 Y8.9841
G01 X18.7141 Y8.9781
G01 X18.6307 Y8.9281
G01 X18.6204 Y8.9215
G01 X18.6103 Y8.9145
G01 X18.5322 Y8.8565
G01 X18.5226 Y8.8490
G01 X18.5133 Y8.8410
G01 X18.4413 Y8.7757
G01 X18.4324 Y8.7672
G01 X18.4239 Y8.7583
G01 X18.3586 Y8.6863
G01 X18.3506 Y8.6770
G01 X18.3431 Y8.6674
G01 X18.2851 Y8.5893
G01 X18.2781 Y8.5792
G01 X18.2715 Y8.5689
G01 X18.2215 Y8.4855
G01 X18.2155 Y8.4748
G01 X18.2100 Y8.4639
G01 X18.1684 Y8.3760
G01 X18.1634 Y8.3648
G01 X18.1590 Y8.3533
G01 X18.1263 Y8.2618
G01 X18.1224 Y8.2501
G01 X18.1191 Y8.2383
G01 X18.0955 Y8.1440
G01 X18.0928 Y8.1320
G01 X18.0907 Y8.1199
G01 X18.0765 Y8.0238
G01 X18.0750 Y8.0116
G01 X18.0741 Y7.9994
G01 X18.0693 Y7.9023
G01 X18.0690 Y7.8900
G01 X18.0693 Y7.8777
G01 X18.0741 Y7.7806
G01 X18.0750 Y7.7684
G01 X18.0765 Y7.7562
G01 X18.0907 Y7.6601
G01 X18.0928 Y7.6480
G01 X18.0955 Y7.6360
G01 X18.1191 Y7.5417
G01 X18.1224 Y7.5299
G01 X18.1263 Y7.5182
G01 X18.1590 Y7.4267
G01 X18.1634 Y7.4152
G01 X18.1684 Y7.4040
G01 X18.2100 Y7.3161
G01 X18.2155 Y7.3052
G01 X18.2215 Y7.2945
G01 X18.2715 Y7.2111
G01 X18.2781 Y7.2008
G01 X18.2851 Y7.1907
G01 X18.3431 Y7.1126
G01 X18.3506 Y7.1030
G01 X18.3586 Y7.0937
G01 X18.4239 Y7.0217
G01 X18.4324 Y7.0128
G01 X18.4413 Y7.0043
G01 X18.5133 Y6.9390
G01 X18.5226 Y6.9310
G01 X18.5322 Y6.9235
G01 X18.6103 Y6.8655
G01 X18.6204 Y6.8585
G01 X18.6307 Y6.8519
G01 X18.7141 Y6.8019
G01 X18.7248 Y6.7959
G01 X18.7357 Y6.7904
G01 X18.8236 Y6.7488
G01 X18.8348 Y6.7438
G01 X18.8463 Y6.7394
G01 X18.9378 Y6.7067
G01 X18.9495 Y6.7028
G01 X18.9613 Y6.6995
G01 X19.0556 Y6.6759
G01 X19.0676 Y6.6732
G01 X19.0797 Y6.6711
G01 X19.1758 Y6.6569
G01 X19.1880 Y6.6554
G01 X19.2002 Y6.6545
G01 X19.2973 Y6.6497
G01 X19.3096 Y6.6494
G01 X19.3219 Y6.6497
G01 X19.4190 Y6.6545
G01 X19.4312 Y6.6554
G01 X19.4434 Y6.6569
G01 X19.5395 Y6.6711
G01 X19.5516 Y6.6732
G01 X19.5636 Y6.6759
G01 X19.6579 Y6.6995
G01 X19.6697 Y6.7028
G01 X19.6814 Y6.7067
G01 X19.7729 Y6.7394
G01 X19.7844 Y6.7438
G01 X19.7956 Y6.7488
G01 X19.8835 Y6.7904
G01 X19.8944 Y6.7959
G01 X19.9051 Y6.8019
G01 X19.9885 Y6.8519
G01 X19.9988 Y6.8585
G01 X20.0089 Y6.8655
G01 X20.0870 Y6.9235
G01 X20.0966 Y6.9310
G01 X20.1059 Y6.9390
G01 X20.1779 Y7.0043
G01 X20.1868 Y7.0128
G01 X20.1953 Y7.0217
G01 X20.2606 Y7.0937
G01 X20.2686 Y7.1030
G01 X20.2761 Y7.1126
G01 X20.3341 Y7.1907
G01 X20.3411 Y7.2008
G01 X20.3477 Y7.2111
G01 X20.3977 Y7.2945
G01 X20.4037 Y7.3052
G01 X20.4092 Y7.3161
G01 X20.4508 Y7.4040
G01 X20.4558 Y7.4152
G01 X20.4602 Y7.4267
G01 X20.4929 Y7.5182
G01 X20.4968 Y7.5299
G01 X20.5001 Y7.5417
G01 X20.5237 Y7.6360
G01 X20.5264 Y7.6480
G01 X20.5285 Y7.6601
G01 X20.5427 Y7.7562
G01 X20.5442 Y7.7684
G01 X20.5451 Y7.7806
G01 X20.5499 Y7.8777
G01 X20.5502 Y7.8900
G01 X20.5499 Y7.9023
G00 Z2.0000
G00 X20.5499 Y10.4423
G01 F60.00
G01 Z-0.1866
G01 F200.00
G01 X20.5451 Y10.5394
G01 X20.5442 Y10.5516
G01 X20.5427 Y10.5638
G01 X20.5285 Y10.6599
G01 X20.5264 Y10.6720
G01 X20.5237 Y10.6840
G01 X20.5001 Y10.7783
G01 X20.4968 Y10.7901
G01 X20.4929 Y10.8018
G01 X20.4602 Y10.8933
G01 X20.4558 Y10.9048
G01 X20.4508 Y10.9160
G01 X20.4092 Y11.0039
G01 X20.4037 Y11.0148
G01 X20.3977 Y11.0255
G01 X20.3477 Y11.1089
G01 X20.3411 Y11.1192
G01 X20.3341 Y11.1293
G01 X20.2761 Y11.2074
G01 X20.2686 Y11.2170
G01 X20.2606 Y11.2263
G01 X20.1953 Y11.2983
G01 X20.1868 Y11.3072
G01 X20.1779 Y11.3157
G01 X20.1059 Y11.3810
G01 X20.0966 Y11.3890
G01 X20.0870 Y11.3965
G01 X20.0089 Y11.4545
G01 X19.9988 Y11.4615
G01 X19.9885 Y11.4681
G01 X19.9051 Y11.5181
G01 X19.8944 Y11.5241
G01 X19.8835 Y11.5296
G01 X19.7956 Y11.5712
G01 X19.7844 Y11.5762
G01 X19.7729 Y11.5806
G01 X19.6814 Y11.6133
G01 X19.6697 Y11.6172
G01 X19.6579 Y11.6205
G01 X19.5636 Y11.6441
G01 X19.5516 Y11.6468
G01 X19.5395 Y11.6489
G01 X19.4434 Y11.6631
G01 X19.4312 Y11.6646
G01 X19.4190 Y11.6655
G01 X19.3219 Y11.6703
G01 X19.3096 Y11.6706
G01 X19.2973 Y11.6703
G01 X19.2002 Y11.6655
G01 X19.1880 Y11.6646
G01 X19.1758 Y11.6631
G01 X19.0797 Y11.6489
G01 X19.0676 Y11.6468
G01 X19.0556 Y11.6441
G01 X18.9613 Y11.6205
G01 X18.9495 Y11.6172
G01 X18.9378 Y11.6133
G01 X18.8463 Y11.5806
G01 X18.8348 Y11.5762
G01 X18.8236 Y11.5712
G01 X18.7357 Y11.5296
G01 X18.7248 Y11.5241
G01 X18.7141 Y11.5181
G01 X18.6307 Y11.4681
G01 X18.6204 Y11.4615
G01 X18.6103 Y11.4545
G01 X18.5322 Y11.3965
G01 X18.5226 Y11.3890
G01 X18.5133 Y11.3810
G01 X18.4413 Y11.3157
G01 X18.4324 Y11.3072
G01 X18.4239 Y11.2983
G01 X18.3586 Y11.2263
G01 X18.3506 Y11.2170
G01 X18.3431 Y11.2074
G01 X18.2851 Y11.1293
G01 X18.2781 Y11.1192
G01 X18.2715 Y11.1089
G01 X18.2215 Y11.0255
G01 X18.2155 Y11.0148
G01 X18.2100 Y11.0039
G01 X18.1684 Y10.9160
G01 X18.1634 Y10.9048
G01 X18.1590 Y10.8933
G01 X18.1263 Y10.8018
G01 X18.1224 Y10.7901
G01 X18.1191 Y10.7783
G01 X18.0955 Y10.6840
G01 X18.0928 Y10.6720
G01 X18.0907 Y10.6599
G01 X18.0765 Y10.5638
G01 X18.0750 Y10.5516
G01 X18.0741 Y10.5394
G01 X18.0693 Y10.4423
G01 X18.0690 Y10.4300
G01 X18.0693 Y10.4177
G01 X18.0741 Y10.3206
G01 X18.0750 Y10.3084
G01 X18.0765 Y10.2962
G01 X18.0907 Y10.2001
G01 X18.0928 Y10.1880
G01 X18.0955 Y10.1760
G01 X18.1191 Y10.0817
G01 X18.1224 Y10.0699
G01 X18.1263 Y10.0582
G01 X18.1590 Y9.9667
G01 X18.1634 Y9.9552
G01 X18.1684 Y9.9440
G01 X18.2100 Y9.8561
G01 X18.2155 Y9.8452
G01 X18.2215 Y9.8345
G01 X18.2715 Y9.7511
G01 X18.2781 Y9.7408
G01 X18.2851 Y9.7307
G01 X18.3431 Y9.6526
G01 X18.3506 Y9.6430
G01 X18.3586 Y9.6337
G01 X18.4239 Y9.5617
G01 X18.4324 Y9.5528
G01 X18.4413 Y9.5443
G01 X18.5133 Y9.4790
G01 X18.5226 Y9.4710
G01 X18.5322 Y9.4635
G01 X18.6103 Y9.4055
G01 X18.6204 Y9.3985
G01 X18.6307 Y9.3919
G01 X18.7141 Y9.3419
G01 X18.7248 Y9.3359
G01 X18.7357 Y9.3304
G01 X18.8236 Y9.2888
G01 X18.8348 Y9.2838
G01 X18.8463 Y9.2794
G01 X18.9378 Y9.2467
G01 X18.9495 Y9.2428
G01 X18.9613 Y9.2395
G01 X19.0556 Y9.2159
G01 X19.0676 Y9.2132
G01 X19.0797 Y9.2111
G01 X19.1758 Y9.1969
G01 X19.1880 Y9.1954
G01 X19.2002 Y9.1945
G01 X19.2973 Y9.1897
G01 X19.3096 Y9.1894
G01 X19.3219 Y9.1897
G01 X19.4190 Y9.1945
G01 X19.4312 Y9.1954
G01 X19.4434 Y9.1969
G01 X19.5395 Y9.2111
G01 X19.5516 Y9.2132
G01 X19.5636 Y9.2159
G01 X19.6579 Y9.2395
G01 X19.6697 Y9.2428
G01 X19.6814 Y9.2467
G01 X19.7729 Y9.2794
G01 X19.7844 Y9.2838
G01 X19.7956 Y9.2888
G01 X19.8835 Y9.3304
G01 X19.8944 Y9.3359
G01 X19.9051 Y9.3419
G01 X19.9885 Y9.3919
G01 X19.9988 Y9.3985
G01 X20.0089 Y9.4055
G01 X20.0870 Y9.4635
G01 X20.0966 Y9.4710
G01 X20.1059 Y9.4790
G01 X20.1779 Y9.5443
G01 X20.1868 Y9.5528
G01 X20.1953 Y9.5617
G01 X20.2606 Y9.6337
G01 X20.2686 Y9.6430
G01 X20.2761 Y9.6526
G01 X20.3341 Y9.7307
G01 X20.3411 Y9.7408
G01 X20.3477 Y9.7511
G01 X20.3977 Y9.8345
G01 X20.4037 Y9.8452
G01 X20.4092 Y9.8561
G01 X20.4508 Y9.9440
G01 X20.4558 Y9.9552
G01 X20.4602 Y9.9667
G01 X20.4929 Y10.0582
G01 X20.4968 Y10.0699
G01 X20.5001 Y10.0817
G01 X20.5237 Y10.1760
G01 X20.5264 Y10.1880
G01 X20.5285 Y10.2001
G01 X20.5427 Y10.2962
G01 X20.5442 Y10.3084
G01 X20.5451 Y10.3206
G01 X20.5499 Y10.4177
G01 X20.5502 Y10.4300
G01 X20.5499 Y10.4423
G00 Z2.0000
G00 X18.0099 Y10.4423
G01 F60.00
G01 Z-0.1866
G01 F200.00
G01 X18.0051 Y10.5394
G01 X18.0042 Y10.5516
G01 X18.0027 Y10.5638
G01 X17.9885 Y10.6599
G01 X17.9864 Y10.6720
G01 X17.9837 Y10.6840
G01 X17.9601 Y10.7783
G01 X17.9568 Y10.7901
G01 X17.9529 Y10.8018
G01 X17.9202 Y10.8933
G01 X17.9158 Y10.9048
G01 X17.9108 Y10.9160
G01 X17.8692 Y11.0039
G01 X17.8637 Y11.0148
G01 X17.8577 Y11.0255
G01 X17.8077 Y11.1089
G01 X17.8011 Y11.1192
G01 X17.7941 Y11.1293
G01 X17.7361 Y11.2074
G01 X17.7286 Y11.2170
G01 X17.7206 Y11.2263
G01 X17.6553 Y11.2983
G01 X17.6468 Y11.3072
G01 X17.6379 Y11.3157
G01 X17.5659 Y11.3810
G01 X17.5566 Y11.3890
G01 X17.5470 Y11.3965
G01 X17.4689 Y11.4545
G01 X17.4588 Y11.4615
G01 X17.4485 Y11.4681
G01 X17.3651 Y11.5181
G01 X17.3544 Y11.5241
G01 X17.3435 Y11.5296
G01 X17.2556 Y11.5712
G01 X17.2444 Y11.5762
G01 X17.2329 Y11.5806
G01 X17.1414 Y11.6133
G01 X17.1297 Y11.6172
G01 X17.1179 Y11.6205
G01 X17.0236 Y11.6441
G01 X17.0116 Y11.6468
G01 X16.9995 Y11.6489
G01 X16.9034 Y11.6631
G01 X16.8912 Y11.6646
G01 X16.8790 Y11.6655
G01 X16.7819 Y11.6703
G01 X16.7696 Y11.6706
G01 X16.7573 Y11.6703
G01 X16.6602 Y11.6655
G01 X16.6480 Y11.6646
G01 X16.6358 Y11.6631
G01 X16.5397 Y11.6489
G01 X16.5276 Y11.6468
G01 X16.5156 Y11.6441
G01 X16.4213 Y11.6205
G01 X16.4095 Y11.6172
G01 X16.3978 Y11.6133
G01 X16.3063 Y11.5806
G01 X16.2948 Y11.5762
G01 X16.2836 Y11.5712
G01 X16.1957 Y11.5296
G01 X16.1848 Y11.5241
G01 X16.1741 Y11.5181
G01 X16.0907 Y11.4681
G01 X16.0804 Y11.4615
G01 X16.0703 Y11.4545
G01 X15.9922 Y11.3965
G01 X15.9826 Y11.3890
G01 X15.9733 Y11.3810
G01 X15.9013 Y11.3157
G01 X15.8924 Y11.3072
G01 X15.8839 Y11.2983
G01 X15.8186 Y11.2263
G01 X15.8106 Y11.2170
G01 X15.8031 Y11.2074
G01 X15.7451 Y11.1293
G01 X15.7381 Y11.1192
G01 X15.7315 Y11.1089
G01 X15.6815 Y11.0255
G01 X15.6755 Y11.0148
G01 X15.6700 Y11.0039
G01 X15.6284 Y10.9160
G01 X15.6234 Y10.9048
G01 X15.6190 Y10.8933
G01 X15.5863 Y10.8018
G01 X15.5824 Y10.7901
G01 X15.5791 Y10.7783
G01 X15.5555 Y10.6840
G01 X15.5528 Y10.6720
G01 X15.5507 Y10.6599
G01 X15.5365 Y10.5638
G01 X15.5350 Y10.5516
G01 X15.5341 Y10.5394
G01 X15.5293 Y10.4423
G01 X15.5290 Y10.4300
G01 X15.5293 Y10.4177
G01 X15.5341 Y10.3206
G01 X15.5350 Y10.3084
G01 X15.5365 Y10.2962
G01 X15.5507 Y10.2001
G01 X15.5528 Y10.1880
G01 X15.5555 Y10.1760
G01 X15.5791 Y10.0817
G01 X15.5824 Y10.0699
G01 X15.5863 Y10.0582
G01 X15.6190 Y9.9667
G01 X15.6234 Y9.9552
G01 X15.6284 Y9.9440
G01 X15.6700 Y9.8561
G01 X15.6755 Y9.8452
G01 X15.6815 Y9.8345
G01 X15.7315 Y9.7511
G01 X15.7381 Y9.7408
G01 X15.7451 Y9.7307
G01 X15.8031 Y9.6526
G01 X15.8106 Y9.6430
G01 X15.8186 Y9.6337
G01 X15.8839 Y9.5617
G01 X15.8924 Y9.5528
G01 X15.9013 Y9.5443
G01 X15.9733 Y9.4790
G01 X15.9826 Y9.4710
G01 X15.9922 Y9.4635
G01 X16.0703 Y9.4055
G01 X16.0804 Y9.3985
G01 X16.0907 Y9.3919
G01 X16.1741 Y9.3419
G01 X16.1848 Y9.3359
G01 X16.1957 Y9.3304
G01 X16.2836 Y9.2888
G01 X16.2948 Y9.2838
G01 X16.3063 Y9.2794
G01 X16.3978 Y9.2467
G01 X16.4095 Y9.2428
G01 X16.4213 Y9.2395
G01 X16.5156 Y9.2159
G01 X16.5276 Y9.2132
G01 X16.5397 Y9.2111
G01 X16.6358 Y9.1969
G01 X16.6480 Y9.1954
G01 X16.6602 Y9.1945
G01 X16.7573 Y9.1897
G01 X16.7696 Y9.1894
G01 X16.7819 Y9.1897
G01 X16.8790 Y9.1945
G01 X16.8912 Y9.1954
G01 X16.9034 Y9.1969
G01 X16.9995 Y9.2111
G01 X17.0116 Y9.2132
G01 X17.0236 Y9.2159
G01 X17.1179 Y9.2395
G01 X17.1297 Y9.2428
G01 X17.1414 Y9.2467
G01 X17.2329 Y9.2794
G01 X17.2444 Y9.2838
G01 X17.2556 Y9.2888
G01 X17.3435 Y9.3304
G01 X17.3544 Y9.3359
G01 X17.3651 Y9.3419
G01 X17.4485 Y9.3919
G01 X17.4588 Y9.3985
G01 X17.4689 Y9.4055
G01 X17.5470 Y9.4635
G01 X17.5566 Y9.4710
G01 X17.5659 Y9.4790
G01 X17.6379 Y9.5443
G01 X17.6468 Y9.5528
G01 X17.6553 Y9.5617
G01 X17.7206 Y9.6337
G01 X17.7286 Y9.6430
G01 X17.7361 Y9.6526
G01 X17.7941 Y9.7307
G01 X17.8011 Y9.7408
G01 X17.8077 Y9.7511
G01 X17.8577 Y9.8345
G01 X17.8637 Y9.8452
G01 X17.8692 Y9.8561
G01 X17.9108 Y9.9440
G01 X17.9158 Y9.9552
G01 X17.9202 Y9.9667
G01 X17.9529 Y10.0582
G01 X17.9568 Y10.0699
G01 X17.9601 Y10.0817
G01 X17.9837 Y10.1760
G01 X17.9864 Y10.1880
G01 X17.9885 Y10.2001
G01 X18.0027 Y10.2962
G01 X18.0042 Y10.3084
G01 X18.0051 Y10.3206
G01 X18.0099 Y10.4177
G01 X18.0102 Y10.4300
G01 X18.0099 Y10.4423
G00 Z2.0000
G00 X15.4699 Y15.5223
G01 F60.00
G01 Z-0.1866
G01 F200.00
G01 X15.4651 Y15.6194
G01 X15.4642 Y15.6316
G01 X15.4627 Y15.6438
G01 X15.4485 Y15.7399
G01 X15.4464 Y15.7520
G01 X15.4437 Y15.7640
G01 X15.4201 Y15.8583
G01 X15.4168 Y15.8701
G01 X15.4129 Y15.8818
G01 X15.3802 Y15.9733
G01 X15.3758 Y15.9848
G01 X15.3708 Y15.9960
G01 X15.3292 Y16.0839
G01 X15.3237 Y16.0948
G01 X15.3177 Y16.1055
G01 X15.2677 Y16.1889
G01 X15.2611 Y16.1992
G01 X15.2541 Y16.2093
G01 X15.1961 Y16.2874
G01 X15.1886 Y16.2970
G01 X15.1806 Y16.3063
G01 X15.1153 Y16.3783
G01 X15.1068 Y16.3872
G01 X15.0979 Y16.3957
G01 X15.0259 Y16.4610
G01 X15.0166 Y16.4690
G01 X15.0070 Y16.4765
G01 X14.9289 Y16.5345
G01 X14.9188 Y16.5415
G01 X14.9085 Y16.5481
G01 X14.8251 Y16.5981
G01 X14.8144 Y16.6041
G01 X14.8035 Y16.6096
G01 X14.7156 Y16.6512
G01 X14.7044 Y16.6562
G01 X14.6929 Y16.6606
G01 X14.6014 Y16.6933
G01 X14.5897 Y16.6972
G01 X14.5779 Y16.7005
G01 X14.4836 Y16.7241
G01 X14.4716 Y16.7268
G01 X14.4595 Y16.7289
G01 X14.3634 Y16.7431
G01 X14.3512 Y16.7446
G01 X14.3390 Y16.7455
G01 X14.2419 Y16.7503
G01 X14.2296 Y16.7506
G01 X14.2173 Y16.7503
G01 X14.1202 Y16.7455
G01 X14.1080 Y16.7446
G01 X14.0958 Y16.7431
G01 X13.9997 Y16.7289
G01 X13.9876 Y16.7268
G01 X13.9756 Y16.7241
G01 X13.8813 Y16.7005
G01 X13.8695 Y16.6972
G01 X13.8578 Y16.6933
G01 X13.7663 Y16.6606
G01 X13.7548 Y16.6562
G01 X13.7436 Y16.6512
G01 X13.6557 Y16.6096
G01 X13.6448 Y16.6041
G01 X13.6341 Y16.5981
G01 X13.5507 Y16.5481
G01 X13.5404 Y16.5415
G01 X13.5303 Y16.5345
G01 X13.4522 Y16.4765
G01 X13.4426 Y16.4690
G01 X13.4333 Y16.4610
G01 X13.3613 Y16.3957
G01 X13.3524 Y16.3872
G01 X13.3439 Y16.3783
G01 X13.2786 Y16.3063
G01 X13.2706 Y16.2970
G01 X13.2631 Y16.2874
G01 X13.2051 Y16.2093
G01 X13.1981 Y16.1992
G01 X13.1915 Y16.1889
G01 X13.1415 Y16.1055
G01 X13.1355 Y16.0948
G01 X13.1300 Y16.0839
G01 X13.0884 Y15.9960
G01 X13.0834 Y15.9848
G01 X13.0790 Y15.9733
G01 X13.0463 Y15.8818
G01 X13.0424 Y15.8701
G01 X13.0391 Y15.8583
G01 X13.0155 Y15.7640
G01 X13.0128 Y15.7520
G01 X13.0107 Y15.7399
G01 X12.9965 Y15.6438
G01 X12.9950 Y15.6316
G01 X12.9941 Y15.6194
G01 X12.9893 Y15.5223
G01 X12.9890 Y15.5100
G01 X12.9893 Y15.4977
G01 X12.9941 Y15.4006
G01 X12.9950 Y15.3884
G01 X12.9965 Y15.3762
G01 X13.0107 Y15.2801
G01 X13.0128 Y15.2680
G01 X13.0155 Y15.2560
G01 X13.0391 Y15.1617
G01 X13.0424 Y15.1499
G01 X13.0463 Y15.1382
G01 X13.0790 Y15.0467
G01 X13.0834 Y15.0352
G01 X13.0884 Y15.0240
G01 X13.1300 Y14.9361
G01 X13.1355 Y14.9252
G01 X13.1415 Y14.9145
G01 X13.1915 Y14.8311
G01 X13.1981 Y14.8208
G01 X13.2051 Y14.8107
G01 X13.2631 Y14.7326
G01 X13.2706 Y14.7230
G01 X13.2786 Y14.7137
G01 X13.3439 Y14.6417
G01 X13.3524 Y14.6328
G01 X13.3613 Y14.6243
G01 X13.4333 Y14.5590
G01 X13.4426 Y14.5510
G01 X13.4522 Y14.5435
G01 X13.5303 Y14.4855
G01 X13.5404 Y14.4785
G01 X13.5507 Y14.4719
G01 X13.6341 Y14.4219
G01 X13.6448 Y14.4159
G01 X13.6557 Y14.4104
G01 X13.7436 Y14.3688
G01 X13.7548 Y14.3638
G01 X13.7663 Y14.3594
G01 X13.8578 Y14.3267
G01 X13.8695 Y14.3228
G01 X13.8813 Y14.3195
G01 X13.9756 Y14.2959
G01 X13.9876 Y14.2932
G01 X13.9997 Y14.2911
G01 X14.0958 Y14.2769
G01 X14.1080 Y14.2754
G01 X14.1202 Y14.2745
G01 X14.2173 Y14.2697
G01 X14.2296 Y14.2694
G01 X14.2419 Y14.2697
G01 X14.3390 Y14.2745
G01 X14.3512 Y14.2754
G01 X14.3634 Y14.2769
G01 X14.4595 Y14.2911
G01 X14.4716 Y14.2932
G01 X14.4836 Y14.2959
G01 X14.5779 Y14.3195
G01 X14.5897 Y14.3228
G01 X14.6014 Y14.3267
G01 X14.6929 Y14.3594
G01 X14.7044 Y14.3638
G01 X14.7156 Y14.3688
G01 X14.8035 Y14.4104
G01 X14.8144 Y14.4159
G01 X14.8251 Y14.4219
G01 X14.9085 Y14.4719
G01 X14.9188 Y14.4785
G01 X14.9289 Y14.4855
G01 X15.0070 Y14.5435
G01 X15.0166 Y14.5510
G01 X15.0259 Y14.5590
G01 X15.0979 Y14.6243
G01 X15.1068 Y14.6328
G01 X15.1153 Y14.6417
G01 X15.1806 Y14.7137
G01 X15.1886 Y14.7230
G01 X15.1961 Y14.7326
G01 X15.2541 Y14.8107
G01 X15.2611 Y14.8208
G01 X15.2677 Y14.8311
G01 X15.3177 Y14.9145
G01 X15.3237 Y14.9252
G01 X15.3292 Y14.9361
G01 X15.3708 Y15.0240
G01 X15.3758 Y15.0352
G01 X15.3802 Y15.0467
G01 X15.4129 Y15.1382
G01 X15.4168 Y15.1499
G01 X15.4201 Y15.1617
G01 X15.4437 Y15.2560
G01 X15.4464 Y15.2680
G01 X15.4485 Y15.2801
G01 X15.4627 Y15.3762
G01 X15.4642 Y15.3884
G01 X15.4651 Y15.4006
G01 X15.4699 Y15.4977
G01 X15.4702 Y15.5100
G01 X15.4699 Y15.5223
G00 Z2.0000
G00 X9.9900 Y17.1829
G01 F60.00
G01 Z-0.1866
G01 F200.00
G01 X10.0099 Y17.1791
G01 X10.0813 Y17.1688
G01 X10.0936 Y17.1679
G01 X10.1656 Y17.1647
G01 X15.9097 Y17.1647
G01 X15.9098 Y16.5453
G01 X15.9129 Y16.4794
G01 X15.9138 Y16.4671
G01 X15.9214 Y16.4140
G01 X15.8968 Y16.3915
G01 X15.8881 Y16.3828
G01 X15.8186 Y16.3063
G01 X15.8068 Y16.2922
G01 X15.7451 Y16.2093
G01 X15.7381 Y16.1992
G01 X15.7315 Y16.1889
G01 X15.6815 Y16.1055
G01 X15.6727 Y16.0894
G01 X15.6284 Y15.9960
G01 X15.6234 Y15.9848
G01 X15.6190 Y15.9733
G01 X15.5863 Y15.8818
G01 X15.5824 Y15.8701
G01 X15.5791 Y15.8583
G01 X15.5555 Y15.7640
G01 X15.5528 Y15.7520
G01 X15.5507 Y15.7399
G01 X15.5365 Y15.6438
G01 X15.5350 Y15.6316
G01 X15.5341 Y15.6194
G01 X15.5293 Y15.5223
G01 X15.5290 Y15.5100
G01 X15.5293 Y15.4977
G01 X15.5341 Y15.4006
G01 X15.5350 Y15.3884
G01 X15.5365 Y15.3762
G01 X15.5507 Y15.2801
G01 X15.5528 Y15.2680
G01 X15.5555 Y15.2560
G01 X15.5791 Y15.1617
G01 X15.5824 Y15.1499
G01 X15.5863 Y15.1382
G01 X15.6190 Y15.0467
G01 X15.6234 Y15.0352
G01 X15.6284 Y15.0240
G01 X15.6700 Y14.9361
G01 X15.6755 Y14.9252
G01 X15.6815 Y14.9145
G01 X15.7315 Y14.8311
G01 X15.7381 Y14.8208
G01 X15.7451 Y14.8107
G01 X15.8031 Y14.7326
G01 X15.8106 Y14.7230
G01 X15.8186 Y14.7137
G01 X15.8839 Y14.6417
G01 X15.8924 Y14.6328
G01 X15.9013 Y14.6243
G01 X15.9733 Y14.5590
G01 X15.9826 Y14.5510
G01 X15.9922 Y14.5435
G01 X16.0703 Y14.4855
G01 X16.0804 Y14.4785
G01 X16.0907 Y14.4719
G01 X16.1741 Y14.4219
G01 X16.1848 Y14.4159
G01 X16.1957 Y14.4104
G01 X16.2836 Y14.3688
G01 X16.2948 Y14.3638
G01 X16.3063 Y14.3594
G01 X16.3978 Y14.3267
G01 X16.4095 Y14.3228
G01 X16.4213 Y14.3195
G01 X16.5156 Y14.2959
G01 X16.5276 Y14.2932
G01 X16.5397 Y14.2911
G01 X16.6358 Y14.2769
G01 X16.6480 Y14.2754
G01 X16.6602 Y14.2745
G01 X16.7573 Y14.2697
G01 X16.7696 Y14.2694
G01 X16.7819 Y14.2697
G01 X16.8790 Y14.2745
G01 X16.8912 Y14.2754
G01 X16.9034 Y14.2769
G01 X16.9995 Y14.2911
G01 X17.0116 Y14.2932
G01 X17.0236 Y14.2959
G01 X17.1179 Y14.3195
G01 X17.1297 Y14.3228
G01 X17.1414 Y14.3267
G01 X17.2329 Y14.3594
G01 X17.2444 Y14.3638
G01 X17.2556 Y14.3688
G01 X17.3490 Y14.4131
G01 X17.3651 Y14.4219
G01 X17.4485 Y14.4719
G01 X17.4588 Y14.4785
G01 X17.4689 Y14.4855
G01 X17.5470 Y14.5435
G01 X17.5566 Y14.5510
G01 X17.5659 Y14.5590
G01 X17.6379 Y14.6243
G01 X17.6468 Y14.6328
G01 X17.6553 Y14.6417
G01 X17.7206 Y14.7137
G01 X17.7286 Y14.7230
G01 X17.7361 Y14.7326
G01 X17.7941 Y14.8107
G01 X17.8011 Y14.8208
G01 X17.8077 Y14.8311
G01 X17.8577 Y14.9145
G01 X17.8637 Y14.9252
G01 X17.8692 Y14.9361
G01 X17.9108 Y15.0240
G01 X17.9158 Y15.0352
G01 X17.9202 Y15.0467
G01 X17.9529 Y15.1382
G01 X17.9568 Y15.1499
G01 X17.9601 Y15.1617
G01 X17.9837 Y15.2560
G01 X17.9864 Y15.2680
G01 X17.9885 Y15.2801
G01 X18.0027 Y15.3762
G01 X18.0048 Y15.3945
G01 X18.0099 Y15.4977
G01 X18.0102 Y15.5100
G01 X18.0099 Y15.5223
G01 X18.0051 Y15.6194
G01 X18.0042 Y15.6316
G01 X18.0027 Y15.6438
G01 X17.9885 Y15.7399
G01 X17.9864 Y15.7520
G01 X17.9837 Y15.7640
G01 X17.9601 Y15.8583
G01 X17.9568 Y15.8701
G01 X17.9529 Y15.8818
G01 X17.9180 Y15.9791
G01 X17.9108 Y15.9960
G01 X17.8692 Y16.0839
G01 X17.8637 Y16.0948
G01 X17.8577 Y16.1055
G01 X17.8077 Y16.1889
G01 X17.7976 Y16.2043
G01 X17.7361 Y16.2874
G01 X17.7246 Y16.3017
G01 X17.6511 Y16.3828
G01 X17.6424 Y16.3915
G01 X17.6178 Y16.4140
G01 X17.6239 Y16.4549
G01 X17.6259 Y16.4732
G01 X17.6292 Y16.5391
G01 X17.6295 Y16.5514
G01 X17.6295 Y19.5232
G01 X17.6292 Y19.5355
G01 X17.6254 Y19.6075
G01 X17.6239 Y19.6197
G01 X17.6144 Y19.6830
G01 X17.6424 Y19.7085
G01 X17.6511 Y19.7172
G01 X17.7206 Y19.7937
G01 X17.7324 Y19.8078
G01 X17.7941 Y19.8907
G01 X17.8011 Y19.9008
G01 X17.8077 Y19.9111
G01 X17.8577 Y19.9945
G01 X17.8665 Y20.0106
G01 X17.9108 Y20.1040
G01 X17.9158 Y20.1152
G01 X17.9202 Y20.1267
G01 X17.9529 Y20.2182
G01 X17.9568 Y20.2299
G01 X17.9601 Y20.2417
G01 X17.9837 Y20.3360
G01 X17.9864 Y20.3480
G01 X17.9885 Y20.3601
G01 X18.0027 Y20.4562
G01 X18.0042 Y20.4684
G01 X18.0051 Y20.4806
G01 X18.0099 Y20.5777
G01 X18.0102 Y20.5900
G01 X18.0099 Y20.6023
G01 X18.0051 Y20.6994
G01 X18.0042 Y20.7116
G01 X18.0027 Y20.7238
G01 X17.9885 Y20.8199
G01 X17.9864 Y20.8320
G01 X17.9837 Y20.8440
G01 X17.9601 Y20.9383
G01 X17.9568 Y20.9501
G01 X17.9529 Y20.9618
G01 X17.9202 Y21.0533
G01 X17.9158 Y21.0648
G01 X17.9108 Y21.0760
G01 X17.8665 Y21.1694
G01 X17.8577 Y21.1855
G01 X17.8077 Y21.2689
G01 X17.8011 Y21.2792
G01 X17.7941 Y21.2893
G01 X17.7361 Y21.3674
G01 X17.7286 Y21.3770
G01 X17.7206 Y21.3863
G01 X17.6553 Y21.4583
G01 X17.6468 Y21.4672
G01 X17.6379 Y21.4757
G01 X17.5659 Y21.5410
G01 X17.5566 Y21.5490
G01 X17.5470 Y21.5565
G01 X17.4689 Y21.6145
G01 X17.4588 Y21.6215
G01 X17.4485 Y21.6281
G01 X17.3651 Y21.6781
G01 X17.3544 Y21.6841
G01 X17.3435 Y21.6896
G01 X17.2556 Y21.7312
G01 X17.2444 Y21.7362
G01 X17.2329 Y21.7406
G01 X17.1414 Y21.7733
G01 X17.1297 Y21.7772
G01 X17.1179 Y21.7805
G01 X17.0236 Y21.8041
G01 X17.0116 Y21.8068
G01 X16.9995 Y21.8089
G01 X16.9034 Y21.8231
G01 X16.8912 Y21.8246
G01 X16.8790 Y21.8255
G01 X16.7819 Y21.8303
G01 X16.7696 Y21.8306
G01 X16.7573 Y21.8303
G01 X16.6602 Y21.8255
G01 X16.6480 Y21.8246
G01 X16.6358 Y21.8231
G01 X16.5397 Y21.8089
G01 X16.5276 Y21.8068
G01 X16.5156 Y21.8041
G01 X16.4213 Y21.7805
G01 X16.4095 Y21.7772
G01 X16.3978 Y21.7733
G01 X16.3063 Y21.7406
G01 X16.2948 Y21.7362
G01 X16.2836 Y21.7312
G01 X16.1957 Y21.6896
G01 X16.1848 Y21.6841
G01 X16.1741 Y21.6781
G01 X16.0907 Y21.6281
G01 X16.0804 Y21.6215
G01 X16.0703 Y21.6145
G01 X15.9922 Y21.5565
G01 X15.9826 Y21.5490
G01 X15.9733 Y21.5410
G01 X15.9013 Y21.4757
G01 X15.8924 Y21.4672
G01 X15.8839 Y21.4583
G01 X15.8146 Y21.3817
G01 X15.8031 Y21.3674
G01 X15.7451 Y21.2893
G01 X15.7381 Y21.2792
G01 X15.7315 Y21.2689
G01 X15.6815 Y21.1855
G01 X15.6755 Y21.1748
G01 X15.6700 Y21.1639
G01 X15.6284 Y21.0760
G01 X15.6234 Y21.0648
G01 X15.6190 Y21.0533
G01 X15.5863 Y20.9618
G01 X15.5824 Y20.9501
G01 X15.5791 Y20.9383
G01 X15.5555 Y20.8440
G01 X15.5528 Y20.8320
G01 X15.5507 Y20.8199
G01 X15.5365 Y20.7238
G01 X15.5350 Y20.7116
G01 X15.5341 Y20.6994
G01 X15.5293 Y20.6023
G01 X15.5290 Y20.5900
G01 X15.5293 Y20.5777
G01 X15.5341 Y20.4806
G01 X15.5350 Y20.4684
G01 X15.5365 Y20.4562
G01 X15.5507 Y20.3601
G01 X15.5528 Y20.3480
G01 X15.5555 Y20.3360
G01 X15.5791 Y20.2417
G01 X15.5824 Y20.2299
G01 X15.5863 Y20.2182
G01 X15.6190 Y20.1267
G01 X15.6259 Y20.1096
G01 X15.6700 Y20.0161
G01 X15.6755 Y20.0052
G01 X15.6815 Y19.9945
G01 X15.7315 Y19.9111
G01 X15.7416 Y19.8957
G01 X15.8031 Y19.8126
G01 X15.8146 Y19.7983
G01 X15.8881 Y19.7172
G01 X15.8968 Y19.7085
G01 X15.9248 Y19.6830
G01 X15.9153 Y19.6197
G01 X15.9138 Y19.6075
G01 X15.9129 Y19.5952
G01 X15.9098 Y19.5293
G01 X15.9097 Y18.8845
G01 X10.1656 Y18.8845
G01 X10.1533 Y18.8842
G01 X10.0874 Y18.8809
G01 X10.0691 Y18.8789
G01 X10.0321 Y18.8734
G01 X10.0081 Y18.8998
G01 X9.9994 Y18.9085
G01 X9.9206 Y18.9798
G01 X9.9063 Y18.9913
G01 X9.8258 Y19.0509
G01 X9.8104 Y19.0610
G01 X9.7297 Y19.1093
G01 X9.7190 Y19.1154
G01 X9.7081 Y19.1209
G01 X9.6175 Y19.1636
G01 X9.6004 Y19.1705
G01 X9.5119 Y19.2021
G01 X9.5003 Y19.2060
G01 X9.4884 Y19.2093
G01 X9.3972 Y19.2321
G01 X9.3853 Y19.2348
G01 X9.3732 Y19.2369
G01 X9.2802 Y19.2507
G01 X9.2680 Y19.2522
G01 X9.2558 Y19.2531
G01 X9.1619 Y19.2577
G01 X9.1496 Y19.2580
G01 X9.1373 Y19.2577
G01 X9.0434 Y19.2531
G01 X9.0312 Y19.2522
G01 X9.0190 Y19.2507
G01 X8.9260 Y19.2369
G01 X8.9139 Y19.2348
G01 X8.9020 Y19.2321
G01 X8.8108 Y19.2093
G01 X8.7989 Y19.2060
G01 X8.7873 Y19.2021
G01 X8.6988 Y19.1705
G01 X8.6873 Y19.1660
G01 X8.6761 Y19.1611
G01 X8.5911 Y19.1209
G01 X8.5802 Y19.1154
G01 X8.5695 Y19.1093
G01 X8.4888 Y19.0610
G01 X8.4785 Y19.0544
G01 X8.4684 Y19.0473
G01 X8.3929 Y18.9913
G01 X8.3833 Y18.9838
G01 X8.3740 Y18.9758
G01 X8.3043 Y18.9126
G01 X8.2954 Y18.9042
G01 X8.2870 Y18.8953
G01 X8.2238 Y18.8256
G01 X8.2158 Y18.8163
G01 X8.2083 Y18.8067
G01 X8.1523 Y18.7312
G01 X8.1452 Y18.7211
G01 X8.1386 Y18.7108
G01 X8.0903 Y18.6301
G01 X8.0842 Y18.6194
G01 X8.0787 Y18.6085
G01 X8.0385 Y18.5235
G01 X8.0336 Y18.5123
G01 X8.0291 Y18.5008
G01 X7.9975 Y18.4123
G01 X7.9936 Y18.4007
G01 X7.9903 Y18.3888
G01 X7.9675 Y18.2976
G01 X7.9648 Y18.2857
G01 X7.9627 Y18.2736
G01 X7.9489 Y18.1806
G01 X7.9474 Y18.1684
G01 X7.9465 Y18.1562
G01 X7.9419 Y18.0623
G01 X7.9416 Y18.0500
G01 X7.9419 Y18.0377
G01 X7.9465 Y17.9438
G01 X7.9474 Y17.9316
G01 X7.9489 Y17.9194
G01 X7.9627 Y17.8264
G01 X7.9648 Y17.8143
G01 X7.9675 Y17.8024
G01 X7.9903 Y17.7112
G01 X7.9936 Y17.6993
G01 X7.9975 Y17.6877
G01 X8.0291 Y17.5992
G01 X8.0336 Y17.5877
G01 X8.0385 Y17.5765
G01 X8.0787 Y17.4915
G01 X8.0842 Y17.4806
G01 X8.0903 Y17.4699
G01 X8.1386 Y17.3892
G01 X8.1452 Y17.3789
G01 X8.1523 Y17.3688
G01 X8.2083 Y17.2933
G01 X8.2158 Y17.2837
G01 X8.2238 Y17.2744
G01 X8.2870 Y17.2047
G01 X8.2954 Y17.1958
G01 X8.3043 Y17.1874
G01 X8.3740 Y17.1242
G01 X8.3833 Y17.1162
G01 X8.3929 Y17.1087
G01 X8.4684 Y17.0527
G01 X8.4785 Y17.0456
G01 X8.4888 Y17.0390
G01 X8.5695 Y16.9907
G01 X8.5802 Y16.9846
G01 X8.5911 Y16.9791
G01 X8.6761 Y16.9389
G01 X8.6873 Y16.9340
G01 X8.6988 Y16.9295
G01 X8.7873 Y16.8979
G01 X8.7989 Y16.8940
G01 X8.8108 Y16.8907
G01 X8.9020 Y16.8679
G01 X8.9139 Y16.8652
G01 X8.9260 Y16.8631
G01 X9.0190 Y16.8493
G01 X9.0312 Y16.8478
G01 X9.0434 Y16.8469
G01 X9.1373 Y16.8423
G01 X9.1496 Y16.8420
G01 X9.1619 Y16.8423
G01 X9.2558 Y16.8469
G01 X9.2680 Y16.8478
G01 X9.2802 Y16.8493
G01 X9.3732 Y16.8631
G01 X9.3853 Y16.8652
G01 X9.3972 Y16.8679
G01 X9.4884 Y16.8907
G01 X9.5003 Y16.8940
G01 X9.5119 Y16.8979
G01 X9.6004 Y16.9295
G01 X9.6119 Y16.9340
G01 X9.6231 Y16.9389
G01 X9.7081 Y16.9791
G01 X9.7190 Y16.9846
G01 X9.7297 Y16.9907
G01 X9.8104 Y17.0390
G01 X9.8207 Y17.0456
G01 X9.8308 Y17.0527
G01 X9.9063 Y17.1087
G01 X9.9159 Y17.1162
G01 X9.9252 Y17.1242
G01 X9.9900 Y17.1829
G00 Z2.0000
G00 X13.3697 Y23.1300
G01 F60.00
G01 Z-0.1866
G01 F200.00
G01 X13.3697 Y21.6314
G01 X13.3700 Y21.6191
G01 X13.3733 Y21.5532
G01 X13.3753 Y21.5349
G01 X13.3814 Y21.4940
G01 X13.3568 Y21.4715
G01 X13.3481 Y21.4628
G01 X13.2746 Y21.3817
G01 X13.2631 Y21.3674
G01 X13.2051 Y21.2893
G01 X13.1947 Y21.2741
G01 X13.1415 Y21.1855
G01 X13.1355 Y21.1748
G01 X13.1300 Y21.1639
G01 X13.0884 Y21.0760
G01 X13.0834 Y21.0648
G01 X13.0790 Y21.0533
G01 X13.0443 Y20.9560
G01 X13.0391 Y20.9383
G01 X13.0155 Y20.8440
G01 X13.0128 Y20.8320
G01 X13.0107 Y20.8199
G01 X12.9965 Y20.7238
G01 X12.9950 Y20.7116
G01 X12.9941 Y20.6994
G01 X12.9893 Y20.6023
G01 X12.9890 Y20.5900
G01 X12.9893 Y20.5777
G01 X12.9941 Y20.4806
G01 X12.9950 Y20.4684
G01 X12.9965 Y20.4562
G01 X13.0107 Y20.3601
G01 X13.0128 Y20.3480
G01 X13.0155 Y20.3360
G01 X13.0391 Y20.2417
G01 X13.0424 Y20.2299
G01 X13.0463 Y20.2182
G01 X13.0790 Y20.1267
G01 X13.0834 Y20.1152
G01 X13.0884 Y20.1040
G01 X13.1300 Y20.0161
G01 X13.1355 Y20.0052
G01 X13.1415 Y19.9945
G01 X13.1915 Y19.9111
G01 X13.1981 Y19.9008
G01 X13.2051 Y19.8907
G01 X13.2631 Y19.8126
G01 X13.2706 Y19.8030
G01 X13.2786 Y19.7937
G01 X13.3439 Y19.7217
G01 X13.3524 Y19.7128
G01 X13.3613 Y19.7043
G01 X13.4333 Y19.6390
G01 X13.4426 Y19.6310
G01 X13.4522 Y19.6235
G01 X13.5303 Y19.5655
G01 X13.5404 Y19.5585
G01 X13.5507 Y19.5519
G01 X13.6341 Y19.5019
G01 X13.6448 Y19.4959
G01 X13.6557 Y19.4904
G01 X13.7436 Y19.4488
G01 X13.7548 Y19.4438
G01 X13.7663 Y19.4394
G01 X13.8578 Y19.4067
G01 X13.8695 Y19.4028
G01 X13.8813 Y19.3995
G01 X13.9756 Y19.3759
G01 X13.9876 Y19.3732
G01 X13.9997 Y19.3711
G01 X14.1019 Y19.3561
G01 X14.1202 Y19.3545
G01 X14.2173 Y19.3497
G01 X14.2296 Y19.3494
G01 X14.2419 Y19.3497
G01 X14.3390 Y19.3545
G01 X14.3512 Y19.3554
G01 X14.3634 Y19.3569
G01 X14.4595 Y19.3711
G01 X14.4716 Y19.3732
G01 X14.4836 Y19.3759
G01 X14.5779 Y19.3995
G01 X14.5897 Y19.4028
G01 X14.6014 Y19.4067
G01 X14.6929 Y19.4394
G01 X14.7044 Y19.4438
G01 X14.7156 Y19.4488
G01 X14.8035 Y19.4904
G01 X14.8144 Y19.4959
G01 X14.8251 Y19.5019
G01 X14.9085 Y19.5519
G01 X14.9188 Y19.5585
G01 X14.9289 Y19.5655
G01 X15.0070 Y19.6235
G01 X15.0166 Y19.6310
G01 X15.0259 Y19.6390
G01 X15.0979 Y19.7043
G01 X15.1068 Y19.7128
G01 X15.1153 Y19.7217
G01 X15.1806 Y19.7937
G01 X15.1886 Y19.8030
G01 X15.1961 Y19.8126
G01 X15.2541 Y19.8907
G01 X15.2611 Y19.9008
G01 X15.2677 Y19.9111
G01 X15.3177 Y19.9945
G01 X15.3237 Y20.0052
G01 X15.3292 Y20.0161
G01 X15.3708 Y20.1040
G01 X15.3758 Y20.1152
G01 X15.3802 Y20.1267
G01 X15.4149 Y20.2240
G01 X15.4201 Y20.2417
G01 X15.4437 Y20.3360
G01 X15.4464 Y20.3480
G01 X15.4485 Y20.3601
G01 X15.4627 Y20.4562
G01 X15.4642 Y20.4684
G01 X15.4651 Y20.4806
G01 X15.4699 Y20.5777
G01 X15.4702 Y20.5900
G01 X15.4699 Y20.6023
G01 X15.4651 Y20.6994
G01 X15.4642 Y20.7116
G01 X15.4627 Y20.7238
G01 X15.4485 Y20.8199
G01 X15.4464 Y20.8320
G01 X15.4437 Y20.8440
G01 X15.4185 Y20.9442
G01 X15.4129 Y20.9618
G01 X15.3802 Y21.0533
G01 X15.3758 Y21.0648
G01 X15.3708 Y21.0760
G01 X15.3292 Y21.1639
G01 X15.3237 Y21.1748
G01 X15.3177 Y21.1855
G01 X15.2645 Y21.2741
G01 X15.2541 Y21.2893
G01 X15.1961 Y21.3674
G01 X15.1846 Y21.3817
G01 X15.1111 Y21.4628
G01 X15.1024 Y21.4715
G01 X15.0778 Y21.4940
G01 X15.0854 Y21.5471
G01 X15.0863 Y21.5594
G01 X15.0894 Y21.6253
G01 X15.0895 Y22.2701
G01 X20.9897 Y22.2701
G01 X20.9897 Y11.4714
G01 X20.9900 Y11.4591
G01 X20.9933 Y11.3932
G01 X20.9953 Y11.3749
G01 X21.0014 Y11.3340
G01 X20.9768 Y11.3115
G01 X20.9681 Y11.3028
G01 X20.8946 Y11.2217
G01 X20.8831 Y11.2074
G01 X20.8216 Y11.1243
G01 X20.8115 Y11.1089
G01 X20.7615 Y11.0255
G01 X20.7555 Y11.0148
G01 X20.7500 Y11.0039
G01 X20.7084 Y10.9160
G01 X20.7012 Y10.8991
G01 X20.6663 Y10.8018
G01 X20.6624 Y10.7901
G01 X20.6591 Y10.7783
G01 X20.6355 Y10.6840
G01 X20.6328 Y10.6720
G01 X20.6307 Y10.6599
G01 X20.6165 Y10.5638
G01 X20.6150 Y10.5516
G01 X20.6141 Y10.5394
G01 X20.6093 Y10.4423
G01 X20.6090 Y10.4300
G01 X20.6093 Y10.4177
G01 X20.6141 Y10.3206
G01 X20.6157 Y10.3023
G01 X20.6307 Y10.2001
G01 X20.6328 Y10.1880
G01 X20.6355 Y10.1760
G01 X20.6591 Y10.0817
G01 X20.6624 Y10.0699
G01 X20.6663 Y10.0582
G01 X20.6990 Y9.9667
G01 X20.7034 Y9.9552
G01 X20.7084 Y9.9440
G01 X20.7500 Y9.8561
G01 X20.7555 Y9.8452
G01 X20.7615 Y9.8345
G01 X20.8115 Y9.7511
G01 X20.8181 Y9.7408
G01 X20.8251 Y9.7307
G01 X20.8831 Y9.6526
G01 X20.8906 Y9.6430
G01 X20.8986 Y9.6337
G01 X20.9639 Y9.5617
G01 X20.9724 Y9.5528
G01 X20.9813 Y9.5443
G01 X21.0533 Y9.4790
G01 X21.0626 Y9.4710
G01 X21.0722 Y9.4635
G01 X21.1503 Y9.4055
G01 X21.1604 Y9.3985
G01 X21.1707 Y9.3919
G01 X21.2541 Y9.3419
G01 X21.2648 Y9.3359
G01 X21.2757 Y9.3304
G01 X21.3636 Y9.2888
G01 X21.3748 Y9.2838
G01 X21.3863 Y9.2794
G01 X21.4778 Y9.2467
G01 X21.4895 Y9.2428
G01 X21.5013 Y9.2395
G01 X21.5956 Y9.2159
G01 X21.6076 Y9.2132
G01 X21.6197 Y9.2111
G01 X21.7158 Y9.1969
G01 X21.7280 Y9.1954
G01 X21.7402 Y9.1945
G01 X21.8373 Y9.1897
G01 X21.8496 Y9.1894
G01 X21.8619 Y9.1897
G01 X21.9590 Y9.1945
G01 X21.9712 Y9.1954
G01 X21.9834 Y9.1969
G01 X22.0795 Y9.2111
G01 X22.0916 Y9.2132
G01 X22.1036 Y9.2159
G01 X22.1979 Y9.2395
G01 X22.2097 Y9.2428
G01 X22.2214 Y9.2467
G01 X22.3129 Y9.2794
G01 X22.3244 Y9.2838
G01 X22.3356 Y9.2888
G01 X22.4235 Y9.3304
G01 X22.4344 Y9.3359
G01 X22.4451 Y9.3419
G01 X22.5285 Y9.3919
G01 X22.5388 Y9.3985
G01 X22.5489 Y9.4055
G01 X22.6270 Y9.4635
G01 X22.6366 Y9.4710
G01 X22.6459 Y9.4790
G01 X22.7179 Y9.5443
G01 X22.7268 Y9.5528
G01 X22.7353 Y9.5617
G01 X22.8006 Y9.6337
G01 X22.8086 Y9.6430
G01 X22.8161 Y9.6526
G01 X22.8741 Y9.7307
G01 X22.8811 Y9.7408
G01 X22.8877 Y9.7511
G01 X22.9377 Y9.8345
G01 X22.9437 Y9.8452
G01 X22.9492 Y9.8561
G01 X22.9908 Y9.9440
G01 X22.9958 Y9.9552
G01 X23.0002 Y9.9667
G01 X23.0329 Y10.0582
G01 X23.0368 Y10.0699
G01 X23.0401 Y10.0817
G01 X23.0637 Y10.1760
G01 X23.0664 Y10.1880
G01 X23.0685 Y10.2001
G01 X23.0827 Y10.2962
G01 X23.0842 Y10.3084
G01 X23.0851 Y10.3206
G01 X23.0899 Y10.4177
G01 X23.0902 Y10.4300
G01 X23.0899 Y10.4423
G01 X23.0851 Y10.5394
G01 X23.0842 Y10.5516
G01 X23.0827 Y10.5638
G01 X23.0685 Y10.6599
G01 X23.0664 Y10.6720
G01 X23.0637 Y10.6840
G01 X23.0401 Y10.7783
G01 X23.0368 Y10.7901
G01 X23.0329 Y10.8018
G01 X23.0002 Y10.8933
G01 X22.9933 Y10.9104
G01 X22.9492 Y11.0039
G01 X22.9437 Y11.0148
G01 X22.9377 Y11.0255
G01 X22.8877 Y11.1089
G01 X22.8776 Y11.1243
G01 X22.8161 Y11.2074
G01 X22.8046 Y11.2217
G01 X22.7311 Y11.3028
G01 X22.7224 Y11.3115
G01 X22.6978 Y11.3340
G01 X22.7039 Y11.3749
G01 X22.7059 Y11.3932
G01 X22.7092 Y11.4591
G01 X22.7095 Y11.4714
G01 X22.7095 Y23.1300
G01 X22.7063 Y23.2020
G01 X22.7054 Y23.2143
G01 X22.7039 Y23.2265
G01 X22.6930 Y23.2978
G01 X22.6757 Y23.3678
G01 X22.6725 Y23.3796
G01 X22.6485 Y23.4476
G01 X22.6440 Y23.4591
G01 X22.6391 Y23.4703
G01 X22.6080 Y23.5354
G01 X22.5711 Y23.5974
G01 X22.5646 Y23.6077
G01 X22.5219 Y23.6658
G01 X22.5143 Y23.6755
G01 X22.5063 Y23.6848
G01 X22.4576 Y23.7380
G01 X22.4044 Y23.7867
G01 X22.3951 Y23.7947
G01 X22.3854 Y23.8023
G01 X22.3273 Y23.8450
G01 X22.3170 Y23.8515
G01 X22.2550 Y23.8884
G01 X22.1899 Y23.9195
G01 X22.1787 Y23.9244
G01 X22.1109 Y23.9490
G01 X22.0992 Y23.9529
G01 X22.0874 Y23.9561
G01 X22.0174 Y23.9734
G01 X21.9461 Y23.9843
G01 X21.9278 Y23.9863
G01 X21.8619 Y23.9896
G01 X21.8496 Y23.9899
G01 X14.2296 Y23.9899
G01 X14.1576 Y23.9867
G01 X14.1392 Y23.9851
G01 X14.0679 Y23.9745
G01 X14.0499 Y23.9707
G01 X13.9918 Y23.9561
G01 X13.9800 Y23.9529
G01 X13.9683 Y23.9490
G01 X13.9062 Y23.9267
G01 X13.8893 Y23.9195
G01 X13.8242 Y23.8884
G01 X13.7622 Y23.8515
G01 X13.7468 Y23.8415
G01 X13.6938 Y23.8023
G01 X13.6841 Y23.7947
G01 X13.6304 Y23.7465
G01 X13.6216 Y23.7380
G01 X13.6131 Y23.7292
G01 X13.5649 Y23.6755
G01 X13.5573 Y23.6658
G01 X13.5146 Y23.6077
G01 X13.5081 Y23.5974
G01 X13.4712 Y23.5354
G01 X13.4401 Y23.4703
G01 X13.4352 Y23.4591
G01 X13.4307 Y23.4476
G01 X13.4067 Y23.3796
G01 X13.4035 Y23.3678
G01 X13.3862 Y23.2978
G01 X13.3841 Y23.2857
G01 X13.3738 Y23.2143
G01 X13.3700 Y23.1423
G01 X13.3697 Y23.1300
G00 Z2.0000
G00 X20.5499 Y20.6023
G01 F60.00
G01 Z-0.1866
G01 F200.00
G01 X20.5451 Y20.6994
G01 X20.5442 Y20.7116
G01 X20.5427 Y20.7238
G01 X20.5285 Y20.8199
G01 X20.5264 Y20.8320
G01 X20.5237 Y20.8440
G01 X20.5001 Y20.9383
G01 X20.4968 Y20.9501
G01 X20.4929 Y20.9618
G01 X20.4602 Y21.0533
G01 X20.4558 Y21.0648
G01 X20.4508 Y21.0760
G01 X20.4092 Y21.1639
G01 X20.4037 Y21.1748
G01 X20.3977 Y21.1855
G01 X20.3477 Y21.2689
G01 X20.3411 Y21.2792
G01 X20.3341 Y21.2893
G01 X20.2761 Y21.3674
G01 X20.2686 Y21.3770
G01 X20.2606 Y21.3863
G01 X20.1953 Y21.4583
G01 X20.1868 Y21.4672
G01 X20.1779 Y21.4757
G01 X20.1059 Y21.5410
G01 X20.0966 Y21.5490
G01 X20.0870 Y21.5565
G01 X20.0089 Y21.6145
G01 X19.9988 Y21.6215
G01 X19.9885 Y21.6281
G01 X19.9051 Y21.6781
G01 X19.8944 Y21.6841
G01 X19.8835 Y21.6896
G01 X19.7956 Y21.7312
G01 X19.7844 Y21.7362
G01 X19.7729 Y21.7406
G01 X19.6814 Y21.7733
G01 X19.6697 Y21.7772
G01 X19.6579 Y21.7805
G01 X19.5636 Y21.8041
G01 X19.5516 Y21.8068
G01 X19.5395 Y21.8089
G01 X19.4434 Y21.8231
G01 X19.4312 Y21.8246
G01 X19.4190 Y21.8255
G01 X19.3219 Y21.8303
G01 X19.3096 Y21.8306
G01 X19.2973 Y21.8303
G01 X19.2002 Y21.8255
G01 X19.1880 Y21.8246
G01 X19.1758 Y21.8231
G01 X19.0797 Y21.8089
G01 X19.0676 Y21.8068
G01 X19.0556 Y21.8041
G01 X18.9613 Y21.7805
G01 X18.9495 Y21.7772
G01 X18.9378 Y21.7733
G01 X18.8463 Y21.7406
G01 X18.8348 Y21.7362
G01 X18.8236 Y21.7312
G01 X18.7357 Y21.6896
G01 X18.7248 Y21.6841
G01 X18.7141 Y21.6781
G01 X18.6307 Y21.6281
G01 X18.6204 Y21.6215
G01 X18.6103 Y21.6145
G01 X18.5322 Y21.5565
G01 X18.5226 Y21.5490
G01 X18.5133 Y21.5410
G01 X18.4413 Y21.4757
G01 X18.4324 Y21.4672
G01 X18.4239 Y21.4583
G01 X18.3586 Y21.3863
G01 X18.3506 Y21.3770
G01 X18.3431 Y21.3674
G01 X18.2851 Y21.2893
G01 X18.2781 Y21.2792
G01 X18.2715 Y21.2689
G01 X18.2215 Y21.1855
G01 X18.2155 Y21.1748
G01 X18.2100 Y21.1639
G01 X18.1684 Y21.0760
G01 X18.1634 Y21.0648
G01 X18.1590 Y21.0533
G01 X18.1263 Y20.9618
G01 X18.1224 Y20.9501
G01 X18.1191 Y20.9383
G01 X18.0955 Y20.8440
G01 X18.0928 Y20.8320
G01 X18.0907 Y20.8199
G01 X18.0765 Y20.7238
G01 X18.0750 Y20.7116
G01 X18.0741 Y20.6994
G01 X18.0693 Y20.6023
G01 X18.0690 Y20.5900
G01 X18.0693 Y20.5777
G01 X18.0741 Y20.4806
G01 X18.0750 Y20.4684
G01 X18.0765 Y20.4562
G01 X18.0907 Y20.3601
G01 X18.0928 Y20.3480
G01 X18.0955 Y20.3360
G01 X18.1191 Y20.2417
G01 X18.1224 Y20.2299
G01 X18.1263 Y20.2182
G01 X18.1590 Y20.1267
G01 X18.1634 Y20.1152
G01 X18.1684 Y20.1040
G01 X18.2100 Y20.0161
G01 X18.2155 Y20.0052
G01 X18.2215 Y19.9945
G01 X18.2715 Y19.9111
G01 X18.2781 Y19.9008
G01 X18.2851 Y19.8907
G01 X18.3431 Y19.8126
G01 X18.3506 Y19.8030
G01 X18.3586 Y19.7937
G01 X18.4239 Y19.7217
G01 X18.4324 Y19.7128
G01 X18.4413 Y19.7043
G01 X18.5133 Y19.6390
G01 X18.5226 Y19.6310
G01 X18.5322 Y19.6235
G01 X18.6103 Y19.5655
G01 X18.6204 Y19.5585
G01 X18.6307 Y19.5519
G01 X18.7141 Y19.5019
G01 X18.7248 Y19.4959
G01 X18.7357 Y19.4904
G01 X18.8236 Y19.4488
G01 X18.8348 Y19.4438
G01 X18.8463 Y19.4394
G01 X18.9378 Y19.4067
G01 X18.9495 Y19.4028
G01 X18.9613 Y19.3995
G01 X19.0556 Y19.3759
G01 X19.0676 Y19.3732
G01 X19.0797 Y19.3711
G01 X19.1758 Y19.3569
G01 X19.1880 Y19.3554
G01 X19.2002 Y19.3545
G01 X19.2973 Y19.3497
G01 X19.3096 Y19.3494
G01 X19.3219 Y19.3497
G01 X19.4190 Y19.3545
G01 X19.4312 Y19.3554
G01 X19.4434 Y19.3569
G01 X19.5395 Y19.3711
G01 X19.5516 Y19.3732
G01 X19.5636 Y19.3759
G01 X19.6579 Y19.3995
G01 X19.6697 Y19.4028
G01 X19.6814 Y19.4067
G01 X19.7729 Y19.4394
G01 X19.7844 Y19.4438
G01 X19.7956 Y19.4488
G01 X19.8835 Y19.4904
G01 X19.8944 Y19.4959
G01 X19.9051 Y19.5019
G01 X19.9885 Y19.5519
G01 X19.9988 Y19.5585
G01 X20.0089 Y19.5655
G01 X20.0870 Y19.6235
G01 X20.0966 Y19.6310
G01 X20.1059 Y19.6390
G01 X20.1779 Y19.7043
G01 X20.1868 Y19.7128
G01 X20.1953 Y19.7217
G01 X20.2606 Y19.7937
G01 X20.2686 Y19.8030
G01 X20.2761 Y19.8126
G01 X20.3341 Y19.8907
G01 X20.3411 Y19.9008
G01 X20.3477 Y19.9111
G01 X20.3977 Y19.9945
G01 X20.4037 Y20.0052
G01 X20.4092 Y20.0161
G01 X20.4508 Y20.1040
G01 X20.4558 Y20.1152
G01 X20.4602 Y20.1267
G01 X20.4929 Y20.2182
G01 X20.4968 Y20.2299
G01 X20.5001 Y20.2417
G01 X20.5237 Y20.3360
G01 X20.5264 Y20.3480
G01 X20.5285 Y20.3601
G01 X20.5427 Y20.4562
G01 X20.5442 Y20.4684
G01 X20.5451 Y20.4806
G01 X20.5499 Y20.5777
G01 X20.5502 Y20.5900
G01 X20.5499 Y20.6023
G00 Z2.0000
G00 X25.6299 Y10.4423
G01 F60.00
G01 Z-0.1866
G01 F200.00
G01 X25.6251 Y10.5394
G01 X25.6242 Y10.5516
G01 X25.6227 Y10.5638
G01 X25.6085 Y10.6599
G01 X25.6064 Y10.6720
G01 X25.6037 Y10.6840
G01 X25.5801 Y10.7783
G01 X25.5768 Y10.7901
G01 X25.5729 Y10.8018
G01 X25.5402 Y10.8933
G01 X25.5358 Y10.9048
G01 X25.5308 Y10.9160
G01 X25.4892 Y11.0039
G01 X25.4837 Y11.0148
G01 X25.4777 Y11.0255
G01 X25.4277 Y11.1089
G01 X25.4211 Y11.1192
G01 X25.4141 Y11.1293
G01 X25.3561 Y11.2074
G01 X25.3486 Y11.2170
G01 X25.3406 Y11.2263
G01 X25.2753 Y11.2983
G01 X25.2668 Y11.3072
G01 X25.2579 Y11.3157
G01 X25.1859 Y11.3810
G01 X25.1766 Y11.3890
G01 X25.1670 Y11.3965
G01 X25.0889 Y11.4545
G01 X25.0788 Y11.4615
G01 X25.0685 Y11.4681
G01 X24.9851 Y11.5181
G01 X24.9744 Y11.5241
G01 X24.9635 Y11.5296
G01 X24.8756 Y11.5712
G01 X24.8644 Y11.5762
G01 X24.8529 Y11.5806
G01 X24.7614 Y11.6133
G01 X24.7497 Y11.6172
G01 X24.7379 Y11.6205
G01 X24.6436 Y11.6441
G01 X24.6316 Y11.6468
G01 X24.6195 Y11.6489
G01 X24.5234 Y11.6631
G01 X24.5112 Y11.6646
G01 X24.4990 Y11.6655
G01 X24.4019 Y11.6703
G01 X24.3896 Y11.6706
G01 X24.3773 Y11.6703
G01 X24.2802 Y11.6655
G01 X24.2680 Y11.6646
G01 X24.2558 Y11.6631
G01 X24.1597 Y11.6489
G01 X24.1476 Y11.6468
G01 X24.1356 Y11.6441
G01 X24.0413 Y11.6205
G01 X24.0295 Y11.6172
G01 X24.0178 Y11.6133
G01 X23.9263 Y11.5806
G01 X23.9148 Y11.5762
G01 X23.9036 Y11.5712
G01 X23.8157 Y11.5296
G01 X23.8048 Y11.5241
G01 X23.7941 Y11.5181
G01 X23.7107 Y11.4681
G01 X23.7004 Y11.4615
G01 X23.6903 Y11.4545
G01 X23.6122 Y11.3965
G01 X23.6026 Y11.3890
G01 X23.5933 Y11.3810
G01 X23.5213 Y11.3157
G01 X23.5124 Y11.3072
G01 X23.5039 Y11.2983
G01 X23.4386 Y11.2263
G01 X23.4306 Y11.2170
G01 X23.4231 Y11.2074
G01 X23.3651 Y11.1293
G01 X23.3581 Y11.1192
G01 X23.3515 Y11.1089
G01 X23.3015 Y11.0255
G01 X23.2955 Y11.0148
G01 X23.2900 Y11.0039
G01 X23.2484 Y10.9160
G01 X23.2434 Y10.9048
G01 X23.2390 Y10.8933
G01 X23.2063 Y10.8018
G01 X23.2024 Y10.7901
G01 X23.1991 Y10.7783
G01 X23.1755 Y10.6840
G01 X23.1728 Y10.6720
G01 X23.1707 Y10.6599
G01 X23.1565 Y10.5638
G01 X23.1550 Y10.5516
G01 X23.1541 Y10.5394
G01 X23.1493 Y10.4423
G01 X23.1490 Y10.4300
G01 X23.1493 Y10.4177
G01 X23.1541 Y10.3206
G01 X23.1550 Y10.3084
G01 X23.1565 Y10.2962
G01 X23.1707 Y10.2001
G01 X23.1728 Y10.1880
G01 X23.1755 Y10.1760
G01 X23.1991 Y10.0817
G01 X23.2024 Y10.0699
G01 X23.2063 Y10.0582
G01 X23.2390 Y9.9667
G01 X23.2434 Y9.9552
G01 X23.2484 Y9.9440
G01 X23.2900 Y9.8561
G01 X23.2955 Y9.8452
G01 X23.3015 Y9.8345
G01 X23.3515 Y9.7511
G01 X23.3581 Y9.7408
G01 X23.3651 Y9.7307
G01 X23.4231 Y9.6526
G01 X23.4306 Y9.6430
G01 X23.4386 Y9.6337
G01 X23.5039 Y9.5617
G01 X23.5124 Y9.5528
G01 X23.5213 Y9.5443
G01 X23.5933 Y9.4790
G01 X23.6026 Y9.4710
G01 X23.6122 Y9.4635
G01 X23.6903 Y9.4055
G01 X23.7004 Y9.3985
G01 X23.7107 Y9.3919
G01 X23.7941 Y9.3419
G01 X23.8048 Y9.3359
G01 X23.8157 Y9.3304
G01 X23.9036 Y9.2888
G01 X23.9148 Y9.2838
G01 X23.9263 Y9.2794
G01 X24.0178 Y9.2467
G01 X24.0295 Y9.2428
G01 X24.0413 Y9.2395
G01 X24.1356 Y9.2159
G01 X24.1476 Y9.2132
G01 X24.1597 Y9.2111
G01 X24.2558 Y9.1969
G01 X24.2680 Y9.1954
G01 X24.2802 Y9.1945
G01 X24.3773 Y9.1897
G01 X24.3896 Y9.1894
G01 X24.4019 Y9.1897
G01 X24.4990 Y9.1945
G01 X24.5112 Y9.1954
G01 X24.5234 Y9.1969
G01 X24.6195 Y9.2111
G01 X24.6316 Y9.2132
G01 X24.6436 Y9.2159
G01 X24.7379 Y9.2395
G01 X24.7497 Y9.2428
G01 X24.7614 Y9.2467
G01 X24.8529 Y9.2794
G01 X24.8644 Y9.2838
G01 X24.8756 Y9.2888
G01 X24.9635 Y9.3304
G01 X24.9744 Y9.3359
G01 X24.9851 Y9.3419
G01 X25.0685 Y9.3919
G01 X25.0788 Y9.3985
G01 X25.0889 Y9.4055
G01 X25.1670 Y9.4635
G01 X25.1766 Y9.4710
G01 X25.1859 Y9.4790
G01 X25.2579 Y9.5443
G01 X25.2668 Y9.5528
G01 X25.2753 Y9.5617
G01 X25.3406 Y9.6337
G01 X25.3486 Y9.6430
G01 X25.3561 Y9.6526
G01 X25.4141 Y9.7307
G01 X25.4211 Y9.7408
G01 X25.4277 Y9.7511
G01 X25.4777 Y9.8345
G01 X25.4837 Y9.8452
G01 X25.4892 Y9.8561
G01 X25.5308 Y9.9440
G01 X25.5358 Y9.9552
G01 X25.5402 Y9.9667
G01 X25.5729 Y10.0582
G01 X25.5768 Y10.0699
G01 X25.5801 Y10.0817
G01 X25.6037 Y10.1760
G01 X25.6064 Y10.1880
G01 X25.6085 Y10.2001
G01 X25.6227 Y10.2962
G01 X25.6242 Y10.3084
G01 X25.6251 Y10.3206
G01 X25.6299 Y10.4177
G01 X25.6302 Y10.4300
G01 X25.6299 Y10.4423
G00 Z2.0000
G00 X25.6299 Y7.9023
G01 F60.00
G01 Z-0.1866
G01 F200.00
G01 X25.6251 Y7.9994
G01 X25.6242 Y8.0116
G01 X25.6227 Y8.0238
G01 X25.6085 Y8.1199
G01 X25.6064 Y8.1320
G01 X25.6037 Y8.1440
G01 X25.5801 Y8.2383
G01 X25.5768 Y8.2501
G01 X25.5729 Y8.2618
G01 X25.5402 Y8.3533
G01 X25.5358 Y8.3648
G01 X25.5308 Y8.3760
G01 X25.4892 Y8.4639
G01 X25.4837 Y8.4748
G01 X25.4777 Y8.4855
G01 X25.4277 Y8.5689
G01 X25.4211 Y8.5792
G01 X25.4141 Y8.5893
G01 X25.3561 Y8.6674
G01 X25.3486 Y8.6770
G01 X25.3406 Y8.6863
G01 X25.2753 Y8.7583
G01 X25.2668 Y8.7672
G01 X25.2579 Y8.7757
G01 X25.1859 Y8.8410
G01 X25.1766 Y8.8490
G01 X25.1670 Y8.8565
G01 X25.0889 Y8.9145
G01 X25.0788 Y8.9215
G01 X25.0685 Y8.9281
G01 X24.9851 Y8.9781
G01 X24.9744 Y8.9841
G01 X24.9635 Y8.9896
G01 X24.8756 Y9.0312
G01 X24.8644 Y9.0362
G01 X24.8529 Y9.0406
G01 X24.7614 Y9.0733
G01 X24.7497 Y9.0772
G01 X24.7379 Y9.0805
G01 X24.6436 Y9.1041
G01 X24.6316 Y9.1068
G01 X24.6195 Y9.1089
G01 X24.5234 Y9.1231
G01 X24.5112 Y9.1246
G01 X24.4990 Y9.1255
G01 X24.4019 Y9.1303
G01 X24.3896 Y9.1306
G01 X24.3773 Y9.1303
G01 X24.2802 Y9.1255
G01 X24.2680 Y9.1246
G01 X24.2558 Y9.1231
G01 X24.1597 Y9.1089
G01 X24.1476 Y9.1068
G01 X24.1356 Y9.1041
G01 X24.0413 Y9.0805
G01 X24.0295 Y9.0772
G01 X24.0178 Y9.0733
G01 X23.9263 Y9.0406
G01 X23.9148 Y9.0362
G01 X23.9036 Y9.0312
G01 X23.8157 Y8.9896
G01 X23.8048 Y8.9841
G01 X23.7941 Y8.9781
G01 X23.7107 Y8.9281
G01 X23.7004 Y8.9215
G01 X23.6903 Y8.9145
G01 X23.6122 Y8.8565
G01 X23.6026 Y8.8490
G01 X23.5933 Y8.8410
G01 X23.5213 Y8.7757
G01 X23.5124 Y8.7672
G01 X23.5039 Y8.7583
G01 X23.4386 Y8.6863
G01 X23.4306 Y8.6770
G01 X23.4231 Y8.6674
G01 X23.3651 Y8.5893
G01 X23.3581 Y8.5792
G01 X23.3515 Y8.5689
G01 X23.3015 Y8.4855
G01 X23.2955 Y8.4748
G01 X23.2900 Y8.4639
G01 X23.2484 Y8.3760
G01 X23.2434 Y8.3648
G01 X23.2390 Y8.3533
G01 X23.2063 Y8.2618
G01 X23.2024 Y8.2501
G01 X23.1991 Y8.2383
G01 X23.1755 Y8.1440
G01 X23.1728 Y8.1320
G01 X23.1707 Y8.1199
G01 X23.1565 Y8.0238
G01 X23.1550 Y8.0116
G01 X23.1541 Y7.9994
G01 X23.1493 Y7.9023
G01 X23.1490 Y7.8900
G01 X23.1493 Y7.8777
G01 X23.1541 Y7.7806
G01 X23.1550 Y7.7684
G01 X23.1565 Y7.7562
G01 X23.1707 Y7.6601
G01 X23.1728 Y7.6480
G01 X23.1755 Y7.6360
G01 X23.1991 Y7.5417
G01 X23.2024 Y7.5299
G01 X23.2063 Y7.5182
G01 X23.2390 Y7.4267
G01 X23.2434 Y7.4152
G01 X23.2484 Y7.4040
G01 X23.2900 Y7.3161
G01 X23.2955 Y7.3052
G01 X23.3015 Y7.2945
G01 X23.3515 Y7.2111
G01 X23.3581 Y7.2008
G01 X23.3651 Y7.1907
G01 X23.4231 Y7.1126
G01 X23.4306 Y7.1030
G01 X23.4386 Y7.0937
G01 X23.5039 Y7.0217
G01 X23.5124 Y7.0128
G01 X23.5213 Y7.0043
G01 X23.5933 Y6.9390
G01 X23.6026 Y6.9310
G01 X23.6122 Y6.9235
G01 X23.6903 Y6.8655
G01 X23.7004 Y6.8585
G01 X23.7107 Y6.8519
G01 X23.7941 Y6.8019
G01 X23.8048 Y6.7959
G01 X23.8157 Y6.7904
G01 X23.9036 Y6.7488
G01 X23.9148 Y6.7438
G01 X23.9263 Y6.7394
G01 X24.0178 Y6.7067
G01 X24.0295 Y6.7028
G01 X24.0413 Y6.6995
G01 X24.1356 Y6.6759
G01 X24.1476 Y6.6732
G01 X24.1597 Y6.6711
G01 X24.2558 Y6.6569
G01 X24.2680 Y6.6554
G01 X24.2802 Y6.6545
G01 X24.3773 Y6.6497
G01 X24.3896 Y6.6494
G01 X24.4019 Y6.6497
G01 X24.4990 Y6.6545
G01 X24.5112 Y6.6554
G01 X24.5234 Y6.6569
G01 X24.6195 Y6.6711
G01 X24.6316 Y6.6732
G01 X24.6436 Y6.6759
G01 X24.7379 Y6.6995
G01 X24.7497 Y6.7028
G01 X24.7614 Y6.7067
G01 X24.8529 Y6.7394
G01 X24.8644 Y6.7438
G01 X24.8756 Y6.7488
G01 X24.9635 Y6.7904
G01 X24.9744 Y6.7959
G01 X24.9851 Y6.8019
G01 X25.0685 Y6.8519
G01 X25.0788 Y6.8585
G01 X25.0889 Y6.8655
G01 X25.1670 Y6.9235
G01 X25.1766 Y6.9310
G01 X25.1859 Y6.9390
G01 X25.2579 Y7.0043
G01 X25.2668 Y7.0128
G01 X25.2753 Y7.0217
G01 X25.3406 Y7.0937
G01 X25.3486 Y7.1030
G01 X25.3561 Y7.1126
G01 X25.4141 Y7.1907
G01 X25.4211 Y7.2008
G01 X25.4277 Y7.2111
G01 X25.4777 Y7.2945
G01 X25.4837 Y7.3052
G01 X25.4892 Y7.3161
G01 X25.5308 Y7.4040
G01 X25.5358 Y7.4152
G01 X25.5402 Y7.4267
G01 X25.5729 Y7.5182
G01 X25.5768 Y7.5299
G01 X25.5801 Y7.5417
G01 X25.6037 Y7.6360
G01 X25.6064 Y7.6480
G01 X25.6085 Y7.6601
G01 X25.6227 Y7.7562
G01 X25.6242 Y7.7684
G01 X25.6251 Y7.7806
G01 X25.6299 Y7.8777
G01 X25.6302 Y7.8900
G01 X25.6299 Y7.9023
G00 Z2.0000
G00 X28.1699 Y7.9023
G01 F60.00
G01 Z-0.1866
G01 F200.00
G01 X28.1651 Y7.9994
G01 X28.1642 Y8.0116
G01 X28.1627 Y8.0238
G01 X28.1485 Y8.1199
G01 X28.1464 Y8.1320
G01 X28.1437 Y8.1440
G01 X28.1201 Y8.2383
G01 X28.1168 Y8.2501
G01 X28.1129 Y8.2618
G01 X28.0802 Y8.3533
G01 X28.0758 Y8.3648
G01 X28.0708 Y8.3760
G01 X28.0292 Y8.4639
G01 X28.0237 Y8.4748
G01 X28.0177 Y8.4855
G01 X27.9677 Y8.5689
G01 X27.9611 Y8.5792
G01 X27.9541 Y8.5893
G01 X27.8961 Y8.6674
G01 X27.8886 Y8.6770
G01 X27.8806 Y8.6863
G01 X27.8153 Y8.7583
G01 X27.8068 Y8.7672
G01 X27.7979 Y8.7757
G01 X27.7259 Y8.8410
G01 X27.7166 Y8.8490
G01 X27.7070 Y8.8565
G01 X27.6289 Y8.9145
G01 X27.6188 Y8.9215
G01 X27.6085 Y8.9281
G01 X27.5251 Y8.9781
G01 X27.5144 Y8.9841
G01 X27.5035 Y8.9896
G01 X27.4156 Y9.0312
G01 X27.4044 Y9.0362
G01 X27.3929 Y9.0406
G01 X27.3014 Y9.0733
G01 X27.2897 Y9.0772
G01 X27.2779 Y9.0805
G01 X27.1836 Y9.1041
G01 X27.1716 Y9.1068
G01 X27.1595 Y9.1089
G01 X27.0634 Y9.1231
G01 X27.0512 Y9.1246
G01 X27.0390 Y9.1255
G01 X26.9419 Y9.1303
G01 X26.9296 Y9.1306
G01 X26.9173 Y9.1303
G01 X26.8202 Y9.1255
G01 X26.8080 Y9.1246
G01 X26.7958 Y9.1231
G01 X26.6997 Y9.1089
G01 X26.6876 Y9.1068
G01 X26.6756 Y9.1041
G01 X26.5813 Y9.0805
G01 X26.5695 Y9.0772
G01 X26.5578 Y9.0733
G01 X26.4663 Y9.0406
G01 X26.4548 Y9.0362
G01 X26.4436 Y9.0312
G01 X26.3557 Y8.9896
G01 X26.3448 Y8.9841
G01 X26.3341 Y8.9781
G01 X26.2507 Y8.9281
G01 X26.2404 Y8.9215
G01 X26.2303 Y8.9145
G01 X26.1522 Y8.8565
G01 X26.1426 Y8.8490
G01 X26.1333 Y8.8410
G01 X26.0613 Y8.7757
G01 X26.0524 Y8.7672
G01 X26.0439 Y8.7583
G01 X25.9786 Y8.6863
G01 X25.9706 Y8.6770
G01 X25.9631 Y8.6674
G01 X25.9051 Y8.5893
G01 X25.8981 Y8.5792
G01 X25.8915 Y8.5689
G01 X25.8415 Y8.4855
G01 X25.8355 Y8.4748
G01 X25.8300 Y8.4639
G01 X25.7884 Y8.3760
G01 X25.7834 Y8.3648
G01 X25.7790 Y8.3533
G01 X25.7463 Y8.2618
G01 X25.7424 Y8.2501
G01 X25.7391 Y8.2383
G01 X25.7155 Y8.1440
G01 X25.7128 Y8.1320
G01 X25.7107 Y8.1199
G01 X25.6965 Y8.0238
G01 X25.6950 Y8.0116
G01 X25.6941 Y7.9994
G01 X25.6893 Y7.9023
G01 X25.6890 Y7.8900
G01 X25.6893 Y7.8777
G01 X25.6941 Y7.7806
G01 X25.6950 Y7.7684
G01 X25.6965 Y7.7562
G01 X25.7107 Y7.6601
G01 X25.7128 Y7.6480
G01 X25.7155 Y7.6360
G01 X25.7391 Y7.5417
G01 X25.7424 Y7.5299
G01 X25.7463 Y7.5182
G01 X25.7790 Y7.4267
G01 X25.7834 Y7.4152
G01 X25.7884 Y7.4040
G01 X25.8300 Y7.3161
G01 X25.8355 Y7.3052
G01 X25.8415 Y7.2945
G01 X25.8915 Y7.2111
G01 X25.8981 Y7.2008
G01 X25.9051 Y7.1907
G01 X25.9631 Y7.1126
G01 X25.9706 Y7.1030
G01 X25.9786 Y7.0937
G01 X26.0439 Y7.0217
G01 X26.0524 Y7.0128
G01 X26.0613 Y7.0043
G01 X26.1333 Y6.9390
G01 X26.1426 Y6.9310
G01 X26.1522 Y6.9235
G01 X26.2303 Y6.8655
G01 X26.2404 Y6.8585
G01 X26.2507 Y6.8519
G01 X26.3341 Y6.8019
G01 X26.3448 Y6.7959
G01 X26.3557 Y6.7904
G01 X26.4436 Y6.7488
G01 X26.4548 Y6.7438
G01 X26.4663 Y6.7394
G01 X26.5578 Y6.7067
G01 X26.5695 Y6.7028
G01 X26.5813 Y6.6995
G01 X26.6756 Y6.6759
G01 X26.6876 Y6.6732
G01 X26.6997 Y6.6711
G01 X26.7958 Y6.6569
G01 X26.8080 Y6.6554
G01 X26.8202 Y6.6545
G01 X26.9173 Y6.6497
G01 X26.9296 Y6.6494
G01 X26.9419 Y6.6497
G01 X27.0390 Y6.6545
G01 X27.0512 Y6.6554
G01 X27.0634 Y6.6569
G01 X27.1595 Y6.6711
G01 X27.1716 Y6.6732
G01 X27.1836 Y6.6759
G01 X27.2779 Y6.6995
G01 X27.2897 Y6.7028
G01 X27.3014 Y6.7067
G01 X27.3929 Y6.7394
G01 X27.4044 Y6.7438
G01 X27.4156 Y6.7488
G01 X27.5035 Y6.7904
G01 X27.5144 Y6.7959
G01 X27.5251 Y6.8019
G01 X27.6085 Y6.8519
G01 X27.6188 Y6.8585
G01 X27.6289 Y6.8655
G01 X27.7070 Y6.9235
G01 X27.7166 Y6.9310
G01 X27.7259 Y6.9390
G01 X27.7979 Y7.0043
G01 X27.8068 Y7.0128
G01 X27.8153 Y7.0217
G01 X27.8806 Y7.0937
G01 X27.8886 Y7.1030
G01 X27.8961 Y7.1126
G01 X27.9541 Y7.1907
G01 X27.9611 Y7.2008
G01 X27.9677 Y7.2111
G01 X28.0177 Y7.2945
G01 X28.0237 Y7.3052
G01 X28.0292 Y7.3161
G01 X28.0708 Y7.4040
G01 X28.0758 Y7.4152
G01 X28.0802 Y7.4267
G01 X28.1129 Y7.5182
G01 X28.1168 Y7.5299
G01 X28.1201 Y7.5417
G01 X28.1437 Y7.6360
G01 X28.1464 Y7.6480
G01 X28.1485 Y7.6601
G01 X28.1627 Y7.7562
G01 X28.1642 Y7.7684
G01 X28.1651 Y7.7806
G01 X28.1699 Y7.8777
G01 X28.1702 Y7.8900
G01 X28.1699 Y7.9023
G00 Z2.0000
G00 X28.1699 Y10.4423
G01 F60.00
G01 Z-0.1866
G01 F200.00
G01 X28.1651 Y10.5394
G01 X28.1642 Y10.5516
G01 X28.1627 Y10.5638
G01 X28.1485 Y10.6599
G01 X28.1464 Y10.6720
G01 X28.1437 Y10.6840
G01 X28.1201 Y10.7783
G01 X28.1168 Y10.7901
G01 X28.1129 Y10.8018
G01 X28.0802 Y10.8933
G01 X28.0758 Y10.9048
G01 X28.0708 Y10.9160
G01 X28.0292 Y11.0039
G01 X28.0237 Y11.0148
G01 X28.0177 Y11.0255
G01 X27.9677 Y11.1089
G01 X27.9611 Y11.1192
G01 X27.9541 Y11.1293
G01 X27.8961 Y11.2074
G01 X27.8886 Y11.2170
G01 X27.8806 Y11.2263
G01 X27.8153 Y11.2983
G01 X27.8068 Y11.3072
G01 X27.7979 Y11.3157
G01 X27.7259 Y11.3810
G01 X27.7166 Y11.3890
G01 X27.7070 Y11.3965
G01 X27.6289 Y11.4545
G01 X27.6188 Y11.4615
G01 X27.6085 Y11.4681
G01 X27.5251 Y11.5181
G01 X27.5144 Y11.5241
G01 X27.5035 Y11.5296
G01 X27.4156 Y11.5712
G01 X27.4044 Y11.5762
G01 X27.3929 Y11.5806
G01 X27.3014 Y11.6133
G01 X27.2897 Y11.6172
G01 X27.2779 Y11.6205
G01 X27.1836 Y11.6441
G01 X27.1716 Y11.6468
G01 X27.1595 Y11.6489
G01 X27.0634 Y11.6631
G01 X27.0512 Y11.6646
G01 X27.0390 Y11.6655
G01 X26.9419 Y11.6703
G01 X26.9296 Y11.6706
G01 X26.9173 Y11.6703
G01 X26.8202 Y11.6655
G01 X26.8080 Y11.6646
G01 X26.7958 Y11.6631
G01 X26.6997 Y11.6489
G01 X26.6876 Y11.6468
G01 X26.6756 Y11.6441
G01 X26.5813 Y11.6205
G01 X26.5695 Y11.6172
G01 X26.5578 Y11.6133
G01 X26.4663 Y11.5806
G01 X26.4548 Y11.5762
G01 X26.4436 Y11.5712
G01 X26.3557 Y11.5296
G01 X26.3448 Y11.5241
G01 X26.3341 Y11.5181
G01 X26.2507 Y11.4681
G01 X26.2404 Y11.4615
G01 X26.2303 Y11.4545
G01 X26.1522 Y11.3965
G01 X26.1426 Y11.3890
G01 X26.1333 Y11.3810
G01 X26.0613 Y11.3157
G01 X26.0524 Y11.3072
G01 X26.0439 Y11.2983
G01 X25.9786 Y11.2263
G01 X25.9706 Y11.2170
G01 X25.9631 Y11.2074
G01 X25.9051 Y11.1293
G01 X25.8981 Y11.1192
G01 X25.8915 Y11.1089
G01 X25.8415 Y11.0255
G01 X25.8355 Y11.0148
G01 X25.8300 Y11.0039
G01 X25.7884 Y10.9160
G01 X25.7834 Y10.9048
G01 X25.7790 Y10.8933
G01 X25.7463 Y10.8018
G01 X25.7424 Y10.7901
G01 X25.7391 Y10.7783
G01 X25.7155 Y10.6840
G01 X25.7128 Y10.6720
G01 X25.7107 Y10.6599
G01 X25.6965 Y10.5638
G01 X25.6950 Y10.5516
G01 X25.6941 Y10.5394
G01 X25.6893 Y10.4423
G01 X25.6890 Y10.4300
G01 X25.6893 Y10.4177
G01 X25.6941 Y10.3206
G01 X25.6950 Y10.3084
G01 X25.6965 Y10.2962
G01 X25.7107 Y10.2001
G01 X25.7128 Y10.1880
G01 X25.7155 Y10.1760
G01 X25.7391 Y10.0817
G01 X25.7424 Y10.0699
G01 X25.7463 Y10.0582
G01 X25.7790 Y9.9667
G01 X25.7834 Y9.9552
G01 X25.7884 Y9.9440
G01 X25.8300 Y9.8561
G01 X25.8355 Y9.8452
G01 X25.8415 Y9.8345
G01 X25.8915 Y9.7511
G01 X25.8981 Y9.7408
G01 X25.9051 Y9.7307
G01 X25.9631 Y9.6526
G01 X25.9706 Y9.6430
G01 X25.9786 Y9.6337
G01 X26.0439 Y9.5617
G01 X26.0524 Y9.5528
G01 X26.0613 Y9.5443
G01 X26.1333 Y9.4790
G01 X26.1426 Y9.4710
G01 X26.1522 Y9.4635
G01 X26.2303 Y9.4055
G01 X26.2404 Y9.3985
G01 X26.2507 Y9.3919
G01 X26.3341 Y9.3419
G01 X26.3448 Y9.3359
G01 X26.3557 Y9.3304
G01 X26.4436 Y9.2888
G01 X26.4548 Y9.2838
G01 X26.4663 Y9.2794
G01 X26.5578 Y9.2467
G01 X26.5695 Y9.2428
G01 X26.5813 Y9.2395
G01 X26.6756 Y9.2159
G01 X26.6876 Y9.2132
G01 X26.6997 Y9.2111
G01 X26.7958 Y9.1969
G01 X26.8080 Y9.1954
G01 X26.8202 Y9.1945
G01 X26.9173 Y9.1897
G01 X26.9296 Y9.1894
G01 X26.9419 Y9.1897
G01 X27.0390 Y9.1945
G01 X27.0512 Y9.1954
G01 X27.0634 Y9.1969
G01 X27.1595 Y9.2111
G01 X27.1716 Y9.2132
G01 X27.1836 Y9.2159
G01 X27.2779 Y9.2395
G01 X27.2897 Y9.2428
G01 X27.3014 Y9.2467
G01 X27.3929 Y9.2794
G01 X27.4044 Y9.2838
G01 X27.4156 Y9.2888
G01 X27.5035 Y9.3304
G01 X27.5144 Y9.3359
G01 X27.5251 Y9.3419
G01 X27.6085 Y9.3919
G01 X27.6188 Y9.3985
G01 X27.6289 Y9.4055
G01 X27.7070 Y9.4635
G01 X27.7166 Y9.4710
G01 X27.7259 Y9.4790
G01 X27.7979 Y9.5443
G01 X27.8068 Y9.5528
G01 X27.8153 Y9.5617
G01 X27.8806 Y9.6337
G01 X27.8886 Y9.6430
G01 X27.8961 Y9.6526
G01 X27.9541 Y9.7307
G01 X27.9611 Y9.7408
G01 X27.9677 Y9.7511
G01 X28.0177 Y9.8345
G01 X28.0237 Y9.8452
G01 X28.0292 Y9.8561
G01 X28.0708 Y9.9440
G01 X28.0758 Y9.9552
G01 X28.0802 Y9.9667
G01 X28.1129 Y10.0582
G01 X28.1168 Y10.0699
G01 X28.1201 Y10.0817
G01 X28.1437 Y10.1760
G01 X28.1464 Y10.1880
G01 X28.1485 Y10.2001
G01 X28.1627 Y10.2962
G01 X28.1642 Y10.3084
G01 X28.1651 Y10.3206
G01 X28.1699 Y10.4177
G01 X28.1702 Y10.4300
G01 X28.1699 Y10.4423
G00 Z2.0000
G00 X30.7099 Y10.4423
G01 F60.00
G01 Z-0.1866
G01 F200.00
G01 X30.7051 Y10.5394
G01 X30.7042 Y10.5516
G01 X30.7027 Y10.5638
G01 X30.6885 Y10.6599
G01 X30.6864 Y10.6720
G01 X30.6837 Y10.6840
G01 X30.6601 Y10.7783
G01 X30.6568 Y10.7901
G01 X30.6529 Y10.8018
G01 X30.6202 Y10.8933
G01 X30.6158 Y10.9048
G01 X30.6108 Y10.9160
G01 X30.5692 Y11.0039
G01 X30.5637 Y11.0148
G01 X30.5577 Y11.0255
G01 X30.5077 Y11.1089
G01 X30.5011 Y11.1192
G01 X30.4941 Y11.1293
G01 X30.4361 Y11.2074
G01 X30.4286 Y11.2170
G01 X30.4206 Y11.2263
G01 X30.3553 Y11.2983
G01 X30.3468 Y11.3072
G01 X30.3379 Y11.3157
G01 X30.2659 Y11.3810
G01 X30.2566 Y11.3890
G01 X30.2470 Y11.3965
G01 X30.1689 Y11.4545
G01 X30.1588 Y11.4615
G01 X30.1485 Y11.4681
G01 X30.0651 Y11.5181
G01 X30.0544 Y11.5241
G01 X30.0435 Y11.5296
G01 X29.9556 Y11.5712
G01 X29.9444 Y11.5762
G01 X29.9329 Y11.5806
G01 X29.8414 Y11.6133
G01 X29.8297 Y11.6172
G01 X29.8179 Y11.6205
G01 X29.7236 Y11.6441
G01 X29.7116 Y11.6468
G01 X29.6995 Y11.6489
G01 X29.6034 Y11.6631
G01 X29.5912 Y11.6646
G01 X29.5790 Y11.6655
G01 X29.4819 Y11.6703
G01 X29.4696 Y11.6706
G01 X29.4573 Y11.6703
G01 X29.3602 Y11.6655
G01 X29.3480 Y11.6646
G01 X29.3358 Y11.6631
G01 X29.2397 Y11.6489
G01 X29.2276 Y11.6468
G01 X29.2156 Y11.6441
G01 X29.1213 Y11.6205
G01 X29.1095 Y11.6172
G01 X29.0978 Y11.6133
G01 X29.0063 Y11.5806
G01 X28.9948 Y11.5762
G01 X28.9836 Y11.5712
G01 X28.8957 Y11.5296
G01 X28.8848 Y11.5241
G01 X28.8741 Y11.5181
G01 X28.7907 Y11.4681
G01 X28.7804 Y11.4615
G01 X28.7703 Y11.4545
G01 X28.6922 Y11.3965
G01 X28.6826 Y11.3890
G01 X28.6733 Y11.3810
G01 X28.6013 Y11.3157
G01 X28.5924 Y11.3072
G01 X28.5839 Y11.2983
G01 X28.5186 Y11.2263
G01 X28.5106 Y11.2170
G01 X28.5031 Y11.2074
G01 X28.4451 Y11.1293
G01 X28.4381 Y11.1192
G01 X28.4315 Y11.1089
G01 X28.3815 Y11.0255
G01 X28.3755 Y11.0148
G01 X28.3700 Y11.0039
G01 X28.3284 Y10.9160
G01 X28.3234 Y10.9048
G01 X28.3190 Y10.8933
G01 X28.2863 Y10.8018
G01 X28.2824 Y10.7901
G01 X28.2791 Y10.7783
G01 X28.2555 Y10.6840
G01 X28.2528 Y10.6720
G01 X28.2507 Y10.6599
G01 X28.2365 Y10.5638
G01 X28.2350 Y10.5516
G01 X28.2341 Y10.5394
G01 X28.2293 Y10.4423
G01 X28.2290 Y10.4300
G01 X28.2293 Y10.4177
G01 X28.2341 Y10.3206
G01 X28.2350 Y10.3084
G01 X28.2365 Y10.2962
G01 X28.2507 Y10.2001
G01 X28.2528 Y10.1880
G01 X28.2555 Y10.1760
G01 X28.2791 Y10.0817
G01 X28.2824 Y10.0699
G01 X28.2863 Y10.0582
G01 X28.3190 Y9.9667
G01 X28.3234 Y9.9552
G01 X28.3284 Y9.9440
G01 X28.3700 Y9.8561
G01 X28.3755 Y9.8452
G01 X28.3815 Y9.8345
G01 X28.4315 Y9.7511
G01 X28.4381 Y9.7408
G01 X28.4451 Y9.7307
G01 X28.5031 Y9.6526
G01 X28.5106 Y9.6430
G01 X28.5186 Y9.6337
G01 X28.5839 Y9.5617
G01 X28.5924 Y9.5528
G01 X28.6013 Y9.5443
G01 X28.6733 Y9.4790
G01 X28.6826 Y9.4710
G01 X28.6922 Y9.4635
G01 X28.7703 Y9.4055
G01 X28.7804 Y9.3985
G01 X28.7907 Y9.3919
G01 X28.8741 Y9.3419
G01 X28.8848 Y9.3359
G01 X28.8957 Y9.3304
G01 X28.9836 Y9.2888
G01 X28.9948 Y9.2838
G01 X29.0063 Y9.2794
G01 X29.0978 Y9.2467
G01 X29.1095 Y9.2428
G01 X29.1213 Y9.2395
G01 X29.2156 Y9.2159
G01 X29.2276 Y9.2132
G01 X29.2397 Y9.2111
G01 X29.3358 Y9.1969
G01 X29.3480 Y9.1954
G01 X29.3602 Y9.1945
G01 X29.4573 Y9.1897
G01 X29.4696 Y9.1894
G01 X29.4819 Y9.1897
G01 X29.5790 Y9.1945
G01 X29.5912 Y9.1954
G01 X29.6034 Y9.1969
G01 X29.6995 Y9.2111
G01 X29.7116 Y9.2132
G01 X29.7236 Y9.2159
G01 X29.8179 Y9.2395
G01 X29.8297 Y9.2428
G01 X29.8414 Y9.2467
G01 X29.9329 Y9.2794
G01 X29.9444 Y9.2838
G01 X29.9556 Y9.2888
G01 X30.0435 Y9.3304
G01 X30.0544 Y9.3359
G01 X30.0651 Y9.3419
G01 X30.1485 Y9.3919
G01 X30.1588 Y9.3985
G01 X30.1689 Y9.4055
G01 X30.2470 Y9.4635
G01 X30.2566 Y9.4710
G01 X30.2659 Y9.4790
G01 X30.3379 Y9.5443
G01 X30.3468 Y9.5528
G01 X30.3553 Y9.5617
G01 X30.4206 Y9.6337
G01 X30.4286 Y9.6430
G01 X30.4361 Y9.6526
G01 X30.4941 Y9.7307
G01 X30.5011 Y9.7408
G01 X30.5077 Y9.7511
G01 X30.5577 Y9.8345
G01 X30.5637 Y9.8452
G01 X30.5692 Y9.8561
G01 X30.6108 Y9.9440
G01 X30.6158 Y9.9552
G01 X30.6202 Y9.9667
G01 X30.6529 Y10.0582
G01 X30.6568 Y10.0699
G01 X30.6601 Y10.0817
G01 X30.6837 Y10.1760
G01 X30.6864 Y10.1880
G01 X30.6885 Y10.2001
G01 X30.7027 Y10.2962
G01 X30.7042 Y10.3084
G01 X30.7051 Y10.3206
G01 X30.7099 Y10.4177
G01 X30.7102 Y10.4300
G01 X30.7099 Y10.4423
G00 Z2.0000
G00 X30.7099 Y7.9023
G01 F60.00
G01 Z-0.1866
G01 F200.00
G01 X30.7051 Y7.9994
G01 X30.7042 Y8.0116
G01 X30.7027 Y8.0238
G01 X30.6885 Y8.1199
G01 X30.6864 Y8.1320
G01 X30.6837 Y8.1440
G01 X30.6601 Y8.2383
G01 X30.6568 Y8.2501
G01 X30.6529 Y8.2618
G01 X30.6202 Y8.3533
G01 X30.6158 Y8.3648
G01 X30.6108 Y8.3760
G01 X30.5692 Y8.4639
G01 X30.5637 Y8.4748
G01 X30.5577 Y8.4855
G01 X30.5077 Y8.5689
G01 X30.5011 Y8.5792
G01 X30.4941 Y8.5893
G01 X30.4361 Y8.6674
G01 X30.4286 Y8.6770
G01 X30.4206 Y8.6863
G01 X30.3553 Y8.7583
G01 X30.3468 Y8.7672
G01 X30.3379 Y8.7757
G01 X30.2659 Y8.8410
G01 X30.2566 Y8.8490
G01 X30.2470 Y8.8565
G01 X30.1689 Y8.9145
G01 X30.1588 Y8.9215
G01 X30.1485 Y8.9281
G01 X30.0651 Y8.9781
G01 X30.0544 Y8.9841
G01 X30.0435 Y8.9896
G01 X29.9556 Y9.0312
G01 X29.9444 Y9.0362
G01 X29.9329 Y9.0406
G01 X29.8414 Y9.0733
G01 X29.8297 Y9.0772
G01 X29.8179 Y9.0805
G01 X29.7236 Y9.1041
G01 X29.7116 Y9.1068
G01 X29.6995 Y9.1089
G01 X29.6034 Y9.1231
G01 X29.5912 Y9.1246
G01 X29.5790 Y9.1255
G01 X29.4819 Y9.1303
G01 X29.4696 Y9.1306
G01 X29.4573 Y9.1303
G01 X29.3602 Y9.1255
G01 X29.3480 Y9.1246
G01 X29.3358 Y9.1231
G01 X29.2397 Y9.1089
G01 X29.2276 Y9.1068
G01 X29.2156 Y9.1041
G01 X29.1213 Y9.0805
G01 X29.1095 Y9.0772
G01 X29.0978 Y9.0733
G01 X29.0063 Y9.0406
G01 X28.9948 Y9.0362
G01 X28.9836 Y9.0312
G01 X28.8957 Y8.9896
G01 X28.8848 Y8.9841
G01 X28.8741 Y8.9781
G01 X28.7907 Y8.9281
G01 X28.7804 Y8.9215
G01 X28.7703 Y8.9145
G01 X28.6922 Y8.8565
G01 X28.6826 Y8.8490
G01 X28.6733 Y8.8410
G01 X28.6013 Y8.7757
G01 X28.5924 Y8.7672
G01 X28.5839 Y8.7583
G01 X28.5186 Y8.6863
G01 X28.5106 Y8.6770
G01 X28.5031 Y8.6674
G01 X28.4451 Y8.5893
G01 X28.4381 Y8.5792
G01 X28.4315 Y8.5689
G01 X28.3815 Y8.4855
G01 X28.3755 Y8.4748
G01 X28.3700 Y8.4639
G01 X28.3284 Y8.3760
G01 X28.3234 Y8.3648
G01 X28.3190 Y8.3533
G01 X28.2863 Y8.2618
G01 X28.2824 Y8.2501
G01 X28.2791 Y8.2383
G01 X28.2555 Y8.1440
G01 X28.2528 Y8.1320
G01 X28.2507 Y8.1199
G01 X28.2365 Y8.0238
G01 X28.2350 Y8.0116
G01 X28.2341 Y7.9994
G01 X28.2293 Y7.9023
G01 X28.2290 Y7.8900
G01 X28.2293 Y7.8777
G01 X28.2341 Y7.7806
G01 X28.2350 Y7.7684
G01 X28.2365 Y7.7562
G01 X28.2507 Y7.6601
G01 X28.2528 Y7.6480
G01 X28.2555 Y7.6360
G01 X28.2791 Y7.5417
G01 X28.2824 Y7.5299
G01 X28.2863 Y7.5182
G01 X28.3190 Y7.4267
G01 X28.3234 Y7.4152
G01 X28.3284 Y7.4040
G01 X28.3700 Y7.3161
G01 X28.3755 Y7.3052
G01 X28.3815 Y7.2945
G01 X28.4315 Y7.2111
G01 X28.4381 Y7.2008
G01 X28.4451 Y7.1907
G01 X28.5031 Y7.1126
G01 X28.5106 Y7.1030
G01 X28.5186 Y7.0937
G01 X28.5839 Y7.0217
G01 X28.5924 Y7.0128
G01 X28.6013 Y7.0043
G01 X28.6733 Y6.9390
G01 X28.6826 Y6.9310
G01 X28.6922 Y6.9235
G01 X28.7703 Y6.8655
G01 X28.7804 Y6.8585
G01 X28.7907 Y6.8519
G01 X28.8741 Y6.8019
G01 X28.8848 Y6.7959
G01 X28.8957 Y6.7904
G01 X28.9836 Y6.7488
G01 X28.9948 Y6.7438
G01 X29.0063 Y6.7394
G01 X29.0978 Y6.7067
G01 X29.1095 Y6.7028
G01 X29.1213 Y6.6995
G01 X29.2156 Y6.6759
G01 X29.2276 Y6.6732
G01 X29.2397 Y6.6711
G01 X29.3358 Y6.6569
G01 X29.3480 Y6.6554
G01 X29.3602 Y6.6545
G01 X29.4573 Y6.6497
G01 X29.4696 Y6.6494
G01 X29.4819 Y6.6497
G01 X29.5790 Y6.6545
G01 X29.5912 Y6.6554
G01 X29.6034 Y6.6569
G01 X29.6995 Y6.6711
G01 X29.7116 Y6.6732
G01 X29.7236 Y6.6759
G01 X29.8179 Y6.6995
G01 X29.8297 Y6.7028
G01 X29.8414 Y6.7067
G01 X29.9329 Y6.7394
G01 X29.9444 Y6.7438
G01 X29.9556 Y6.7488
G01 X30.0435 Y6.7904
G01 X30.0544 Y6.7959
G01 X30.0651 Y6.8019
G01 X30.1485 Y6.8519
G01 X30.1588 Y6.8585
G01 X30.1689 Y6.8655
G01 X30.2470 Y6.9235
G01 X30.2566 Y6.9310
G01 X30.2659 Y6.9390
G01 X30.3379 Y7.0043
G01 X30.3468 Y7.0128
G01 X30.3553 Y7.0217
G01 X30.4206 Y7.0937
G01 X30.4286 Y7.1030
G01 X30.4361 Y7.1126
G01 X30.4941 Y7.1907
G01 X30.5011 Y7.2008
G01 X30.5077 Y7.2111
G01 X30.5577 Y7.2945
G01 X30.5637 Y7.3052
G01 X30.5692 Y7.3161
G01 X30.6108 Y7.4040
G01 X30.6158 Y7.4152
G01 X30.6202 Y7.4267
G01 X30.6529 Y7.5182
G01 X30.6568 Y7.5299
G01 X30.6601 Y7.5417
G01 X30.6837 Y7.6360
G01 X30.6864 Y7.6480
G01 X30.6885 Y7.6601
G01 X30.7027 Y7.7562
G01 X30.7042 Y7.7684
G01 X30.7051 Y7.7806
G01 X30.7099 Y7.8777
G01 X30.7102 Y7.8900
G01 X30.7099 Y7.9023
G00 Z2.0000
G00 X33.2499 Y7.9023
G01 F60.00
G01 Z-0.1866
G01 F200.00
G01 X33.2451 Y7.9994
G01 X33.2442 Y8.0116
G01 X33.2427 Y8.0238
G01 X33.2285 Y8.1199
G01 X33.2264 Y8.1320
G01 X33.2237 Y8.1440
G01 X33.2001 Y8.2383
G01 X33.1968 Y8.2501
G01 X33.1929 Y8.2618
G01 X33.1602 Y8.3533
G01 X33.1558 Y8.3648
G01 X33.1508 Y8.3760
G01 X33.1092 Y8.4639
G01 X33.1037 Y8.4748
G01 X33.0977 Y8.4855
G01 X33.0477 Y8.5689
G01 X33.0411 Y8.5792
G01 X33.0341 Y8.5893
G01 X32.9761 Y8.6674
G01 X32.9686 Y8.6770
G01 X32.9606 Y8.6863
G01 X32.8953 Y8.7583
G01 X32.8868 Y8.7672
G01 X32.8779 Y8.7757
G01 X32.8059 Y8.8410
G01 X32.7966 Y8.8490
G01 X32.7870 Y8.8565
G01 X32.7089 Y8.9145
G01 X32.6988 Y8.9215
G01 X32.6885 Y8.9281
G01 X32.6051 Y8.9781
G01 X32.5944 Y8.9841
G01 X32.5835 Y8.9896
G01 X32.4956 Y9.0312
G01 X32.4844 Y9.0362
G01 X32.4729 Y9.0406
G01 X32.3814 Y9.0733
G01 X32.3697 Y9.0772
G01 X32.3579 Y9.0805
G01 X32.2636 Y9.1041
G01 X32.2516 Y9.1068
G01 X32.2395 Y9.1089
G01 X32.1434 Y9.1231
G01 X32.1312 Y9.1246
G01 X32.1190 Y9.1255
G01 X32.0219 Y9.1303
G01 X32.0096 Y9.1306
G01 X31.9973 Y9.1303
G01 X31.9002 Y9.1255
G01 X31.8880 Y9.1246
G01 X31.8758 Y9.1231
G01 X31.7797 Y9.1089
G01 X31.7676 Y9.1068
G01 X31.7556 Y9.1041
G01 X31.6613 Y9.0805
G01 X31.6495 Y9.0772
G01 X31.6378 Y9.0733
G01 X31.5463 Y9.0406
G01 X31.5348 Y9.0362
G01 X31.5236 Y9.0312
G01 X31.4357 Y8.9896
G01 X31.4248 Y8.9841
G01 X31.4141 Y8.9781
G01 X31.3307 Y8.9281
G01 X31.3204 Y8.9215
G01 X31.3103 Y8.9145
G01 X31.2322 Y8.8565
G01 X31.2226 Y8.8490
G01 X31.2133 Y8.8410
G01 X31.1413 Y8.7757
G01 X31.1324 Y8.7672
G01 X31.1239 Y8.7583
G01 X31.0586 Y8.6863
G01 X31.0506 Y8.6770
G01 X31.0431 Y8.6674
G01 X30.9851 Y8.5893
G01 X30.9781 Y8.5792
G01 X30.9715 Y8.5689
G01 X30.9215 Y8.4855
G01 X30.9155 Y8.4748
G01 X30.9100 Y8.4639
G01 X30.8684 Y8.3760
G01 X30.8634 Y8.3648
G01 X30.8590 Y8.3533
G01 X30.8263 Y8.2618
G01 X30.8224 Y8.2501
G01 X30.8191 Y8.2383
G01 X30.7955 Y8.1440
G01 X30.7928 Y8.1320
G01 X30.7907 Y8.1199
G01 X30.7765 Y8.0238
G01 X30.7750 Y8.0116
G01 X30.7741 Y7.9994
G01 X30.7693 Y7.9023
G01 X30.7690 Y7.8900
G01 X30.7693 Y7.8777
G01 X30.7741 Y7.7806
G01 X30.7750 Y7.7684
G01 X30.7765 Y7.7562
G01 X30.7907 Y7.6601
G01 X30.7928 Y7.6480
G01 X30.7955 Y7.6360
G01 X30.8191 Y7.5417
G01 X30.8224 Y7.5299
G01 X30.8263 Y7.5182
G01 X30.8590 Y7.4267
G01 X30.8634 Y7.4152
G01 X30.8684 Y7.4040
G01 X30.9100 Y7.3161
G01 X30.9155 Y7.3052
G01 X30.9215 Y7.2945
G01 X30.9715 Y7.2111
G01 X30.9781 Y7.2008
G01 X30.9851 Y7.1907
G01 X31.0431 Y7.1126
G01 X31.0506 Y7.1030
G01 X31.0586 Y7.0937
G01 X31.1239 Y7.0217
G01 X31.1324 Y7.0128
G01 X31.1413 Y7.0043
G01 X31.2133 Y6.9390
G01 X31.2226 Y6.9310
G01 X31.2322 Y6.9235
G01 X31.3103 Y6.8655
G01 X31.3204 Y6.8585
G01 X31.3307 Y6.8519
G01 X31.4141 Y6.8019
G01 X31.4248 Y6.7959
G01 X31.4357 Y6.7904
G01 X31.5236 Y6.7488
G01 X31.5348 Y6.7438
G01 X31.5463 Y6.7394
G01 X31.6378 Y6.7067
G01 X31.6495 Y6.7028
G01 X31.6613 Y6.6995
G01 X31.7556 Y6.6759
G01 X31.7676 Y6.6732
G01 X31.7797 Y6.6711
G01 X31.8758 Y6.6569
G01 X31.8880 Y6.6554
G01 X31.9002 Y6.6545
G01 X31.9973 Y6.6497
G01 X32.0096 Y6.6494
G01 X32.0219 Y6.6497
G01 X32.1190 Y6.6545
G01 X32.1312 Y6.6554
G01 X32.1434 Y6.6569
G01 X32.2395 Y6.6711
G01 X32.2516 Y6.6732
G01 X32.2636 Y6.6759
G01 X32.3579 Y6.6995
G01 X32.3697 Y6.7028
G01 X32.3814 Y6.7067
G01 X32.4729 Y6.7394
G01 X32.4844 Y6.7438
G01 X32.4956 Y6.7488
G01 X32.5835 Y6.7904
G01 X32.5944 Y6.7959
G01 X32.6051 Y6.8019
G01 X32.6885 Y6.8519
G01 X32.6988 Y6.8585
G01 X32.7089 Y6.8655
G01 X32.7870 Y6.9235
G01 X32.7966 Y6.9310
G01 X32.8059 Y6.9390
G01 X32.8779 Y7.0043
G01 X32.8868 Y7.0128
G01 X32.8953 Y7.0217
G01 X32.9606 Y7.0937
G01 X32.9686 Y7.1030
G01 X32.9761 Y7.1126
G01 X33.0341 Y7.1907
G01 X33.0411 Y7.2008
G01 X33.0477 Y7.2111
G01 X33.0977 Y7.2945
G01 X33.1037 Y7.3052
G01 X33.1092 Y7.3161
G01 X33.1508 Y7.4040
G01 X33.1558 Y7.4152
G01 X33.1602 Y7.4267
G01 X33.1929 Y7.5182
G01 X33.1968 Y7.5299
G01 X33.2001 Y7.5417
G01 X33.2237 Y7.6360
G01 X33.2264 Y7.6480
G01 X33.2285 Y7.6601
G01 X33.2427 Y7.7562
G01 X33.2442 Y7.7684
G01 X33.2451 Y7.7806
G01 X33.2499 Y7.8777
G01 X33.2502 Y7.8900
G01 X33.2499 Y7.9023
G00 Z2.0000
G00 X35.7899 Y7.9023
G01 F60.00
G01 Z-0.1866
G01 F200.00
G01 X35.7851 Y7.9994
G01 X35.7842 Y8.0116
G01 X35.7827 Y8.0238
G01 X35.7685 Y8.1199
G01 X35.7664 Y8.1320
G01 X35.7637 Y8.1440
G01 X35.7401 Y8.2383
G01 X35.7368 Y8.2501
G01 X35.7329 Y8.2618
G01 X35.7002 Y8.3533
G01 X35.6958 Y8.3648
G01 X35.6908 Y8.3760
G01 X35.6492 Y8.4639
G01 X35.6437 Y8.4748
G01 X35.6377 Y8.4855
G01 X35.5877 Y8.5689
G01 X35.5811 Y8.5792
G01 X35.5741 Y8.5893
G01 X35.5161 Y8.6674
G01 X35.5086 Y8.6770
G01 X35.5006 Y8.6863
G01 X35.4353 Y8.7583
G01 X35.4268 Y8.7672
G01 X35.4179 Y8.7757
G01 X35.3459 Y8.8410
G01 X35.3366 Y8.8490
G01 X35.3270 Y8.8565
G01 X35.2489 Y8.9145
G01 X35.2388 Y8.9215
G01 X35.2285 Y8.9281
G01 X35.1451 Y8.9781
G01 X35.1344 Y8.9841
G01 X35.1235 Y8.9896
G01 X35.0356 Y9.0312
G01 X35.0244 Y9.0362
G01 X35.0129 Y9.0406
G01 X34.9214 Y9.0733
G01 X34.9097 Y9.0772
G01 X34.8979 Y9.0805
G01 X34.8036 Y9.1041
G01 X34.7916 Y9.1068
G01 X34.7795 Y9.1089
G01 X34.6834 Y9.1231
G01 X34.6712 Y9.1246
G01 X34.6590 Y9.1255
G01 X34.5619 Y9.1303
G01 X34.5496 Y9.1306
G01 X34.5373 Y9.1303
G01 X34.4402 Y9.1255
G01 X34.4280 Y9.1246
G01 X34.4158 Y9.1231
G01 X34.3197 Y9.1089
